;FLAVOR:Marlin
;TIME:6717
;Filament used: 4.05092m
;Layer height: 0.1
;Generated with Cura_SteamEngine 3.6.0
M140 S60
M105
M190 S60
M104 S200
M105
M109 S200
M82 ;absolute extrusion mode
; Ender 3 Custom Start G-code
G28 ; Home all axes
G92 E0 ; Reset Extruder
G1 Z2.0 F3000 ; Move Z Axis up little to prevent scratching of Heat Bed
G1 X0.1 Y20 Z0.3 F5000.0 ; Move to start position
G1 X0.1 Y200.0 Z0.3 F1500.0 E15 ; Draw the first line
G1 X0.4 Y200.0 Z0.3 F5000.0 ; Move to side a little
G1 X0.4 Y20 Z0.3 F1500.0 E30 ; Draw the second line
G92 E0 ; Reset Extruder
G1 Z2.0 F3000 ; Move Z Axis up little to prevent scratching of Heat Bed
; End of custom start GCode
G92 E0
G1 F2400 E-5
;LAYER_COUNT:111
;LAYER:0
M107
M204 S5000
M205 X30 Y30
G0 F3600 X71.796 Y76.592 Z0.2
M204 S500
M205 X20 Y20
;TYPE:SKIRT
G1 F2400 E0
G1 F1800 X72.382 Y76.062 E0.02628
G1 X73.018 Y75.595 E0.05252
G1 X73.698 Y75.194 E0.07878
G1 X74.416 Y74.864 E0.10506
G1 X75.163 Y74.609 E0.13132
G1 X75.932 Y74.43 E0.15758
G1 X76.716 Y74.33 E0.18386
G1 X77.31 Y74.307 E0.20363
G1 X135.161 Y74.303 E2.12777
G1 X135.95 Y74.343 E2.15404
G1 X136.731 Y74.462 E2.18032
G1 X137.495 Y74.66 E2.20657
G1 X138.236 Y74.934 E2.23285
G1 X138.945 Y75.282 E2.25911
G1 X139.615 Y75.699 E2.28536
G1 X140.24 Y76.182 E2.31163
G1 X140.677 Y76.588 E2.33147
G1 X140.794 Y76.705 E2.33698
G1 X141.324 Y77.291 E2.36326
G1 X141.791 Y77.927 E2.3895
G1 X142.192 Y78.607 E2.41576
G1 X142.522 Y79.325 E2.44204
G1 X142.777 Y80.072 E2.46829
G1 X142.956 Y80.841 E2.49455
G1 X143.056 Y81.625 E2.52084
G1 X143.079 Y82.22 E2.54064
G1 X143.079 Y83.284 E2.57603
G1 X143.039 Y84.073 E2.60231
G1 X142.92 Y84.853 E2.62855
G1 X142.722 Y85.618 E2.65483
G1 X142.448 Y86.358 E2.68108
G1 X142.1 Y87.067 E2.70735
G1 X141.682 Y87.738 E2.73364
G1 X141.199 Y88.362 E2.75989
G1 X140.794 Y88.799 E2.7797
G1 X140.677 Y88.916 E2.78521
G1 X140.091 Y89.446 E2.81149
G1 X139.455 Y89.913 E2.83773
G1 X138.775 Y90.314 E2.86399
G1 X138.057 Y90.644 E2.89027
G1 X137.31 Y90.899 E2.91652
G1 X136.541 Y91.078 E2.94278
G1 X135.757 Y91.178 E2.96907
G1 X135.162 Y91.201 E2.98888
G1 X77.311 Y91.199 E4.91301
G1 X76.522 Y91.159 E4.93928
G1 X75.741 Y91.039 E4.96556
G1 X74.977 Y90.842 E4.99181
G1 X74.236 Y90.567 E5.0181
G1 X73.527 Y90.22 E5.04435
G1 X72.857 Y89.802 E5.07061
G1 X72.232 Y89.319 E5.09689
G1 X71.796 Y88.914 E5.11668
G1 X71.679 Y88.797 E5.12218
G1 X71.149 Y88.211 E5.14846
G1 X70.682 Y87.575 E5.17471
G1 X70.281 Y86.895 E5.20096
G1 X69.951 Y86.177 E5.22724
G1 X69.696 Y85.43 E5.2535
G1 X69.517 Y84.661 E5.27976
G1 X69.417 Y83.877 E5.30605
G1 X69.394 Y83.282 E5.32585
G1 X69.394 Y82.224 E5.36104
G1 X69.434 Y81.435 E5.38732
G1 X69.553 Y80.655 E5.41356
G1 X69.751 Y79.89 E5.43984
G1 X70.025 Y79.15 E5.46609
G1 X70.373 Y78.441 E5.49236
G1 X70.791 Y77.77 E5.51865
G1 X71.274 Y77.146 E5.54489
G1 X71.679 Y76.709 E5.56471
G1 X71.796 Y76.592 E5.57021
M204 S5000
M205 X30 Y30
G0 F3600 X72.078 Y76.874
M204 S500
M205 X20 Y20
G1 F1800 X72.65 Y76.36 E5.59579
G1 X73.272 Y75.907 E5.62138
G1 X73.937 Y75.521 E5.64696
G1 X74.639 Y75.206 E5.67255
G1 X75.37 Y74.966 E5.69814
G1 X76.121 Y74.803 E5.7237
G1 X76.886 Y74.719 E5.7493
G1 X77.31 Y74.707 E5.7634
G1 X135.161 Y74.703 E7.68754
G1 X135.93 Y74.743 E7.71315
G1 X136.689 Y74.862 E7.7387
G1 X137.433 Y75.06 E7.76431
G1 X138.152 Y75.334 E7.7899
G1 X138.838 Y75.681 E7.81547
G1 X139.485 Y76.097 E7.84105
G1 X140.085 Y76.578 E7.86663
G1 X140.395 Y76.87 E7.88079
G1 X140.512 Y76.987 E7.8863
G1 X141.026 Y77.559 E7.91188
G1 X141.479 Y78.181 E7.93747
G1 X141.865 Y78.846 E7.96304
G1 X142.18 Y79.548 E7.98863
G1 X142.42 Y80.279 E8.01422
G1 X142.583 Y81.03 E8.03978
G1 X142.667 Y81.795 E8.06538
G1 X142.679 Y82.22 E8.07952
G1 X142.679 Y83.284 E8.11491
G1 X142.639 Y84.052 E8.14049
G1 X142.52 Y84.812 E8.16607
G1 X142.322 Y85.555 E8.19165
G1 X142.048 Y86.274 E8.21724
G1 X141.701 Y86.96 E8.24281
G1 X141.285 Y87.607 E8.26839
G1 X140.804 Y88.207 E8.29397
G1 X140.512 Y88.517 E8.30814
G1 X140.395 Y88.634 E8.31364
G1 X139.823 Y89.148 E8.33922
G1 X139.201 Y89.601 E8.36481
G1 X138.536 Y89.987 E8.39038
G1 X137.834 Y90.302 E8.41597
G1 X137.103 Y90.542 E8.44156
G1 X136.352 Y90.705 E8.46712
G1 X135.587 Y90.789 E8.49272
G1 X135.162 Y90.801 E8.50686
G1 X77.311 Y90.799 E10.43099
G1 X76.543 Y90.759 E10.45657
G1 X75.783 Y90.639 E10.48216
G1 X75.04 Y90.442 E10.50773
G1 X74.321 Y90.168 E10.53332
G1 X73.634 Y89.821 E10.55892
G1 X72.988 Y89.405 E10.58448
G1 X72.388 Y88.923 E10.61007
G1 X72.078 Y88.632 E10.62422
G1 X71.961 Y88.515 E10.62972
G1 X71.447 Y87.943 E10.6553
G1 X70.994 Y87.321 E10.68089
G1 X70.608 Y86.656 E10.70646
G1 X70.293 Y85.954 E10.73206
G1 X70.053 Y85.223 E10.75765
G1 X69.89 Y84.472 E10.7832
G1 X69.806 Y83.707 E10.8088
G1 X69.794 Y83.282 E10.82294
G1 X69.794 Y82.224 E10.85813
G1 X69.834 Y81.456 E10.88371
G1 X69.953 Y80.696 E10.9093
G1 X70.151 Y79.953 E10.93487
G1 X70.425 Y79.234 E10.96046
G1 X70.772 Y78.548 E10.98603
G1 X71.188 Y77.901 E11.01162
G1 X71.669 Y77.301 E11.03719
G1 X71.961 Y76.991 E11.05136
G1 X72.078 Y76.874 E11.05686
M204 S5000
M205 X30 Y30
G0 F3600 X72.361 Y77.157
M204 S500
M205 X20 Y20
G1 F1800 X72.918 Y76.657 E11.08176
G1 X73.524 Y76.22 E11.10661
G1 X74.174 Y75.849 E11.1315
G1 X74.86 Y75.55 E11.15639
G1 X75.574 Y75.326 E11.18128
G1 X76.307 Y75.179 E11.20614
G1 X77.311 Y75.107 E11.23962
G1 X135.162 Y75.103 E13.16375
G1 X135.909 Y75.143 E13.18863
G1 X136.647 Y75.262 E13.2135
G1 X137.369 Y75.46 E13.2384
G1 X138.065 Y75.733 E13.26326
G1 X138.728 Y76.079 E13.28814
G1 X139.35 Y76.494 E13.31301
G1 X140.112 Y77.153 E13.34651
G1 X140.229 Y77.27 E13.35202
G1 X140.729 Y77.827 E13.37691
G1 X141.166 Y78.433 E13.40176
G1 X141.537 Y79.083 E13.42666
G1 X141.836 Y79.769 E13.45154
G1 X142.06 Y80.483 E13.47643
G1 X142.207 Y81.216 E13.5013
G1 X142.279 Y82.22 E13.53478
G1 X142.279 Y83.284 E13.57017
G1 X142.239 Y84.031 E13.59505
G1 X142.12 Y84.769 E13.61991
G1 X141.922 Y85.491 E13.64481
G1 X141.649 Y86.187 E13.66968
G1 X141.302 Y86.85 E13.69457
G1 X140.887 Y87.473 E13.71946
G1 X140.229 Y88.234 E13.75292
G1 X140.112 Y88.351 E13.75843
G1 X139.555 Y88.851 E13.78332
G1 X138.949 Y89.288 E13.80817
G1 X138.299 Y89.659 E13.83306
G1 X137.613 Y89.958 E13.85795
G1 X136.899 Y90.182 E13.88284
G1 X136.166 Y90.329 E13.90771
G1 X135.162 Y90.401 E13.94119
G1 X77.311 Y90.399 E15.86532
G1 X76.564 Y90.359 E15.8902
G1 X75.825 Y90.24 E15.9151
G1 X75.104 Y90.042 E15.93996
G1 X74.408 Y89.768 E15.96484
G1 X73.744 Y89.422 E15.98975
G1 X73.122 Y89.007 E16.01462
G1 X72.361 Y88.349 E16.04808
G1 X72.244 Y88.232 E16.05358
G1 X71.744 Y87.675 E16.07848
G1 X71.307 Y87.069 E16.10332
G1 X70.936 Y86.419 E16.12822
G1 X70.637 Y85.733 E16.15311
G1 X70.413 Y85.019 E16.178
G1 X70.266 Y84.286 E16.20286
G1 X70.194 Y83.282 E16.23634
G1 X70.194 Y82.224 E16.27153
G1 X70.234 Y81.477 E16.29641
G1 X70.353 Y80.739 E16.32127
G1 X70.551 Y80.017 E16.34617
G1 X70.824 Y79.321 E16.37104
G1 X71.171 Y78.658 E16.39593
G1 X71.586 Y78.035 E16.42083
G1 X72.244 Y77.274 E16.45429
G1 X72.361 Y77.157 E16.45979
M204 S5000
M205 X30 Y30
G0 F3600 X72.644 Y77.44
M204 S500
M205 X20 Y20
G1 F1800 X73.185 Y76.956 E16.48393
G1 X73.776 Y76.533 E16.50811
G1 X74.41 Y76.179 E16.53226
G1 X75.079 Y75.896 E16.55642
G1 X75.775 Y75.688 E16.58058
G1 X76.49 Y75.558 E16.60475
G1 X77.311 Y75.507 E16.63211
G1 X135.162 Y75.503 E18.55624
G1 X135.887 Y75.543 E18.58039
G1 X136.603 Y75.662 E18.60453
G1 X137.302 Y75.86 E18.6287
G1 X137.975 Y76.133 E18.65285
G1 X138.614 Y76.478 E18.677
G1 X139.212 Y76.891 E18.70118
G1 X139.829 Y77.436 E18.72856
G1 X139.946 Y77.553 E18.73406
G1 X140.43 Y78.094 E18.7582
G1 X140.853 Y78.685 E18.78238
G1 X141.207 Y79.319 E18.80653
G1 X141.49 Y79.988 E18.83069
G1 X141.698 Y80.684 E18.85485
G1 X141.828 Y81.399 E18.87902
G1 X141.879 Y82.22 E18.90638
G1 X141.879 Y83.284 E18.94177
G1 X141.839 Y84.009 E18.96592
G1 X141.72 Y84.726 E18.99009
G1 X141.522 Y85.425 E19.01426
G1 X141.249 Y86.098 E19.03841
G1 X140.904 Y86.737 E19.06256
G1 X140.49 Y87.334 E19.08673
G1 X139.946 Y87.951 E19.11409
G1 X139.829 Y88.068 E19.11959
G1 X139.288 Y88.552 E19.14373
G1 X138.697 Y88.975 E19.16791
G1 X138.063 Y89.329 E19.19206
G1 X137.394 Y89.612 E19.21622
G1 X136.698 Y89.82 E19.24038
G1 X135.983 Y89.95 E19.26455
G1 X135.162 Y90.001 E19.29191
G1 X77.311 Y89.999 E21.21604
G1 X76.586 Y89.959 E21.24019
G1 X75.869 Y89.84 E21.26436
G1 X75.17 Y89.642 E21.28853
G1 X74.497 Y89.369 E21.31268
G1 X73.858 Y89.024 E21.33684
G1 X73.261 Y88.61 E21.361
G1 X72.644 Y88.066 E21.38836
G1 X72.527 Y87.949 E21.39386
G1 X72.043 Y87.408 E21.41801
G1 X71.62 Y86.817 E21.44218
G1 X71.266 Y86.183 E21.46633
G1 X70.983 Y85.514 E21.49049
G1 X70.775 Y84.818 E21.51465
G1 X70.645 Y84.103 E21.53882
G1 X70.594 Y83.282 E21.56618
G1 X70.594 Y82.224 E21.60137
G1 X70.634 Y81.499 E21.62552
G1 X70.753 Y80.782 E21.64969
G1 X70.951 Y80.083 E21.67386
G1 X71.224 Y79.41 E21.69801
G1 X71.569 Y78.771 E21.72217
G1 X71.983 Y78.174 E21.74633
G1 X72.527 Y77.557 E21.77369
G1 X72.644 Y77.44 E21.77919
M204 S5000
M205 X30 Y30
G0 F3600 X72.927 Y77.723
M204 S500
M205 X20 Y20
G1 F1800 X73.452 Y77.254 E21.80261
G1 X74.027 Y76.848 E21.82602
G1 X74.645 Y76.51 E21.84945
G1 X75.296 Y76.243 E21.87285
G1 X75.974 Y76.053 E21.89627
G1 X76.669 Y75.94 E21.91969
G1 X77.311 Y75.907 E21.94107
G1 X135.162 Y75.903 E23.8652
G1 X135.864 Y75.943 E23.88859
G1 X136.558 Y76.062 E23.91201
G1 X137.234 Y76.259 E23.93543
G1 X137.883 Y76.532 E23.95884
G1 X138.497 Y76.876 E23.98225
G1 X139.068 Y77.288 E24.00567
G1 X139.546 Y77.719 E24.02708
G1 X139.663 Y77.836 E24.03258
G1 X140.132 Y78.361 E24.056
G1 X140.538 Y78.936 E24.07941
G1 X140.876 Y79.554 E24.10284
G1 X141.143 Y80.205 E24.12624
G1 X141.333 Y80.883 E24.14966
G1 X141.446 Y81.578 E24.17308
G1 X141.479 Y82.22 E24.19446
G1 X141.479 Y83.284 E24.22985
G1 X141.439 Y83.987 E24.25327
G1 X141.32 Y84.681 E24.27669
G1 X141.122 Y85.356 E24.30008
G1 X140.85 Y86.005 E24.32349
G1 X140.505 Y86.619 E24.34691
G1 X140.094 Y87.19 E24.37031
G1 X139.663 Y87.668 E24.39172
G1 X139.546 Y87.785 E24.39722
G1 X139.021 Y88.254 E24.42064
G1 X138.446 Y88.66 E24.44405
G1 X137.828 Y88.998 E24.46748
G1 X137.177 Y89.265 E24.49088
G1 X136.499 Y89.455 E24.5143
G1 X135.804 Y89.568 E24.53772
G1 X135.162 Y89.601 E24.5591
G1 X77.311 Y89.599 E26.48323
G1 X76.608 Y89.559 E26.50665
G1 X75.914 Y89.44 E26.53007
G1 X75.238 Y89.242 E26.5535
G1 X74.589 Y88.97 E26.5769
G1 X73.975 Y88.625 E26.60033
G1 X73.404 Y88.213 E26.62375
G1 X72.927 Y87.783 E26.64511
G1 X72.81 Y87.666 E26.65061
G1 X72.341 Y87.141 E26.67402
G1 X71.935 Y86.566 E26.69744
G1 X71.597 Y85.948 E26.72086
G1 X71.33 Y85.297 E26.74427
G1 X71.14 Y84.619 E26.76769
G1 X71.027 Y83.924 E26.7911
G1 X70.994 Y83.282 E26.81249
G1 X70.994 Y82.224 E26.84768
G1 X71.034 Y81.521 E26.87109
G1 X71.153 Y80.827 E26.89451
G1 X71.351 Y80.152 E26.91791
G1 X71.623 Y79.503 E26.94132
G1 X71.968 Y78.889 E26.96474
G1 X72.379 Y78.318 E26.98814
G1 X72.81 Y77.84 E27.00955
G1 X72.927 Y77.723 E27.01505
M204 S5000
M205 X30 Y30
G0 F3600 X73.21 Y78.006
M204 S500
M205 X20 Y20
G1 F1800 X73.719 Y77.553 E27.03771
G1 X74.277 Y77.164 E27.06034
G1 X74.877 Y76.842 E27.08299
G1 X75.511 Y76.593 E27.10564
G1 X76.17 Y76.42 E27.1283
G1 X76.844 Y76.326 E27.15094
G1 X77.311 Y76.307 E27.16648
G1 X135.162 Y76.303 E29.09061
G1 X135.841 Y76.343 E29.11324
G1 X136.512 Y76.462 E29.1359
G1 X137.163 Y76.659 E29.15852
G1 X137.788 Y76.931 E29.18119
G1 X138.376 Y77.275 E29.20385
G1 X138.919 Y77.685 E29.22648
G1 X139.263 Y78.002 E29.24204
G1 X139.38 Y78.119 E29.24755
G1 X139.833 Y78.628 E29.27021
G1 X140.222 Y79.186 E29.29283
G1 X140.544 Y79.786 E29.31548
G1 X140.793 Y80.42 E29.33814
G1 X140.966 Y81.079 E29.3608
G1 X141.06 Y81.753 E29.38343
G1 X141.079 Y82.22 E29.39898
G1 X141.079 Y83.284 E29.43436
G1 X141.039 Y83.964 E29.45702
G1 X140.92 Y84.634 E29.47965
G1 X140.723 Y85.286 E29.50231
G1 X140.451 Y85.91 E29.52495
G1 X140.107 Y86.498 E29.54761
G1 X139.697 Y87.042 E29.57026
G1 X139.38 Y87.385 E29.5858
G1 X139.263 Y87.502 E29.5913
G1 X138.754 Y87.955 E29.61396
G1 X138.196 Y88.344 E29.63659
G1 X137.596 Y88.666 E29.65924
G1 X136.962 Y88.915 E29.68189
G1 X136.303 Y89.088 E29.70455
G1 X135.629 Y89.182 E29.72719
G1 X135.162 Y89.201 E29.74273
G1 X77.311 Y89.199 E31.66686
G1 X76.631 Y89.159 E31.68952
G1 X75.961 Y89.04 E31.71215
G1 X75.309 Y88.843 E31.73481
G1 X74.685 Y88.57 E31.75746
G1 X74.097 Y88.227 E31.7801
G1 X73.553 Y87.817 E31.80276
G1 X73.21 Y87.5 E31.81829
G1 X73.093 Y87.383 E31.8238
G1 X72.64 Y86.874 E31.84646
G1 X72.251 Y86.316 E31.86908
G1 X71.929 Y85.716 E31.89173
G1 X71.68 Y85.082 E31.91439
G1 X71.507 Y84.423 E31.93705
G1 X71.413 Y83.749 E31.95968
G1 X71.394 Y83.282 E31.97523
G1 X71.394 Y82.224 E32.01042
G1 X71.434 Y81.544 E32.03307
G1 X71.553 Y80.874 E32.0557
G1 X71.75 Y80.222 E32.07836
G1 X72.022 Y79.598 E32.101
G1 X72.366 Y79.01 E32.12366
G1 X72.776 Y78.466 E32.14631
G1 X73.093 Y78.123 E32.16185
G1 X73.21 Y78.006 E32.16735
M204 S5000
M205 X30 Y30
G0 F3600 X73.493 Y78.289
M204 S500
M205 X20 Y20
G1 F1800 X73.985 Y77.853 E32.18922
G1 X74.526 Y77.481 E32.21105
G1 X75.108 Y77.177 E32.23289
G1 X75.723 Y76.946 E32.25474
G1 X76.362 Y76.791 E32.27661
G1 X77.311 Y76.707 E32.3083
G1 X135.162 Y76.703 E34.23243
G1 X135.817 Y76.743 E34.25426
G1 X136.463 Y76.862 E34.2761
G1 X137.09 Y77.059 E34.29796
G1 X137.688 Y77.33 E34.3198
G1 X138.249 Y77.673 E34.34167
G1 X138.98 Y78.285 E34.37338
G1 X139.097 Y78.402 E34.37888
G1 X139.533 Y78.894 E34.40075
G1 X139.905 Y79.435 E34.42259
G1 X140.209 Y80.017 E34.44442
G1 X140.44 Y80.632 E34.46627
G1 X140.595 Y81.271 E34.48814
G1 X140.679 Y82.22 E34.51983
G1 X140.679 Y83.284 E34.55522
G1 X140.639 Y83.94 E34.57708
G1 X140.52 Y84.586 E34.59893
G1 X140.323 Y85.213 E34.62079
G1 X140.051 Y85.811 E34.64264
G1 X139.709 Y86.372 E34.66449
G1 X139.097 Y87.102 E34.69617
G1 X138.98 Y87.219 E34.70168
G1 X138.488 Y87.655 E34.72354
G1 X137.947 Y88.027 E34.74538
G1 X137.365 Y88.331 E34.76722
G1 X136.75 Y88.562 E34.78907
G1 X136.111 Y88.717 E34.81094
G1 X135.162 Y88.801 E34.84262
G1 X77.311 Y88.799 E36.76676
G1 X76.655 Y88.759 E36.78862
G1 X76.009 Y88.64 E36.81046
G1 X75.382 Y88.443 E36.83232
G1 X74.784 Y88.171 E36.85417
G1 X74.223 Y87.829 E36.87603
G1 X73.493 Y87.217 E36.90771
G1 X73.376 Y87.1 E36.91321
G1 X72.94 Y86.608 E36.93508
G1 X72.568 Y86.067 E36.95691
G1 X72.264 Y85.485 E36.97875
G1 X72.033 Y84.87 E37.0006
G1 X71.878 Y84.231 E37.02247
G1 X71.794 Y83.282 E37.05416
G1 X71.794 Y82.224 E37.08935
G1 X71.834 Y81.568 E37.11121
G1 X71.953 Y80.922 E37.13306
G1 X72.15 Y80.295 E37.15492
G1 X72.422 Y79.697 E37.17677
G1 X72.764 Y79.136 E37.19862
G1 X73.376 Y78.406 E37.2303
G1 X73.493 Y78.289 E37.23581
M204 S5000
M205 X30 Y30
G0 F3600 X73.775 Y78.571
M204 S500
M205 X20 Y20
G1 F1800 X74.25 Y78.154 E37.25683
G1 X74.773 Y77.799 E37.27785
G1 X75.337 Y77.513 E37.29889
G1 X75.932 Y77.301 E37.31989
G1 X76.55 Y77.165 E37.34094
G1 X77.311 Y77.107 E37.36632
G1 X135.162 Y77.103 E39.29046
G1 X135.793 Y77.143 E39.31149
G1 X136.413 Y77.262 E39.33248
G1 X137.014 Y77.459 E39.35352
G1 X137.585 Y77.729 E39.37453
G1 X138.118 Y78.07 E39.39557
G1 X138.698 Y78.567 E39.42098
G1 X138.815 Y78.684 E39.42648
G1 X139.232 Y79.159 E39.4475
G1 X139.587 Y79.682 E39.46853
G1 X139.873 Y80.246 E39.48956
G1 X140.085 Y80.841 E39.51057
G1 X140.221 Y81.459 E39.53161
G1 X140.279 Y82.22 E39.557
G1 X140.279 Y83.284 E39.59239
G1 X140.239 Y83.915 E39.61342
G1 X140.12 Y84.536 E39.63445
G1 X139.923 Y85.136 E39.65545
G1 X139.652 Y85.708 E39.6765
G1 X139.312 Y86.24 E39.6975
G1 X138.815 Y86.82 E39.72291
G1 X138.698 Y86.937 E39.72841
G1 X138.223 Y87.354 E39.74943
G1 X137.7 Y87.709 E39.77046
G1 X137.136 Y87.995 E39.79149
G1 X136.541 Y88.207 E39.8125
G1 X135.923 Y88.343 E39.83354
G1 X135.162 Y88.401 E39.85893
G1 X77.311 Y88.399 E41.78306
G1 X76.68 Y88.359 E41.80409
G1 X76.059 Y88.24 E41.82512
G1 X75.458 Y88.043 E41.84616
G1 X74.887 Y87.772 E41.86718
G1 X74.355 Y87.431 E41.8882
G1 X73.775 Y86.935 E41.91358
G1 X73.658 Y86.818 E41.91908
G1 X73.241 Y86.343 E41.9401
G1 X72.886 Y85.82 E41.96113
G1 X72.6 Y85.256 E41.98216
G1 X72.388 Y84.661 E42.00317
G1 X72.252 Y84.043 E42.02422
G1 X72.194 Y83.282 E42.0496
G1 X72.194 Y82.224 E42.08479
G1 X72.234 Y81.593 E42.10582
