;FLAVOR:Marlin
;TIME:5474
;Filament used: 1.22616m
;Layer height: 0.06
;Generated with Cura_SteamEngine 3.6.0
M140 S60
M105
M190 S60
M104 S200
M105
M109 S200
M82 ;absolute extrusion mode
; Ender 3 Custom Start G-code
G28 ; Home all axes
G92 E0 ; Reset Extruder
G1 Z2.0 F3000 ; Move Z Axis up little to prevent scratching of Heat Bed
G1 X0.1 Y20 Z0.3 F5000.0 ; Move to start position
G1 X0.1 Y200.0 Z0.3 F1500.0 E15 ; Draw the first line
G1 X0.4 Y200.0 Z0.3 F5000.0 ; Move to side a little
G1 X0.4 Y20 Z0.3 F1500.0 E30 ; Draw the second line
G92 E0 ; Reset Extruder
G1 Z2.0 F3000 ; Move Z Axis up little to prevent scratching of Heat Bed
; End of custom start GCode
G92 E0
G1 F2400 E-5
;LAYER_COUNT:403
;LAYER:0
M107
M204 S5000
M205 X30 Y30
G0 F3600 X101.751 Y107.98 Z0.2
M204 S500
M205 X20 Y20
;TYPE:SKIRT
G1 F2400 E0
G1 F1800 X102.34 Y107.454 E0.02626
G1 X102.98 Y106.99 E0.05256
G1 X103.663 Y106.594 E0.07882
G1 X104.382 Y106.269 E0.10506
G1 X105.131 Y106.018 E0.13133
G1 X105.901 Y105.844 E0.15759
G1 X106.685 Y105.749 E0.18386
G1 X107.209 Y105.73 E0.2013
G1 X111.811 Y105.717 E0.35436
G1 X112.6 Y105.755 E0.38063
G1 X113.381 Y105.872 E0.4069
G1 X114.146 Y106.068 E0.43316
G1 X114.887 Y106.34 E0.45942
G1 X115.082 Y106.435 E0.46663
G1 X115.374 Y106.298 E0.47736
G1 X116.119 Y106.037 E0.50362
G1 X116.887 Y105.851 E0.5299
G1 X117.669 Y105.745 E0.55614
G1 X118.354 Y105.717 E0.57895
G1 X122.962 Y105.732 E0.73221
G1 X123.751 Y105.775 E0.75849
G1 X124.531 Y105.897 E0.78475
G1 X124.549 Y105.902 E0.78537
G1 X124.973 Y105.419 E0.80675
G1 X125.552 Y104.882 E0.83301
G1 X126.182 Y104.405 E0.8593
G1 X126.857 Y103.995 E0.88556
G1 X127.569 Y103.656 E0.91179
G1 X128.313 Y103.39 E0.93807
G1 X129.08 Y103.201 E0.96434
G1 X129.862 Y103.09 E0.99061
G1 X130.62 Y103.058 E1.01585
G1 X132.151 Y103.069 E1.06677
G1 X132.939 Y103.115 E1.09302
G1 X133.719 Y103.24 E1.1193
G1 X134.482 Y103.443 E1.14556
G1 X135.221 Y103.723 E1.17184
G1 X135.927 Y104.075 E1.19808
G1 X136.595 Y104.498 E1.22438
G1 X137.216 Y104.985 E1.25063
G1 X137.645 Y105.388 E1.2702
G1 X137.885 Y105.631 E1.28156
G1 X138.41 Y106.22 E1.30781
G1 X138.874 Y106.86 E1.3341
G1 X139.27 Y107.542 E1.36033
G1 X139.596 Y108.262 E1.38662
G1 X139.847 Y109.011 E1.41289
G1 X140.021 Y109.781 E1.43915
G1 X140.116 Y110.565 E1.46541
G1 X140.123 Y110.818 E1.47383
G1 X140.213 Y111.05 E1.48211
G1 X140.423 Y111.811 E1.50836
G1 X140.554 Y112.59 E1.53464
G1 X140.608 Y113.5 E1.56496
G1 X140.609 Y117.418 E1.69527
G1 X140.569 Y118.207 E1.72155
G1 X140.45 Y118.987 E1.74779
G1 X140.252 Y119.752 E1.77407
G1 X139.978 Y120.493 E1.80035
G1 X139.497 Y121.433 E1.83547
G1 X139.383 Y121.623 E1.84284
G1 X138.943 Y122.279 E1.86911
G1 X138.439 Y122.887 E1.89538
G1 X137.876 Y123.44 E1.92163
G1 X137.26 Y123.934 E1.94789
G1 X136.497 Y124.421 E1.97799
G1 X136.162 Y124.608 E1.99075
G1 X135.454 Y124.957 E2.01701
G1 X134.714 Y125.233 E2.04328
G1 X133.95 Y125.433 E2.06954
G1 X133.17 Y125.555 E2.0958
G1 X132.747 Y125.587 E2.10991
G1 X131.479 Y125.65 E2.15214
G1 X130.689 Y125.65 E2.17841
G1 X129.904 Y125.569 E2.20466
G1 X129.13 Y125.409 E2.23095
G1 X128.524 Y125.218 E2.25208
G1 X128.469 Y125.276 E2.25474
G1 X128.022 Y125.671 E2.27458
G1 X127.816 Y125.839 E2.28342
G1 X127.179 Y126.306 E2.30969
G1 X126.499 Y126.707 E2.33595
G1 X125.781 Y127.037 E2.36223
G1 X125.034 Y127.292 E2.38848
G1 X124.265 Y127.471 E2.41474
G1 X123.482 Y127.571 E2.441
G1 X122.886 Y127.594 E2.46084
G1 X118.327 Y127.594 E2.61247
G1 X117.538 Y127.554 E2.63875
G1 X116.758 Y127.435 E2.66499
G1 X115.993 Y127.237 E2.69127
G1 X115.253 Y126.963 E2.71752
G1 X115.077 Y126.877 E2.72403
G1 X114.82 Y126.999 E2.73349
G1 X114.076 Y127.265 E2.75977
G1 X113.309 Y127.453 E2.78604
G1 X112.527 Y127.563 E2.8123
G1 X111.811 Y127.594 E2.83614
G1 X107.207 Y127.581 E2.98927
G1 X106.418 Y127.539 E3.01555
G1 X105.638 Y127.417 E3.04181
G1 X104.874 Y127.217 E3.06808
G1 X104.134 Y126.941 E3.09434
G1 X103.426 Y126.591 E3.12061
G1 X102.757 Y126.172 E3.14687
G1 X102.134 Y125.687 E3.17313
G1 X101.731 Y125.314 E3.19139
G1 X101.576 Y125.16 E3.19866
G1 X101.045 Y124.576 E3.22491
G1 X100.576 Y123.941 E3.25117
G1 X100.173 Y123.262 E3.27743
G1 X99.841 Y122.545 E3.30371
G1 X99.583 Y121.799 E3.32996
G1 X99.401 Y121.031 E3.35622
G1 X99.299 Y120.248 E3.38248
G1 X99.274 Y119.628 E3.40312
G1 X99.273 Y113.687 E3.60071
G1 X99.313 Y112.899 E3.62696
G1 X99.432 Y112.118 E3.65323
G1 X99.63 Y111.353 E3.67952
G1 X99.904 Y110.613 E3.70576
G1 X100.251 Y109.904 E3.73202
G1 X100.669 Y109.233 E3.75831
G1 X101.152 Y108.609 E3.78455
G1 X101.593 Y108.136 E3.80606
G1 X101.751 Y107.98 E3.81345
M204 S5000
M205 X30 Y30
G0 F3600 X102.032 Y108.264
M204 S500
M205 X20 Y20
G1 F1800 X102.607 Y107.753 E3.83903
G1 X103.231 Y107.304 E3.8646
G1 X103.899 Y106.923 E3.89018
G1 X104.603 Y106.612 E3.91578
G1 X105.335 Y106.377 E3.94135
G1 X106.088 Y106.219 E3.96694
G1 X107.21 Y106.13 E4.00437
G1 X111.812 Y106.117 E4.15744
G1 X112.58 Y106.155 E4.18301
G1 X113.34 Y106.272 E4.20859
G1 X114.084 Y106.468 E4.23418
G1 X114.804 Y106.74 E4.25978
G1 X115.077 Y106.877 E4.26994
G1 X115.618 Y106.631 E4.2897
G1 X116.348 Y106.387 E4.3153
G1 X117.099 Y106.22 E4.34089
G1 X117.863 Y106.132 E4.36647
G1 X118.353 Y106.117 E4.38278
G1 X122.961 Y106.132 E4.53604
G1 X123.729 Y106.175 E4.56162
G1 X124.488 Y106.296 E4.58719
G1 X124.704 Y106.355 E4.59463
G1 X124.879 Y106.121 E4.60435
G1 X125.401 Y105.557 E4.62991
G1 X125.979 Y105.049 E4.65551
G1 X126.607 Y104.605 E4.68109
G1 X127.278 Y104.228 E4.70669
G1 X127.983 Y103.923 E4.73223
G1 X128.717 Y103.692 E4.75783
G1 X129.471 Y103.539 E4.78342
G1 X130.617 Y103.458 E4.82163
G1 X132.148 Y103.469 E4.87255
G1 X132.916 Y103.515 E4.89814
G1 X133.675 Y103.64 E4.92372
G1 X134.417 Y103.843 E4.94931
G1 X135.134 Y104.122 E4.9749
G1 X135.818 Y104.473 E5.00047
G1 X136.461 Y104.894 E5.02603
G1 X137.058 Y105.38 E5.05164
G1 X137.36 Y105.669 E5.06554
G1 X137.6 Y105.912 E5.0769
G1 X138.111 Y106.487 E5.10248
G1 X138.56 Y107.111 E5.12805
G1 X138.942 Y107.779 E5.15365
G1 X139.252 Y108.483 E5.17923
G1 X139.488 Y109.215 E5.20481
G1 X139.646 Y109.968 E5.2304
G1 X139.725 Y110.733 E5.25598
G1 X139.728 Y110.909 E5.26184
G1 X139.845 Y111.214 E5.2727
G1 X140.045 Y111.956 E5.29826
G1 X140.166 Y112.716 E5.32386
G1 X140.208 Y113.5 E5.34997
G1 X140.209 Y117.418 E5.48028
G1 X140.169 Y118.186 E5.50586
G1 X140.05 Y118.946 E5.53145
G1 X139.852 Y119.689 E5.55702
G1 X139.579 Y120.408 E5.5826
G1 X139.154 Y121.227 E5.61329
G1 X139.04 Y121.417 E5.62066
G1 X138.611 Y122.055 E5.64623
G1 X138.118 Y122.645 E5.67181
G1 X137.566 Y123.181 E5.6974
G1 X136.961 Y123.657 E5.723
G1 X136.302 Y124.071 E5.74889
G1 X135.967 Y124.258 E5.76165
G1 X135.277 Y124.598 E5.78723
G1 X134.555 Y124.864 E5.81282
G1 X133.81 Y125.054 E5.83839
G1 X132.727 Y125.188 E5.87469
G1 X131.459 Y125.251 E5.91692
G1 X130.69 Y125.249 E5.94249
G1 X129.925 Y125.167 E5.96808
G1 X129.173 Y125.007 E5.99365
G1 X128.442 Y124.769 E6.01922
G1 X128.412 Y124.756 E6.02031
G1 X128.077 Y125.095 E6.03616
G1 X127.769 Y125.361 E6.0497
G1 X127.563 Y125.529 E6.05854
G1 X126.942 Y125.983 E6.08412
G1 X126.278 Y126.371 E6.1097
G1 X125.577 Y126.687 E6.13528
G1 X124.847 Y126.929 E6.16086
G1 X124.096 Y127.094 E6.18643
G1 X123.331 Y127.181 E6.21204
G1 X122.886 Y127.194 E6.22685
G1 X118.327 Y127.194 E6.37848
G1 X117.559 Y127.154 E6.40406
G1 X116.799 Y127.035 E6.42964
G1 X116.056 Y126.837 E6.45522
G1 X115.337 Y126.563 E6.48081
G1 X115.082 Y126.434 E6.49031
G1 X114.574 Y126.668 E6.50892
G1 X113.846 Y126.915 E6.53449
G1 X113.096 Y127.085 E6.56006
G1 X112.332 Y127.177 E6.58566
G1 X111.812 Y127.194 E6.60296
G1 X107.208 Y127.181 E6.75609
G1 X106.44 Y127.139 E6.78168
G1 X105.681 Y127.017 E6.80724
G1 X104.938 Y126.817 E6.83284
G1 X104.22 Y126.542 E6.85841
G1 X103.534 Y126.193 E6.88401
G1 X102.889 Y125.775 E6.90957
G1 X102.013 Y125.03 E6.94782
G1 X101.858 Y124.876 E6.95509
G1 X101.342 Y124.307 E6.98063
G1 X100.887 Y123.686 E7.00624
G1 X100.499 Y123.022 E7.03182
G1 X100.182 Y122.321 E7.05741
G1 X99.94 Y121.592 E7.08295
G1 X99.774 Y120.84 E7.10857
G1 X99.688 Y120.076 E7.13414
G1 X99.674 Y119.628 E7.14905
G1 X99.673 Y113.687 E7.34665
G1 X99.713 Y112.919 E7.37222
G1 X99.832 Y112.159 E7.39781
G1 X100.03 Y111.416 E7.42338
G1 X100.303 Y110.697 E7.44896
G1 X100.65 Y110.011 E7.47453
G1 X101.066 Y109.364 E7.50012
G1 X101.548 Y108.764 E7.52572
G1 X101.874 Y108.42 E7.54148
G1 X102.032 Y108.264 E7.54886
M204 S5000
M205 X30 Y30
G0 F3600 X102.313 Y108.549
M204 S500
M205 X20 Y20
G1 F1800 X102.873 Y108.052 E7.57377
G1 X103.482 Y107.619 E7.59862
G1 X104.134 Y107.252 E7.6235
G1 X104.822 Y106.958 E7.64839
G1 X105.537 Y106.738 E7.67327
G1 X106.271 Y106.596 E7.69814
G1 X107.211 Y106.53 E7.72948
G1 X111.813 Y106.517 E7.88254
G1 X112.56 Y106.555 E7.90742
G1 X113.299 Y106.672 E7.9323
G1 X114.021 Y106.868 E7.95719
G1 X114.718 Y107.139 E7.98206
G1 X115.076 Y107.325 E7.99548
G1 X115.176 Y107.267 E7.99932
G1 X115.861 Y106.967 E8.0242
G1 X116.574 Y106.741 E8.04907
G1 X117.307 Y106.592 E8.07395
G1 X118.352 Y106.517 E8.1088
G1 X122.96 Y106.532 E8.26206
G1 X123.707 Y106.574 E8.28695
G1 X124.445 Y106.696 E8.31182
G1 X124.854 Y106.81 E8.32595
G1 X125.306 Y106.237 E8.35022
G1 X125.829 Y105.702 E8.3751
G1 X126.407 Y105.226 E8.40001
G1 X127.031 Y104.815 E8.42486
G1 X127.696 Y104.472 E8.44975
G1 X128.394 Y104.203 E8.47463
G1 X129.117 Y104.009 E8.49953
G1 X129.856 Y103.894 E8.5244
G1 X130.614 Y103.858 E8.54964
G1 X132.145 Y103.869 E8.60056
G1 X132.892 Y103.915 E8.62545
G1 X133.63 Y104.039 E8.65034
G1 X134.35 Y104.242 E8.67523
G1 X135.044 Y104.52 E8.70009
G1 X135.705 Y104.871 E8.72498
G1 X136.324 Y105.291 E8.74986
G1 X137.075 Y105.95 E8.7831
G1 X137.315 Y106.193 E8.79445
G1 X137.812 Y106.753 E8.81936
G1 X138.246 Y107.362 E8.84423
G1 X138.612 Y108.014 E8.8691
G1 X138.907 Y108.702 E8.894
G1 X139.127 Y109.417 E8.91888
G1 X139.269 Y110.151 E8.94374
G1 X139.317 Y110.954 E8.9705
G1 X139.477 Y111.376 E8.98551
G1 X139.666 Y112.1 E9.0104
G1 X139.777 Y112.84 E9.03529
G1 X139.808 Y113.5 E9.05726
G1 X139.809 Y117.418 E9.18757
G1 X139.769 Y118.165 E9.21246
G1 X139.65 Y118.904 E9.23735
G1 X139.453 Y119.625 E9.26221
G1 X139.179 Y120.322 E9.28712
G1 X138.811 Y121.021 E9.31339
G1 X138.697 Y121.211 E9.32076
G1 X138.279 Y121.831 E9.34563
G1 X137.796 Y122.403 E9.37053
G1 X137.256 Y122.92 E9.3954
G1 X136.663 Y123.377 E9.4203
G1 X136.107 Y123.722 E9.44206
G1 X135.772 Y123.909 E9.45482
G1 X135.1 Y124.238 E9.47971
G1 X134.397 Y124.494 E9.50459
G1 X133.671 Y124.673 E9.52946
G1 X132.707 Y124.788 E9.56175
G1 X131.439 Y124.851 E9.60398
G1 X130.691 Y124.849 E9.62886
G1 X129.948 Y124.766 E9.65372
G1 X129.217 Y124.604 E9.67863
G1 X128.508 Y124.366 E9.7035
G1 X128.315 Y124.277 E9.71057
G1 X128.222 Y124.389 E9.71541
G1 X127.516 Y125.051 E9.7476
G1 X127.31 Y125.219 E9.75644
G1 X126.706 Y125.66 E9.78132
G1 X126.058 Y126.034 E9.8062
G1 X125.374 Y126.337 E9.83108
G1 X124.662 Y126.565 E9.85595
G1 X123.929 Y126.716 E9.88084
G1 X122.886 Y126.794 E9.91563
G1 X118.327 Y126.794 E10.06726
G1 X117.58 Y126.754 E10.09214
G1 X116.842 Y126.635 E10.11701
G1 X116.12 Y126.437 E10.14191
G1 X115.424 Y126.164 E10.16677
G1 X115.086 Y125.987 E10.17946
G1 X115.014 Y126.029 E10.18223
G1 X114.33 Y126.333 E10.20713
G1 X113.618 Y126.562 E10.23201
G1 X112.886 Y126.714 E10.25687
G1 X111.813 Y126.794 E10.29266
G1 X107.209 Y126.781 E10.44579
G1 X106.462 Y126.739 E10.47067
G1 X105.724 Y126.617 E10.49555
G1 X105.003 Y126.418 E10.52043
G1 X104.308 Y126.142 E10.5453
G1 X103.646 Y125.794 E10.57018
G1 X103.024 Y125.378 E10.59507
G1 X102.295 Y124.747 E10.62713
G1 X102.14 Y124.593 E10.6344
G1 X101.639 Y124.038 E10.65927
G1 X101.199 Y123.433 E10.68415
G1 X100.826 Y122.784 E10.70905
G1 X100.525 Y122.099 E10.73393
G1 X100.299 Y121.386 E10.75881
G1 X100.15 Y120.653 E10.78369
G1 X100.074 Y119.628 E10.81787
G1 X100.073 Y113.687 E11.01547
G1 X100.113 Y112.94 E11.04035
G1 X100.232 Y112.202 E11.06522
G1 X100.43 Y111.48 E11.09012
G1 X100.703 Y110.784 E11.11498
G1 X101.049 Y110.121 E11.13986
G1 X101.464 Y109.498 E11.16475
G1 X102.155 Y108.705 E11.19974
G1 X102.313 Y108.549 E11.20712
M204 S5000
M205 X30 Y30
G0 F3600 X102.594 Y108.833
M204 S500
M205 X20 Y20
G1 F1800 X103.138 Y108.352 E11.23127
G1 X103.732 Y107.934 E11.25543
G1 X104.368 Y107.583 E11.27959
G1 X105.039 Y107.305 E11.30375
G1 X105.736 Y107.102 E11.3279
G1 X106.452 Y106.976 E11.35208
G1 X107.212 Y106.93 E11.3774
G1 X111.814 Y106.917 E11.53046
G1 X112.54 Y106.955 E11.55464
G1 X113.257 Y107.072 E11.57881
G1 X113.956 Y107.268 E11.60295
G1 X114.63 Y107.539 E11.62711
G1 X115.082 Y107.782 E11.64418
G1 X115.431 Y107.587 E11.65748
G1 X116.101 Y107.305 E11.68166
G1 X116.797 Y107.097 E11.70582
G1 X117.511 Y106.968 E11.72995
G1 X118.35 Y106.917 E11.75791
G1 X122.958 Y106.932 E11.91117
G1 X123.684 Y106.974 E11.93536
G1 X124.4 Y107.096 E11.95951
G1 X125.031 Y107.277 E11.98135
G1 X125.269 Y106.918 E11.99567
G1 X125.734 Y106.36 E12.01983
G1 X126.257 Y105.857 E12.04397
G1 X126.833 Y105.414 E12.06814
G1 X127.454 Y105.037 E12.0923
G1 X128.112 Y104.73 E12.11645
G1 X128.801 Y104.498 E12.14063
G1 X129.51 Y104.343 E12.16477
G1 X130.232 Y104.266 E12.18892
G1 X130.611 Y104.258 E12.20153
G1 X132.142 Y104.269 E12.25245
G1 X132.867 Y104.314 E12.27661
G1 X133.583 Y104.439 E12.30078
G1 X134.281 Y104.641 E12.32495
G1 X134.952 Y104.919 E12.34911
G1 X135.588 Y105.269 E12.37325
G1 X136.182 Y105.687 E12.39741
G1 X136.791 Y106.231 E12.42457
G1 X137.031 Y106.474 E12.43593
G1 X137.512 Y107.018 E12.46008
G1 X137.931 Y107.612 E12.48426
G1 X138.281 Y108.248 E12.5084
G1 X138.56 Y108.919 E12.53257
G1 X138.763 Y109.616 E12.55672
G1 X138.889 Y110.332 E12.5809
G1 X138.925 Y111.045 E12.60465
G1 X139.109 Y111.538 E12.62215
G1 X139.287 Y112.242 E12.6463
G1 X139.386 Y112.962 E12.67047
G1 X139.408 Y113.5 E12.68838
G1 X139.409 Y117.418 E12.81869
G1 X139.369 Y118.144 E12.84288
G1 X139.25 Y118.86 E12.86702
G1 X139.053 Y119.559 E12.89117
G1 X138.78 Y120.232 E12.91533
G1 X138.468 Y120.816 E12.93735
G1 X138.354 Y121.006 E12.94472
G1 X137.947 Y121.607 E12.96886
G1 X137.476 Y122.16 E12.99302
G1 X136.947 Y122.658 E13.01719
G1 X136.367 Y123.094 E13.04132
G1 X135.912 Y123.373 E13.05907
G1 X135.577 Y123.56 E13.07183
G1 X134.924 Y123.879 E13.096
G1 X134.24 Y124.123 E13.12016
G1 X133.534 Y124.292 E13.1443
G1 X132.688 Y124.389 E13.17263
G1 X131.42 Y124.452 E13.21485
G1 X130.693 Y124.448 E13.23903
G1 X129.972 Y124.364 E13.26317
G1 X129.264 Y124.202 E13.28733
G1 X128.578 Y123.962 E13.3115
G1 X128.208 Y123.785 E13.32515
G1 X127.827 Y124.223 E13.34445
G1 X127.263 Y124.741 E13.36992
G1 X127.057 Y124.909 E13.37877
G1 X126.47 Y125.336 E13.40291
G1 X125.839 Y125.696 E13.42707
G1 X125.173 Y125.985 E13.45122
G1 X124.479 Y126.199 E13.47537
G1 X123.765 Y126.335 E13.49955
G1 X122.886 Y126.394 E13.52885
G1 X118.327 Y126.394 E13.68048
G1 X117.602 Y126.354 E13.70463
G1 X116.885 Y126.235 E13.72881
G1 X116.186 Y126.037 E13.75297
G1 X115.513 Y125.764 E13.77712
G1 X115.078 Y125.529 E13.79357
G1 X114.757 Y125.711 E13.80584
G1 X114.089 Y125.996 E13.83
G1 X113.394 Y126.207 E13.85416
G1 X112.68 Y126.339 E13.87831
G1 X111.814 Y126.394 E13.90717
G1 X107.21 Y126.381 E14.0603
G1 X106.485 Y126.339 E14.08445
G1 X105.769 Y126.218 E14.1086
G1 X105.071 Y126.018 E14.13275
G1 X104.398 Y125.743 E14.15693
G1 X103.76 Y125.396 E14.18109
G1 X103.164 Y124.981 E14.20524
G1 X102.577 Y124.463 E14.23128
G1 X102.422 Y124.309 E14.23855
G1 X101.936 Y123.769 E14.26271
G1 X101.512 Y123.18 E14.28685
G1 X101.155 Y122.547 E14.31102
G1 X100.87 Y121.879 E14.33518
G1 X100.66 Y121.184 E14.35933
G1 X100.528 Y120.469 E14.38351
G1 X100.474 Y119.628 E14.41154
G1 X100.473 Y113.687 E14.60914
G1 X100.513 Y112.962 E14.63329
G1 X100.632 Y112.245 E14.65746
G1 X100.829 Y111.546 E14.68162
G1 X101.102 Y110.873 E14.70577
G1 X101.448 Y110.234 E14.72994
G1 X101.861 Y109.637 E14.75408
G1 X102.436 Y108.989 E14.7829
G1 X102.594 Y108.833 E14.79028
M204 S5000
M205 X30 Y30
G0 F3600 X102.875 Y109.118
M204 S500
M205 X20 Y20
G1 F1800 X103.403 Y108.653 E14.81368
G1 X103.981 Y108.25 E14.83712
G1 X104.6 Y107.916 E14.86051
G1 X105.254 Y107.654 E14.88395
G1 X105.933 Y107.467 E14.90737
G1 X106.628 Y107.359 E14.93076
G1 X107.213 Y107.33 E14.95025
