;FLAVOR:Marlin
;TIME:6736
;Filament used: 7.01352m
;Layer height: 0.3
;Generated with Cura_SteamEngine 3.6.0
M140 S60
M105
M190 S60
M104 S200
M105
M109 S200
M82 ;absolute extrusion mode
; Ender 3 Custom Start G-code
G28 ; Home all axes
G92 E0 ; Reset Extruder
G1 Z2.0 F3000 ; Move Z Axis up little to prevent scratching of Heat Bed
G1 X0.1 Y20 Z0.3 F5000.0 ; Move to start position
G1 X0.1 Y200.0 Z0.3 F1500.0 E15 ; Draw the first line
G1 X0.4 Y200.0 Z0.3 F5000.0 ; Move to side a little
G1 X0.4 Y20 Z0.3 F1500.0 E30 ; Draw the second line
G92 E0 ; Reset Extruder
G1 Z2.0 F3000 ; Move Z Axis up little to prevent scratching of Heat Bed
; End of custom start GCode
G92 E0
G1 F2400 E-5
;LAYER_COUNT:292
;LAYER:0
M107
M204 S5000
M205 X30 Y30
G0 F3600 X54.509 Y94.745 Z0.2
M204 S500
M205 X20 Y20
;TYPE:SKIRT
G1 F2400 E0
G1 F1800 X55.227 Y94.415 E0.02628
G1 X55.974 Y94.16 E0.05254
G1 X56.743 Y93.981 E0.0788
G1 X57.527 Y93.881 E0.10508
G1 X58.122 Y93.858 E0.12489
G1 X66.558 Y93.858 E0.40547
G1 X67.347 Y93.898 E0.43175
G1 X68.127 Y94.017 E0.45799
G1 X68.892 Y94.215 E0.48427
G1 X69.632 Y94.489 E0.51052
G1 X70.341 Y94.837 E0.53679
G1 X71.012 Y95.255 E0.56308
G1 X71.636 Y95.738 E0.58933
G1 X72.073 Y96.143 E0.60914
G1 X72.307 Y96.377 E0.62015
G1 X72.837 Y96.963 E0.64643
G1 X73.304 Y97.599 E0.67267
G1 X73.705 Y98.279 E0.69893
G1 X74.035 Y98.997 E0.72521
G1 X74.29 Y99.744 E0.75146
G1 X74.469 Y100.513 E0.77772
G1 X74.569 Y101.297 E0.80401
G1 X74.592 Y101.892 E0.82382
G1 X74.592 Y103.892 E0.89034
G1 X74.582 Y104.092 E0.897
G1 X170.39 Y104.092 E4.08358
G1 X171.179 Y104.132 E4.10986
G1 X171.959 Y104.251 E4.1361
G1 X172.678 Y104.437 E4.1608
G1 X172.687 Y104.427 E4.16125
G1 X173.27 Y103.895 E4.1875
G1 X173.905 Y103.425 E4.21378
G1 X174.584 Y103.022 E4.24004
G1 X175.3 Y102.689 E4.2663
G1 X176.047 Y102.431 E4.29259
G1 X176.815 Y102.249 E4.31884
G1 X177.598 Y102.146 E4.34511
G1 X178.223 Y102.121 E4.36591
G1 X180.875 Y102.121 E4.45412
G1 X181.664 Y102.161 E4.48039
G1 X182.444 Y102.28 E4.50664
G1 X183.209 Y102.478 E4.53292
G1 X183.949 Y102.752 E4.55916
G1 X184.658 Y103.1 E4.58543
G1 X185.329 Y103.518 E4.61173
G1 X185.953 Y104.001 E4.63797
G1 X186.39 Y104.406 E4.65779
G1 X186.624 Y104.64 E4.6688
G1 X187.154 Y105.226 E4.69508
G1 X187.621 Y105.862 E4.72132
G1 X188.022 Y106.542 E4.74758
G1 X188.352 Y107.26 E4.77386
G1 X188.607 Y108.007 E4.80011
G1 X188.786 Y108.776 E4.82637
G1 X188.886 Y109.56 E4.85266
G1 X188.909 Y110.155 E4.87246
G1 X188.909 Y124.073 E5.33538
G1 X188.869 Y124.862 E5.36165
G1 X188.75 Y125.642 E5.3879
G1 X188.552 Y126.407 E5.41418
G1 X188.278 Y127.147 E5.44043
G1 X187.93 Y127.856 E5.46669
G1 X187.512 Y128.527 E5.49299
G1 X187.029 Y129.151 E5.51923
G1 X186.624 Y129.588 E5.53905
G1 X186.39 Y129.822 E5.55006
G1 X185.804 Y130.352 E5.57634
G1 X185.168 Y130.819 E5.60258
G1 X184.488 Y131.22 E5.62884
G1 X183.77 Y131.55 E5.65512
G1 X183.023 Y131.805 E5.68137
G1 X182.254 Y131.984 E5.70763
G1 X181.47 Y132.084 E5.73392
G1 X180.875 Y132.107 E5.75372
G1 X178.391 Y132.107 E5.83634
G1 X177.602 Y132.067 E5.86262
G1 X176.822 Y131.948 E5.88886
G1 X176.057 Y131.75 E5.91514
G1 X175.317 Y131.476 E5.94139
G1 X174.608 Y131.128 E5.96766
G1 X173.937 Y130.71 E5.99395
G1 X173.414 Y130.306 E6.01593
G1 X173.285 Y130.365 E6.02065
G1 X172.538 Y130.62 E6.0469
G1 X171.769 Y130.799 E6.07316
G1 X170.985 Y130.899 E6.09945
G1 X170.39 Y130.922 E6.11926
G1 X74.586 Y130.922 E9.30571
G1 X74.592 Y131.123 E9.3124
G1 X74.592 Y133.108 E9.37842
G1 X74.552 Y133.897 E9.4047
G1 X74.433 Y134.677 E9.43094
G1 X74.235 Y135.442 E9.45722
G1 X73.961 Y136.182 E9.48347
G1 X73.613 Y136.891 E9.50974
G1 X73.195 Y137.562 E9.53603
G1 X72.712 Y138.186 E9.56228
G1 X72.307 Y138.623 E9.58209
G1 X72.073 Y138.857 E9.5931
G1 X71.487 Y139.387 E9.61938
G1 X70.851 Y139.854 E9.64562
G1 X70.171 Y140.255 E9.67188
G1 X69.453 Y140.585 E9.69816
G1 X68.706 Y140.84 E9.72441
G1 X67.937 Y141.019 E9.75067
G1 X67.153 Y141.119 E9.77696
G1 X66.558 Y141.142 E9.79677
G1 X58.122 Y141.142 E10.07735
G1 X57.333 Y141.102 E10.10362
G1 X56.553 Y140.983 E10.12987
G1 X55.788 Y140.785 E10.15615
G1 X55.048 Y140.511 E10.1824
G1 X54.339 Y140.163 E10.20866
G1 X53.668 Y139.745 E10.23496
G1 X53.044 Y139.262 E10.2612
G1 X52.607 Y138.857 E10.28102
G1 X52.373 Y138.623 E10.29203
G1 X51.843 Y138.037 E10.31831
G1 X51.376 Y137.401 E10.34455
G1 X50.975 Y136.721 E10.37081
G1 X50.645 Y136.003 E10.39709
G1 X50.39 Y135.256 E10.42334
G1 X50.211 Y134.487 E10.4496
G1 X50.111 Y133.703 E10.47589
G1 X50.088 Y133.108 E10.49569
G1 X50.088 Y125.931 E10.7344
G1 X49.884 Y125.283 E10.757
G1 X49.725 Y124.509 E10.78328
G1 X49.644 Y123.724 E10.80953
G1 X49.634 Y123.322 E10.8229
G1 X49.634 Y122.822 E10.83953
G1 X49.674 Y122.033 E10.86581
G1 X49.793 Y121.253 E10.89205
G1 X49.991 Y120.488 E10.91833
G1 X50.265 Y119.748 E10.94458
G1 X50.613 Y119.039 E10.97085
G1 X51.031 Y118.368 E10.99714
G1 X51.514 Y117.744 E11.02339
G1 X51.734 Y117.512 E11.03402
G1 X51.268 Y116.97 E11.05779
G1 X50.817 Y116.322 E11.08405
G1 X50.433 Y115.631 E11.11035
G1 X50.121 Y114.906 E11.1366
G1 X49.884 Y114.153 E11.16285
G1 X49.725 Y113.379 E11.18914
G1 X49.644 Y112.594 E11.21538
G1 X49.634 Y112.192 E11.22876
G1 X49.634 Y111.692 E11.24539
G1 X49.674 Y110.903 E11.27166
G1 X49.793 Y110.123 E11.29791
G1 X49.991 Y109.358 E11.32419
G1 X50.088 Y109.096 E11.33348
G1 X50.088 Y101.892 E11.57309
G1 X50.128 Y101.103 E11.59936
G1 X50.247 Y100.323 E11.62561
G1 X50.445 Y99.558 E11.65189
G1 X50.719 Y98.818 E11.67813
G1 X51.067 Y98.109 E11.7044
G1 X51.485 Y97.438 E11.7307
G1 X51.968 Y96.814 E11.75694
G1 X52.373 Y96.377 E11.77676
G1 X52.607 Y96.143 E11.78777
G1 X53.193 Y95.613 E11.81405
G1 X53.829 Y95.146 E11.84029
G1 X54.509 Y94.745 E11.86655
M204 S5000
M205 X30 Y30
G0 F3600 X54.748 Y95.072
M204 S500
M205 X20 Y20
G1 F1800 X55.45 Y94.757 E11.89214
G1 X56.181 Y94.517 E11.91773
G1 X56.932 Y94.354 E11.94329
G1 X57.697 Y94.27 E11.96888
G1 X58.122 Y94.258 E11.98303
G1 X66.558 Y94.258 E12.26361
G1 X67.326 Y94.298 E12.28919
G1 X68.086 Y94.417 E12.31477
G1 X68.829 Y94.615 E12.34035
G1 X69.548 Y94.889 E12.36594
G1 X70.234 Y95.236 E12.39151
G1 X70.881 Y95.652 E12.41709
G1 X71.481 Y96.133 E12.44267
G1 X71.791 Y96.425 E12.45683
G1 X72.025 Y96.659 E12.46784
G1 X72.539 Y97.231 E12.49342
G1 X72.992 Y97.853 E12.51901
G1 X73.378 Y98.518 E12.54458
G1 X73.693 Y99.22 E12.57018
G1 X73.933 Y99.951 E12.59577
G1 X74.096 Y100.702 E12.62133
G1 X74.18 Y101.467 E12.64692
G1 X74.192 Y101.892 E12.66106
G1 X74.192 Y103.892 E12.72758
G1 X74.161 Y104.492 E12.74757
G1 X170.39 Y104.492 E15.94816
G1 X171.158 Y104.532 E15.97373
G1 X171.918 Y104.651 E15.99932
G1 X172.661 Y104.849 E16.02489
G1 X172.799 Y104.901 E16.0298
G1 X173.113 Y104.568 E16.04502
G1 X173.696 Y104.067 E16.07059
G1 X174.329 Y103.629 E16.09619
G1 X175.003 Y103.258 E16.12178
G1 X175.712 Y102.96 E16.14736
G1 X176.448 Y102.737 E16.17294
G1 X177.203 Y102.592 E16.19851
G1 X178.223 Y102.521 E16.23252
G1 X180.875 Y102.521 E16.32072
G1 X181.643 Y102.561 E16.3463
G1 X182.403 Y102.68 E16.37189
G1 X183.146 Y102.878 E16.39746
G1 X183.865 Y103.152 E16.42305
G1 X184.551 Y103.499 E16.44862
G1 X185.198 Y103.915 E16.47421
G1 X185.798 Y104.396 E16.49978
G1 X186.108 Y104.688 E16.51395
G1 X186.342 Y104.922 E16.52495
G1 X186.856 Y105.494 E16.55053
G1 X187.309 Y106.116 E16.57612
G1 X187.695 Y106.781 E16.6017
G1 X188.01 Y107.483 E16.62729
G1 X188.25 Y108.214 E16.65288
G1 X188.413 Y108.965 E16.67844
G1 X188.497 Y109.73 E16.70404
G1 X188.509 Y110.155 E16.71818
G1 X188.509 Y124.073 E17.18109
G1 X188.469 Y124.841 E17.20667
G1 X188.35 Y125.601 E17.23226
G1 X188.152 Y126.344 E17.25783
G1 X187.878 Y127.063 E17.28342
G1 X187.531 Y127.749 E17.30899
G1 X187.115 Y128.396 E17.33458
G1 X186.634 Y128.996 E17.36015
G1 X186.342 Y129.306 E17.37432
G1 X186.108 Y129.54 E17.38532
G1 X185.536 Y130.054 E17.4109
G1 X184.914 Y130.507 E17.43649
G1 X184.249 Y130.893 E17.46207
G1 X183.547 Y131.208 E17.48766
G1 X182.816 Y131.448 E17.51325
G1 X182.065 Y131.611 E17.53881
G1 X181.3 Y131.695 E17.56441
G1 X180.875 Y131.707 E17.57855
G1 X178.391 Y131.707 E17.66117
G1 X177.623 Y131.667 E17.68674
G1 X176.863 Y131.548 E17.71233
G1 X176.12 Y131.35 E17.7379
G1 X175.401 Y131.076 E17.7635
G1 X174.715 Y130.729 E17.78907
G1 X174.068 Y130.313 E17.81465
G1 X173.475 Y129.838 E17.83992
G1 X173.062 Y130.023 E17.85497
G1 X172.331 Y130.263 E17.88056
G1 X171.58 Y130.426 E17.90612
G1 X170.815 Y130.51 E17.93172
G1 X170.39 Y130.522 E17.94586
G1 X74.153 Y130.522 E21.14672
G1 X74.192 Y131.123 E21.16675
G1 X74.192 Y133.108 E21.23277
G1 X74.152 Y133.876 E21.25835
G1 X74.033 Y134.636 E21.28393
G1 X73.835 Y135.379 E21.30951
G1 X73.561 Y136.098 E21.3351
G1 X73.214 Y136.784 E21.36067
G1 X72.798 Y137.431 E21.38625
G1 X72.317 Y138.031 E21.41183
G1 X72.025 Y138.341 E21.42599
G1 X71.791 Y138.575 E21.437
G1 X71.219 Y139.089 E21.46258
G1 X70.597 Y139.542 E21.48817
G1 X69.932 Y139.928 E21.51374
G1 X69.23 Y140.243 E21.53934
G1 X68.499 Y140.483 E21.56493
G1 X67.748 Y140.646 E21.59049
G1 X66.983 Y140.73 E21.61608
G1 X66.558 Y140.742 E21.63022
G1 X58.122 Y140.742 E21.91081
G1 X57.354 Y140.702 E21.93638
G1 X56.594 Y140.583 E21.96197
G1 X55.851 Y140.385 E21.98754
G1 X55.132 Y140.111 E22.01314
G1 X54.446 Y139.764 E22.03871
G1 X53.799 Y139.348 E22.06429
G1 X53.199 Y138.867 E22.08987
G1 X52.889 Y138.575 E22.10403
G1 X52.655 Y138.341 E22.11504
G1 X52.141 Y137.769 E22.14062
G1 X51.688 Y137.147 E22.16621
G1 X51.302 Y136.482 E22.19178
G1 X50.987 Y135.78 E22.21737
G1 X50.747 Y135.049 E22.24296
G1 X50.584 Y134.298 E22.26852
G1 X50.5 Y133.533 E22.29412
G1 X50.488 Y133.108 E22.30826
G1 X50.488 Y125.852 E22.5496
G1 X50.417 Y125.671 E22.55606
G1 X50.211 Y124.929 E22.58168
G1 X50.083 Y124.171 E22.60724
G1 X50.034 Y123.322 E22.63553
G1 X50.034 Y122.822 E22.65216
G1 X50.074 Y122.054 E22.67774
G1 X50.193 Y121.294 E22.70332
G1 X50.391 Y120.551 E22.7289
G1 X50.665 Y119.832 E22.75449
G1 X51.012 Y119.146 E22.78006
G1 X51.428 Y118.499 E22.80564
G1 X51.909 Y117.899 E22.83122
G1 X52.298 Y117.506 E22.84961
G1 X51.964 Y117.176 E22.86523
G1 X51.476 Y116.581 E22.89082
G1 X51.053 Y115.939 E22.91639
G1 X50.698 Y115.256 E22.942
G1 X50.417 Y114.541 E22.96755
G1 X50.211 Y113.799 E22.99316
G1 X50.083 Y113.041 E23.01873
G1 X50.034 Y112.192 E23.04701
G1 X50.034 Y111.692 E23.06364
G1 X50.074 Y110.924 E23.08922
G1 X50.193 Y110.164 E23.11481
G1 X50.391 Y109.421 E23.14038
G1 X50.488 Y109.166 E23.14946
G1 X50.488 Y101.892 E23.39139
G1 X50.528 Y101.124 E23.41697
G1 X50.647 Y100.364 E23.44255
G1 X50.845 Y99.621 E23.46813
G1 X51.119 Y98.902 E23.49372
G1 X51.466 Y98.216 E23.51929
G1 X51.882 Y97.569 E23.54487
G1 X52.363 Y96.969 E23.57045
G1 X52.655 Y96.659 E23.58462
G1 X52.889 Y96.425 E23.59562
G1 X53.461 Y95.911 E23.6212
G1 X54.083 Y95.458 E23.64679
G1 X54.748 Y95.072 E23.67237
M204 S5000
M205 X30 Y30
G0 F3600 X54.985 Y95.4
M204 S500
M205 X20 Y20
G1 F1800 X55.671 Y95.101 E23.69726
G1 X56.385 Y94.877 E23.72214
G1 X57.118 Y94.73 E23.74701
G1 X58.122 Y94.658 E23.78049
G1 X66.558 Y94.658 E24.06107
G1 X67.305 Y94.698 E24.08595
G1 X68.043 Y94.817 E24.11082
G1 X68.765 Y95.015 E24.13572
G1 X69.461 Y95.288 E24.16058
G1 X70.124 Y95.635 E24.18547
G1 X70.747 Y96.05 E24.21037
G1 X71.508 Y96.708 E24.24383
G1 X71.742 Y96.942 E24.25484
G1 X72.242 Y97.499 E24.27973
G1 X72.679 Y98.105 E24.30458
G1 X73.05 Y98.755 E24.32947
G1 X73.349 Y99.441 E24.35436
G1 X73.573 Y100.155 E24.37925
G1 X73.72 Y100.888 E24.40412
G1 X73.792 Y101.892 E24.4376
G1 X73.792 Y103.892 E24.50412
G1 X73.752 Y104.639 E24.529
G1 X73.711 Y104.892 E24.53752
G1 X170.39 Y104.892 E27.75308
G1 X171.137 Y104.932 E27.77796
G1 X171.875 Y105.051 E27.80282
G1 X172.597 Y105.249 E27.82772
G1 X172.911 Y105.372 E27.83894
G1 X173.011 Y105.248 E27.84424
G1 X173.54 Y104.718 E27.86914
G1 X174.122 Y104.248 E27.89402
G1 X174.751 Y103.843 E27.91891
G1 X175.419 Y103.507 E27.94378
G1 X176.119 Y103.245 E27.96864
G1 X176.844 Y103.058 E27.99354
G1 X177.584 Y102.95 E28.01841
G1 X178.223 Y102.921 E28.03969
G1 X180.875 Y102.921 E28.12789
G1 X181.622 Y102.961 E28.15277
G1 X182.36 Y103.08 E28.17764
G1 X183.082 Y103.278 E28.20254
G1 X183.778 Y103.551 E28.2274
G1 X184.441 Y103.898 E28.25229
G1 X185.064 Y104.313 E28.27719
G1 X185.825 Y104.971 E28.31065
G1 X186.059 Y105.205 E28.32166
G1 X186.559 Y105.762 E28.34655
G1 X186.996 Y106.368 E28.3714
G1 X187.367 Y107.018 E28.39629
G1 X187.666 Y107.704 E28.42118
G1 X187.89 Y108.418 E28.44607
G1 X188.037 Y109.151 E28.47094
G1 X188.109 Y110.155 E28.50442
G1 X188.109 Y124.073 E28.96733
G1 X188.069 Y124.82 E28.99221
G1 X187.95 Y125.558 E29.01708
G1 X187.752 Y126.28 E29.04198
G1 X187.479 Y126.976 E29.06684
G1 X187.132 Y127.639 E29.09173
G1 X186.717 Y128.262 E29.11663
G1 X186.059 Y129.023 E29.15009
G1 X185.825 Y129.257 E29.1611
G1 X185.268 Y129.757 E29.18599
G1 X184.662 Y130.194 E29.21084
G1 X184.012 Y130.565 E29.23573
G1 X183.326 Y130.864 E29.26062
G1 X182.612 Y131.088 E29.28551
G1 X181.879 Y131.235 E29.31038
G1 X180.875 Y131.307 E29.34386
G1 X178.391 Y131.307 E29.42647
G1 X177.644 Y131.267 E29.45136
G1 X176.906 Y131.148 E29.47622
G1 X176.184 Y130.95 E29.50112
G1 X175.488 Y130.677 E29.52599
G1 X174.825 Y130.33 E29.55087
G1 X174.202 Y129.915 E29.57577
G1 X173.628 Y129.436 E29.60064
G1 X173.557 Y129.363 E29.60402
G1 X173.527 Y129.38 E29.60517
G1 X172.841 Y129.679 E29.63006
G1 X172.127 Y129.903 E29.65495
G1 X171.394 Y130.05 E29.67981
G1 X170.39 Y130.122 E29.71329
G1 X73.71 Y130.122 E32.92888
G1 X73.763 Y130.491 E32.94128
G1 X73.792 Y131.123 E32.96232
G1 X73.792 Y133.108 E33.02835
G1 X73.752 Y133.855 E33.05323
G1 X73.633 Y134.593 E33.07809
G1 X73.435 Y135.315 E33.10299
G1 X73.162 Y136.011 E33.12786
G1 X72.815 Y136.674 E33.15275
G1 X72.4 Y137.297 E33.17764
G1 X71.742 Y138.058 E33.2111
G1 X71.508 Y138.292 E33.22211
G1 X70.951 Y138.792 E33.24701
G1 X70.345 Y139.229 E33.27186
G1 X69.695 Y139.6 E33.29675
G1 X69.009 Y139.899 E33.32164
G1 X68.295 Y140.123 E33.34653
G1 X67.562 Y140.27 E33.37139
G1 X66.558 Y140.342 E33.40487
G1 X58.122 Y140.342 E33.68545
G1 X57.375 Y140.302 E33.71033
G1 X56.637 Y140.183 E33.7352
G1 X55.915 Y139.985 E33.7601
G1 X55.219 Y139.712 E33.78496
G1 X54.556 Y139.365 E33.80985
G1 X53.933 Y138.95 E33.83475
G1 X53.172 Y138.292 E33.86821
G1 X52.938 Y138.058 E33.87922
G1 X52.438 Y137.501 E33.90411
G1 X52.001 Y136.895 E33.92896
G1 X51.63 Y136.245 E33.95386
G1 X51.331 Y135.559 E33.97874
G1 X51.107 Y134.845 E34.00363
G1 X50.96 Y134.112 E34.0285
G1 X50.888 Y133.108 E34.06198
G1 X50.888 Y125.777 E34.30581
G1 X50.722 Y125.309 E34.32232
G1 X50.548 Y124.581 E34.34722
G1 X50.453 Y123.839 E34.3721
G1 X50.434 Y123.322 E34.38931
G1 X50.434 Y122.822 E34.40594
G1 X50.474 Y122.075 E34.43082
G1 X50.593 Y121.337 E34.45568
G1 X50.791 Y120.615 E34.48058
G1 X51.064 Y119.919 E34.50545
G1 X51.411 Y119.256 E34.53034
G1 X51.826 Y118.633 E34.55523
G1 X52.305 Y118.059 E34.5801
G1 X52.842 Y117.538 E34.60498
G1 X52.888 Y117.502 E34.60693
G1 X52.671 Y117.321 E34.61633
G1 X52.15 Y116.784 E34.64121
G1 X51.691 Y116.194 E34.66607
G1 X51.296 Y115.558 E34.69098
G1 X50.972 Y114.884 E34.71585
G1 X50.722 Y114.179 E34.74073
G1 X50.548 Y113.451 E34.76562
G1 X50.453 Y112.709 E34.7905
G1 X50.434 Y112.192 E34.80771
G1 X50.434 Y111.692 E34.82434
G1 X50.474 Y110.945 E34.84922
G1 X50.593 Y110.207 E34.87408
G1 X50.791 Y109.485 E34.89898
G1 X50.888 Y109.238 E34.90781
G1 X50.888 Y101.892 E35.15214
G1 X50.928 Y101.145 E35.17702
G1 X51.047 Y100.407 E35.20188
G1 X51.245 Y99.685 E35.22678
G1 X51.518 Y98.989 E35.25165
G1 X51.865 Y98.326 E35.27654
G1 X52.28 Y97.703 E35.30144
G1 X52.938 Y96.942 E35.3349
G1 X53.172 Y96.708 E35.3459
G1 X53.729 Y96.208 E35.3708
G1 X54.335 Y95.771 E35.39565
G1 X54.985 Y95.4 E35.42054
M204 S5000
M205 X30 Y30
G0 F3600 X55.221 Y95.73
M204 S500
M205 X20 Y20
G1 F1800 X55.89 Y95.447 E35.4447
G1 X56.586 Y95.239 E35.46886
G1 X57.301 Y95.109 E35.49303
G1 X58.122 Y95.058 E35.52039
G1 X66.558 Y95.058 E35.80097
G1 X67.283 Y95.098 E35.82512
G1 X68 Y95.217 E35.8493
G1 X68.699 Y95.415 E35.87346
G1 X69.372 Y95.688 E35.89762
G1 X70.011 Y96.033 E35.92177
G1 X70.608 Y96.447 E35.94593
G1 X71.225 Y96.991 E35.97329
G1 X71.459 Y97.225 E35.9843
G1 X71.943 Y97.766 E36.00844
