;FLAVOR:Marlin
;TIME:9263
;Filament used: 6.37347m
;Layer height: 0.2
;Generated with Cura_SteamEngine 3.1.0
M190 S60
M104 S210
M109 S210
M82 ; absolute extrusion mode
G28 ;Home
G1 Z15.0 F6000 ;Move the platform down 15mm
;Prime the extruder
G92 E0
G1 F200 E3
G92 E0
;LAYER_COUNT:437
;LAYER:0
M107
M204 S5000
M205 X30 Y30
G0 F3600 X50.025 Y87.245 Z0.2
M204 S500
M205 X20 Y20
;TYPE:SKIRT
G1 F1800 X50.743 Y86.915 E0.02628
G1 X51.49 Y86.66 E0.05254
G1 X52.259 Y86.481 E0.0788
G1 X53.043 Y86.381 E0.10508
G1 X53.638 Y86.358 E0.12489
G1 X62.074 Y86.358 E0.40547
G1 X62.863 Y86.398 E0.43175
G1 X63.643 Y86.517 E0.45799
G1 X64.408 Y86.715 E0.48427
G1 X65.148 Y86.989 E0.51052
G1 X65.857 Y87.337 E0.53679
G1 X66.528 Y87.755 E0.56308
G1 X67.152 Y88.238 E0.58933
G1 X67.589 Y88.643 E0.60914
G1 X67.823 Y88.877 E0.62015
G1 X68.353 Y89.463 E0.64643
G1 X68.82 Y90.099 E0.67267
G1 X69.221 Y90.779 E0.69893
G1 X69.551 Y91.497 E0.72521
G1 X69.806 Y92.244 E0.75146
G1 X69.985 Y93.013 E0.77772
G1 X70.085 Y93.797 E0.80401
G1 X70.108 Y94.392 E0.82382
G1 X70.108 Y96.392 E0.89034
G1 X70.098 Y96.592 E0.897
G1 X165.906 Y96.592 E4.08358
G1 X166.695 Y96.632 E4.10986
G1 X167.475 Y96.751 E4.1361
G1 X168.194 Y96.937 E4.1608
G1 X168.203 Y96.927 E4.16125
G1 X168.786 Y96.395 E4.1875
G1 X169.421 Y95.925 E4.21378
G1 X170.1 Y95.522 E4.24004
G1 X170.816 Y95.189 E4.2663
G1 X171.563 Y94.931 E4.29259
G1 X172.331 Y94.749 E4.31884
G1 X173.114 Y94.646 E4.34511
G1 X173.739 Y94.621 E4.36591
G1 X176.391 Y94.621 E4.45412
G1 X177.18 Y94.661 E4.48039
G1 X177.96 Y94.78 E4.50664
G1 X178.725 Y94.978 E4.53292
G1 X179.465 Y95.252 E4.55916
G1 X180.174 Y95.6 E4.58543
G1 X180.845 Y96.018 E4.61173
G1 X181.469 Y96.501 E4.63797
G1 X181.906 Y96.906 E4.65779
G1 X182.14 Y97.14 E4.6688
G1 X182.67 Y97.726 E4.69508
G1 X183.137 Y98.362 E4.72132
G1 X183.538 Y99.042 E4.74758
G1 X183.868 Y99.76 E4.77386
G1 X184.123 Y100.507 E4.80011
G1 X184.302 Y101.276 E4.82637
G1 X184.402 Y102.06 E4.85266
G1 X184.425 Y102.655 E4.87246
G1 X184.425 Y116.573 E5.33538
G1 X184.385 Y117.362 E5.36165
G1 X184.266 Y118.142 E5.3879
G1 X184.068 Y118.907 E5.41418
G1 X183.794 Y119.647 E5.44043
G1 X183.446 Y120.356 E5.46669
G1 X183.028 Y121.027 E5.49299
G1 X182.545 Y121.651 E5.51923
G1 X182.14 Y122.088 E5.53905
G1 X181.906 Y122.322 E5.55006
G1 X181.32 Y122.852 E5.57634
G1 X180.684 Y123.319 E5.60258
G1 X180.004 Y123.72 E5.62884
G1 X179.286 Y124.05 E5.65512
G1 X178.539 Y124.305 E5.68137
G1 X177.77 Y124.484 E5.70763
G1 X176.986 Y124.584 E5.73392
G1 X176.391 Y124.607 E5.75372
G1 X173.907 Y124.607 E5.83634
G1 X173.118 Y124.567 E5.86262
G1 X172.338 Y124.448 E5.88886
G1 X171.573 Y124.25 E5.91514
G1 X170.833 Y123.976 E5.94139
G1 X170.124 Y123.628 E5.96766
G1 X169.453 Y123.21 E5.99395
G1 X168.93 Y122.806 E6.01593
G1 X168.801 Y122.865 E6.02065
G1 X168.054 Y123.12 E6.0469
G1 X167.285 Y123.299 E6.07316
G1 X166.501 Y123.399 E6.09945
G1 X165.906 Y123.422 E6.11926
G1 X70.102 Y123.422 E9.30571
G1 X70.108 Y123.623 E9.3124
G1 X70.108 Y125.608 E9.37842
G1 X70.068 Y126.397 E9.4047
G1 X69.949 Y127.177 E9.43094
G1 X69.751 Y127.942 E9.45722
G1 X69.477 Y128.682 E9.48347
G1 X69.129 Y129.391 E9.50974
G1 X68.711 Y130.062 E9.53603
G1 X68.228 Y130.686 E9.56228
G1 X67.823 Y131.123 E9.58209
G1 X67.589 Y131.357 E9.5931
G1 X67.003 Y131.887 E9.61938
G1 X66.367 Y132.354 E9.64562
G1 X65.687 Y132.755 E9.67188
G1 X64.969 Y133.085 E9.69816
G1 X64.222 Y133.34 E9.72441
G1 X63.453 Y133.519 E9.75067
G1 X62.669 Y133.619 E9.77696
G1 X62.074 Y133.642 E9.79677
G1 X53.638 Y133.642 E10.07735
G1 X52.849 Y133.602 E10.10362
G1 X52.069 Y133.483 E10.12987
G1 X51.304 Y133.285 E10.15615
G1 X50.564 Y133.011 E10.1824
G1 X49.855 Y132.663 E10.20866
G1 X49.184 Y132.245 E10.23496
G1 X48.56 Y131.762 E10.2612
G1 X48.123 Y131.357 E10.28102
G1 X47.889 Y131.123 E10.29203
G1 X47.359 Y130.537 E10.31831
G1 X46.892 Y129.901 E10.34455
G1 X46.491 Y129.221 E10.37081
G1 X46.161 Y128.503 E10.39709
G1 X45.906 Y127.756 E10.42334
G1 X45.727 Y126.987 E10.4496
G1 X45.627 Y126.203 E10.47589
G1 X45.604 Y125.608 E10.49569
G1 X45.604 Y123.622 E10.56175
G1 X43.613 Y123.622 E10.62797
G1 X42.824 Y123.582 E10.65425
G1 X42.044 Y123.463 E10.68049
G1 X41.279 Y123.265 E10.70677
G1 X40.539 Y122.991 E10.73302
G1 X39.83 Y122.643 E10.75929
G1 X39.159 Y122.225 E10.78558
G1 X38.535 Y121.742 E10.81183
G1 X38.098 Y121.337 E10.83164
G1 X37.864 Y121.103 E10.84265
G1 X37.334 Y120.517 E10.86893
G1 X36.867 Y119.881 E10.89517
G1 X36.466 Y119.201 E10.92143
G1 X36.136 Y118.483 E10.94771
G1 X35.881 Y117.736 E10.97396
G1 X35.702 Y116.967 E11.00022
G1 X35.602 Y116.183 E11.02651
G1 X35.579 Y115.588 E11.04632
G1 X35.579 Y112.655 E11.14387
G1 X35.619 Y111.866 E11.17014
G1 X35.738 Y111.086 E11.19639
G1 X35.936 Y110.321 E11.22267
G1 X36.063 Y109.978 E11.23484
G1 X35.881 Y109.445 E11.25357
G1 X35.702 Y108.676 E11.27983
G1 X35.602 Y107.892 E11.30612
G1 X35.579 Y107.3 E11.32582
G1 X35.578 Y104.429 E11.42131
G1 X35.618 Y103.64 E11.44759
G1 X35.737 Y102.859 E11.47386
G1 X35.935 Y102.095 E11.50011
G1 X36.208 Y101.354 E11.52638
G1 X36.556 Y100.645 E11.55265
G1 X36.973 Y99.975 E11.57889
G1 X37.456 Y99.35 E11.60517
G1 X37.863 Y98.911 E11.62508
G1 X38.097 Y98.677 E11.63608
G1 X38.683 Y98.147 E11.66236
G1 X39.319 Y97.68 E11.68861
G1 X39.999 Y97.279 E11.71486
G1 X40.717 Y96.949 E11.74115
G1 X41.464 Y96.694 E11.7674
G1 X42.233 Y96.515 E11.79366
G1 X43.017 Y96.415 E11.81995
G1 X43.612 Y96.392 E11.83975
G1 X45.604 Y96.392 E11.90601
G1 X45.604 Y94.392 E11.97253
G1 X45.644 Y93.603 E11.9988
G1 X45.763 Y92.823 E12.02505
G1 X45.961 Y92.058 E12.05133
G1 X46.235 Y91.318 E12.07757
G1 X46.583 Y90.609 E12.10384
G1 X47.001 Y89.938 E12.13014
G1 X47.484 Y89.314 E12.15638
G1 X47.889 Y88.877 E12.1762
G1 X48.123 Y88.643 E12.1872
G1 X48.709 Y88.113 E12.21348
G1 X49.345 Y87.646 E12.23973
G1 X50.025 Y87.245 E12.26598
M204 S5000
M205 X30 Y30
G0 F3600 X50.264 Y87.572
M204 S500
M205 X20 Y20
G1 F1800 X50.966 Y87.257 E12.29158
G1 X51.697 Y87.017 E12.31717
G1 X52.448 Y86.854 E12.34273
G1 X53.213 Y86.77 E12.36832
G1 X53.638 Y86.758 E12.38246
G1 X62.074 Y86.758 E12.66305
G1 X62.842 Y86.798 E12.68862
G1 X63.602 Y86.917 E12.71421
G1 X64.345 Y87.115 E12.73978
G1 X65.064 Y87.389 E12.76538
G1 X65.75 Y87.736 E12.79095
G1 X66.397 Y88.152 E12.81653
G1 X66.997 Y88.633 E12.84211
G1 X67.307 Y88.925 E12.85627
G1 X67.541 Y89.159 E12.86728
G1 X68.055 Y89.731 E12.89286
G1 X68.508 Y90.353 E12.91845
G1 X68.894 Y91.018 E12.94402
G1 X69.209 Y91.72 E12.96961
G1 X69.449 Y92.451 E12.9952
G1 X69.612 Y93.202 E13.02076
G1 X69.696 Y93.967 E13.04636
G1 X69.708 Y94.392 E13.0605
G1 X69.708 Y96.392 E13.12702
G1 X69.677 Y96.992 E13.147
G1 X165.906 Y96.992 E16.34759
G1 X166.674 Y97.032 E16.37317
G1 X167.434 Y97.151 E16.39876
G1 X168.177 Y97.349 E16.42433
G1 X168.315 Y97.401 E16.42924
G1 X168.629 Y97.068 E16.44446
G1 X169.212 Y96.567 E16.47003
G1 X169.845 Y96.129 E16.49563
G1 X170.519 Y95.758 E16.52122
G1 X171.228 Y95.46 E16.5468
G1 X171.964 Y95.237 E16.57238
G1 X172.719 Y95.092 E16.59795
G1 X173.739 Y95.021 E16.63196
G1 X176.391 Y95.021 E16.72016
G1 X177.159 Y95.061 E16.74574
G1 X177.919 Y95.18 E16.77133
G1 X178.662 Y95.378 E16.7969
G1 X179.381 Y95.652 E16.82249
G1 X180.067 Y95.999 E16.84806
G1 X180.714 Y96.415 E16.87364
G1 X181.314 Y96.896 E16.89922
G1 X181.624 Y97.188 E16.91339
G1 X181.858 Y97.422 E16.92439
G1 X182.372 Y97.994 E16.94997
G1 X182.825 Y98.616 E16.97556
G1 X183.211 Y99.281 E17.00114
G1 X183.526 Y99.983 E17.02673
G1 X183.766 Y100.714 E17.05232
G1 X183.929 Y101.465 E17.07788
G1 X184.013 Y102.23 E17.10348
G1 X184.025 Y102.655 E17.11762
G1 X184.025 Y116.573 E17.58053
G1 X183.985 Y117.341 E17.60611
G1 X183.866 Y118.101 E17.6317
G1 X183.668 Y118.844 E17.65727
G1 X183.394 Y119.563 E17.68286
G1 X183.047 Y120.249 E17.70843
G1 X182.631 Y120.896 E17.73401
G1 X182.15 Y121.496 E17.75959
G1 X181.858 Y121.806 E17.77376
G1 X181.624 Y122.04 E17.78476
G1 X181.052 Y122.554 E17.81034
G1 X180.43 Y123.007 E17.83593
G1 X179.765 Y123.393 E17.86151
G1 X179.063 Y123.708 E17.8871
G1 X178.332 Y123.948 E17.91269
G1 X177.581 Y124.111 E17.93825
G1 X176.816 Y124.195 E17.96385
G1 X176.391 Y124.207 E17.97799
G1 X173.907 Y124.207 E18.0606
G1 X173.139 Y124.167 E18.08618
G1 X172.379 Y124.048 E18.11177
G1 X171.636 Y123.85 E18.13734
G1 X170.917 Y123.576 E18.16294
G1 X170.231 Y123.229 E18.1885
G1 X169.584 Y122.813 E18.21409
G1 X168.991 Y122.338 E18.23936
G1 X168.578 Y122.523 E18.25441
G1 X167.847 Y122.763 E18.28
G1 X167.096 Y122.926 E18.30556
G1 X166.331 Y123.01 E18.33116
G1 X165.906 Y123.022 E18.3453
G1 X69.669 Y123.022 E21.54615
G1 X69.708 Y123.623 E21.56619
G1 X69.708 Y125.608 E21.63221
G1 X69.668 Y126.376 E21.65779
G1 X69.549 Y127.136 E21.68337
G1 X69.351 Y127.879 E21.70895
G1 X69.077 Y128.598 E21.73454
G1 X68.73 Y129.284 E21.76011
G1 X68.314 Y129.931 E21.78569
G1 X67.833 Y130.531 E21.81127
G1 X67.541 Y130.841 E21.82543
G1 X67.307 Y131.075 E21.83644
G1 X66.735 Y131.589 E21.86202
G1 X66.113 Y132.042 E21.88761
G1 X65.448 Y132.428 E21.91318
G1 X64.746 Y132.743 E21.93877
G1 X64.015 Y132.983 E21.96436
G1 X63.264 Y133.146 E21.98992
G1 X62.499 Y133.23 E22.01552
G1 X62.074 Y133.242 E22.02966
G1 X53.638 Y133.242 E22.31024
G1 X52.87 Y133.202 E22.33582
G1 X52.11 Y133.083 E22.36141
G1 X51.367 Y132.885 E22.38698
G1 X50.648 Y132.611 E22.41258
G1 X49.962 Y132.264 E22.43814
G1 X49.315 Y131.848 E22.46373
G1 X48.715 Y131.367 E22.48931
G1 X48.405 Y131.075 E22.50347
G1 X48.171 Y130.841 E22.51448
G1 X47.657 Y130.269 E22.54005
G1 X47.204 Y129.647 E22.56565
G1 X46.818 Y128.982 E22.59122
G1 X46.503 Y128.28 E22.61681
G1 X46.263 Y127.549 E22.6424
G1 X46.1 Y126.798 E22.66796
G1 X46.016 Y126.033 E22.69356
G1 X46.004 Y125.608 E22.7077
G1 X46.004 Y123.222 E22.78706
G1 X43.613 Y123.222 E22.86658
G1 X42.845 Y123.182 E22.89216
G1 X42.085 Y123.063 E22.91775
G1 X41.342 Y122.865 E22.94332
G1 X40.623 Y122.591 E22.96891
G1 X39.937 Y122.244 E22.99448
G1 X39.29 Y121.828 E23.02007
G1 X38.69 Y121.347 E23.04564
G1 X38.38 Y121.055 E23.05981
G1 X38.146 Y120.821 E23.07082
G1 X37.632 Y120.249 E23.09639
G1 X37.179 Y119.627 E23.12199
G1 X36.793 Y118.962 E23.14756
G1 X36.478 Y118.26 E23.17315
G1 X36.238 Y117.529 E23.19874
G1 X36.075 Y116.778 E23.2243
G1 X35.991 Y116.013 E23.2499
G1 X35.979 Y115.588 E23.26404
G1 X35.979 Y112.655 E23.36159
G1 X36.019 Y111.887 E23.38717
G1 X36.138 Y111.127 E23.41276
G1 X36.336 Y110.384 E23.43833
G1 X36.487 Y109.988 E23.45243
G1 X36.478 Y109.969 E23.45313
G1 X36.238 Y109.238 E23.47872
G1 X36.075 Y108.487 E23.50428
G1 X35.991 Y107.722 E23.52987
G1 X35.979 Y107.3 E23.54391
G1 X35.978 Y104.429 E23.6394
G1 X36.018 Y103.66 E23.66502
G1 X36.137 Y102.901 E23.69057
G1 X36.334 Y102.157 E23.71617
G1 X36.608 Y101.438 E23.74176
G1 X36.955 Y100.752 E23.76733
G1 X37.371 Y100.105 E23.79291
G1 X37.852 Y99.505 E23.81849
G1 X38.145 Y99.193 E23.83272
G1 X38.379 Y98.959 E23.84373
G1 X38.951 Y98.445 E23.86931
G1 X39.573 Y97.992 E23.8949
G1 X40.238 Y97.606 E23.92047
G1 X40.94 Y97.291 E23.94607
G1 X41.671 Y97.051 E23.97166
G1 X42.422 Y96.888 E23.99722
G1 X43.187 Y96.804 E24.02281
G1 X43.612 Y96.792 E24.03695
G1 X46.004 Y96.792 E24.11651
G1 X46.004 Y94.392 E24.19634
G1 X46.044 Y93.624 E24.22192
G1 X46.163 Y92.864 E24.2475
G1 X46.361 Y92.121 E24.27308
G1 X46.635 Y91.402 E24.29867
G1 X46.982 Y90.716 E24.32424
G1 X47.398 Y90.069 E24.34982
G1 X47.879 Y89.469 E24.3754
G1 X48.171 Y89.159 E24.38956
G1 X48.405 Y88.925 E24.40057
G1 X48.977 Y88.411 E24.42615
G1 X49.599 Y87.958 E24.45174
G1 X50.264 Y87.572 E24.47731
M204 S5000
M205 X30 Y30
G0 F3600 X50.501 Y87.9
M204 S500
M205 X20 Y20
G1 F1800 X51.187 Y87.601 E24.5022
G1 X51.901 Y87.377 E24.52709
G1 X52.634 Y87.23 E24.55196
G1 X53.638 Y87.158 E24.58544
G1 X62.074 Y87.158 E24.86602
G1 X62.821 Y87.198 E24.8909
G1 X63.559 Y87.317 E24.91576
G1 X64.281 Y87.515 E24.94066
G1 X64.977 Y87.788 E24.96553
G1 X65.64 Y88.135 E24.99042
G1 X66.263 Y88.55 E25.01531
G1 X67.024 Y89.208 E25.04878
G1 X67.258 Y89.442 E25.05978
G1 X67.758 Y89.999 E25.08468
G1 X68.195 Y90.605 E25.10953
G1 X68.566 Y91.255 E25.13442
G1 X68.865 Y91.941 E25.15931
G1 X69.089 Y92.655 E25.1842
G1 X69.236 Y93.388 E25.20906
G1 X69.308 Y94.392 E25.24254
G1 X69.308 Y96.392 E25.30906
G1 X69.268 Y97.139 E25.33394
G1 X69.227 Y97.392 E25.34247
G1 X165.906 Y97.392 E28.55802
G1 X166.653 Y97.432 E28.58291
G1 X167.391 Y97.551 E28.60777
G1 X168.113 Y97.749 E28.63267
G1 X168.427 Y97.872 E28.64389
G1 X168.527 Y97.748 E28.64918
G1 X169.056 Y97.218 E28.67409
G1 X169.638 Y96.748 E28.69897
G1 X170.267 Y96.343 E28.72385
G1 X170.935 Y96.007 E28.74872
G1 X171.635 Y95.745 E28.77358
G1 X172.36 Y95.558 E28.79849
G1 X173.1 Y95.45 E28.82336
G1 X173.739 Y95.421 E28.84463
G1 X176.391 Y95.421 E28.93284
G1 X177.138 Y95.461 E28.95772
G1 X177.876 Y95.58 E28.98258
G1 X178.598 Y95.778 E29.00748
G1 X179.294 Y96.051 E29.03235
G1 X179.957 Y96.398 E29.05724
G1 X180.58 Y96.813 E29.08214
G1 X181.341 Y97.471 E29.1156
G1 X181.575 Y97.705 E29.1266
G1 X182.075 Y98.262 E29.1515
G1 X182.512 Y98.868 E29.17635
G1 X182.883 Y99.518 E29.20124
G1 X183.182 Y100.204 E29.22613
G1 X183.406 Y100.918 E29.25102
G1 X183.553 Y101.651 E29.27588
G1 X183.625 Y102.655 E29.30936
G1 X183.625 Y116.573 E29.77228
G1 X183.585 Y117.32 E29.79716
G1 X183.466 Y118.058 E29.82202
G1 X183.268 Y118.78 E29.84692
G1 X182.995 Y119.476 E29.87179
G1 X182.648 Y120.139 E29.89668
G1 X182.233 Y120.762 E29.92158
G1 X181.575 Y121.523 E29.95504
G1 X181.341 Y121.757 E29.96604
G1 X180.784 Y122.257 E29.99094
G1 X180.178 Y122.694 E30.01579
G1 X179.528 Y123.065 E30.04068
G1 X178.842 Y123.364 E30.06557
G1 X178.128 Y123.588 E30.09046
G1 X177.395 Y123.735 E30.11532
G1 X176.391 Y123.807 E30.1488
G1 X173.907 Y123.807 E30.23142
G1 X173.16 Y123.767 E30.2563
G1 X172.422 Y123.648 E30.28116
G1 X171.7 Y123.45 E30.30607
G1 X171.004 Y123.177 E30.33093
G1 X170.341 Y122.83 E30.35582
G1 X169.718 Y122.415 E30.38072
G1 X169.144 Y121.936 E30.40558
G1 X169.073 Y121.863 E30.40897
G1 X169.043 Y121.88 E30.41012
G1 X168.357 Y122.179 E30.43501
G1 X167.643 Y122.403 E30.4599
G1 X166.91 Y122.55 E30.48476
G1 X165.906 Y122.622 E30.51824
G1 X69.226 Y122.622 E33.73383
G1 X69.278 Y122.975 E33.7457
G1 X69.308 Y123.623 E33.76727
G1 X69.308 Y125.608 E33.83329
G1 X69.268 Y126.355 E33.85818
G1 X69.149 Y127.093 E33.88304
G1 X68.951 Y127.815 E33.90794
G1 X68.678 Y128.511 E33.93281
G1 X68.331 Y129.174 E33.95769
G1 X67.916 Y129.797 E33.98259
G1 X67.258 Y130.558 E34.01605
G1 X67.024 Y130.792 E34.02706
G1 X66.467 Y131.292 E34.05195
G1 X65.861 Y131.729 E34.0768
G1 X65.211 Y132.1 E34.1017
G1 X64.525 Y132.399 E34.12659
G1 X63.811 Y132.623 E34.15147
G1 X63.078 Y132.77 E34.17634
G1 X62.074 Y132.842 E34.20982
G1 X53.638 Y132.842 E34.4904
G1 X52.891 Y132.802 E34.51528
G1 X52.153 Y132.683 E34.54015
G1 X51.431 Y132.485 E34.56505
G1 X50.735 Y132.212 E34.58991
G1 X50.072 Y131.865 E34.6148
G1 X49.449 Y131.45 E34.6397
G1 X48.688 Y130.792 E34.67316
G1 X48.454 Y130.558 E34.68417
G1 X47.954 Y130.001 E34.70906
G1 X47.517 Y129.395 E34.73391
G1 X47.146 Y128.745 E34.7588
G1 X46.847 Y128.059 E34.78369
G1 X46.623 Y127.345 E34.80858
G1 X46.476 Y126.612 E34.83345
G1 X46.404 Y125.608 E34.86693
G1 X46.404 Y122.822 E34.95959
G1 X43.613 Y122.822 E35.05242
G1 X42.866 Y122.782 E35.0773
G1 X42.128 Y122.663 E35.10216
G1 X41.406 Y122.465 E35.12706
G1 X40.71 Y122.192 E35.15193
G1 X40.047 Y121.845 E35.17682
G1 X39.424 Y121.43 E35.20171
G1 X38.663 Y120.772 E35.23518
G1 X38.429 Y120.538 E35.24618
G1 X37.929 Y119.981 E35.27108
G1 X37.492 Y119.375 E35.29593
G1 X37.121 Y118.725 E35.32082
G1 X36.822 Y118.039 E35.34571
G1 X36.598 Y117.325 E35.3706
G1 X36.451 Y116.592 E35.39546
G1 X36.379 Y115.588 E35.42894
G1 X36.379 Y112.655 E35.52649
G1 X36.419 Y111.908 E35.55137
G1 X36.538 Y111.17 E35.57624
G1 X36.736 Y110.448 E35.60114
G1 X36.921 Y109.976 E35.618
G1 X36.822 Y109.748 E35.62627
G1 X36.598 Y109.034 E35.65116
G1 X36.451 Y108.301 E35.67602
G1 X36.379 Y107.299 E35.70943
G1 X36.378 Y104.428 E35.80492
G1 X36.418 Y103.681 E35.8298
G1 X36.537 Y102.943 E35.85467
G1 X36.734 Y102.221 E35.87956
G1 X37.007 Y101.525 E35.90443
G1 X37.353 Y100.862 E35.9293
G1 X37.768 Y100.239 E35.9542
G1 X38.428 Y99.476 E35.98775
G1 X38.662 Y99.242 E35.99876
