;FLAVOR:Marlin
;TIME:2082
;Filament used: 3.25848m
;Layer height: 0.3
;Generated with Cura_SteamEngine 3.6.0
M140 S60
M105
M190 S60
M104 S200
M105
M109 S200
M82 ;absolute extrusion mode
; Ender 3 Custom Start G-code
G28 ; Home all axes
G92 E0 ; Reset Extruder
G1 Z2.0 F3000 ; Move Z Axis up little to prevent scratching of Heat Bed
G1 X0.1 Y20 Z0.3 F5000.0 ; Move to start position
G1 X0.1 Y200.0 Z0.3 F1500.0 E15 ; Draw the first line
G1 X0.4 Y200.0 Z0.3 F5000.0 ; Move to side a little
G1 X0.4 Y20 Z0.3 F1500.0 E30 ; Draw the second line
G92 E0 ; Reset Extruder
G1 Z2.0 F3000 ; Move Z Axis up little to prevent scratching of Heat Bed
; End of custom start GCode
G92 E0
G1 F2400 E-5
;LAYER_COUNT:66
;LAYER:0
M107
M204 S5000
M205 X30 Y30
G0 F3600 X101.101 Y96.025 Z0.2
M204 S500
M205 X20 Y20
;TYPE:SKIRT
G1 F2400 E0
G1 F1800 X101.218 Y95.908 E0.0055
G1 X101.804 Y95.378 E0.03178
G1 X102.44 Y94.911 E0.05803
G1 X103.12 Y94.51 E0.08428
G1 X103.838 Y94.18 E0.11057
G1 X104.585 Y93.925 E0.13682
G1 X105.354 Y93.746 E0.16308
G1 X106.138 Y93.646 E0.18937
G1 X106.733 Y93.623 E0.20917
G1 X123.168 Y93.623 E0.7558
G1 X123.957 Y93.663 E0.78208
G1 X124.374 Y93.727 E0.79611
G1 X125.006 Y93.646 E0.8173
G1 X125.601 Y93.623 E0.83711
G1 X128.267 Y93.623 E0.92578
G1 X129.056 Y93.663 E0.95205
G1 X129.836 Y93.782 E0.9783
G1 X130.601 Y93.98 E1.00458
G1 X131.341 Y94.254 E1.03082
G1 X132.05 Y94.602 E1.05709
G1 X132.721 Y95.02 E1.08339
G1 X133.345 Y95.503 E1.10963
G1 X133.782 Y95.908 E1.12945
G1 X133.899 Y96.025 E1.13495
G1 X134.429 Y96.611 E1.16123
G1 X134.896 Y97.247 E1.18748
G1 X135.297 Y97.927 E1.21373
G1 X135.627 Y98.645 E1.24001
G1 X135.882 Y99.392 E1.26627
G1 X136.061 Y100.161 E1.29253
G1 X136.161 Y100.945 E1.31882
G1 X136.184 Y101.54 E1.33862
G1 X136.184 Y133.46 E2.40028
G1 X136.144 Y134.249 E2.42656
G1 X136.025 Y135.029 E2.4528
G1 X135.827 Y135.794 E2.47909
G1 X135.553 Y136.534 E2.50533
G1 X135.205 Y137.243 E2.5316
G1 X134.787 Y137.914 E2.55789
G1 X134.304 Y138.538 E2.58414
G1 X133.899 Y138.975 E2.60396
G1 X133.782 Y139.092 E2.60946
G1 X133.196 Y139.622 E2.63574
G1 X132.56 Y140.089 E2.66198
G1 X131.88 Y140.49 E2.68824
G1 X131.162 Y140.82 E2.71452
G1 X130.415 Y141.075 E2.74077
G1 X129.646 Y141.254 E2.76703
G1 X128.862 Y141.354 E2.79332
G1 X128.267 Y141.377 E2.81313
G1 X106.733 Y141.377 E3.52935
G1 X105.944 Y141.337 E3.55563
G1 X105.164 Y141.218 E3.58187
G1 X104.399 Y141.02 E3.60815
G1 X103.659 Y140.746 E3.6344
G1 X102.95 Y140.398 E3.66067
G1 X102.279 Y139.98 E3.68696
G1 X101.655 Y139.497 E3.71321
G1 X101.218 Y139.092 E3.73302
G1 X101.101 Y138.975 E3.73853
G1 X100.571 Y138.389 E3.76481
G1 X100.104 Y137.753 E3.79105
G1 X99.703 Y137.073 E3.81731
G1 X99.373 Y136.355 E3.84359
G1 X99.118 Y135.608 E3.86984
G1 X98.939 Y134.839 E3.8961
G1 X98.839 Y134.055 E3.92239
G1 X98.816 Y133.46 E3.94219
G1 X98.816 Y101.54 E5.00386
G1 X98.856 Y100.751 E5.03013
G1 X98.975 Y99.971 E5.05638
G1 X99.173 Y99.206 E5.08266
G1 X99.447 Y98.466 E5.1089
G1 X99.795 Y97.757 E5.13517
G1 X100.213 Y97.086 E5.16147
G1 X100.696 Y96.462 E5.18771
G1 X101.101 Y96.025 E5.20753
M204 S5000
M205 X30 Y30
G0 F3600 X101.383 Y96.307
M204 S500
M205 X20 Y20
G1 F1800 X101.5 Y96.19 E5.21303
G1 X102.072 Y95.676 E5.23861
G1 X102.694 Y95.223 E5.2642
G1 X103.359 Y94.837 E5.28978
G1 X104.061 Y94.522 E5.31537
G1 X104.792 Y94.282 E5.34096
G1 X105.543 Y94.119 E5.36652
G1 X106.308 Y94.035 E5.39211
G1 X106.733 Y94.023 E5.40626
G1 X123.168 Y94.023 E5.95289
G1 X123.936 Y94.063 E5.97846
G1 X124.362 Y94.13 E5.99281
G1 X124.411 Y94.119 E5.99448
G1 X125.176 Y94.035 E6.02007
G1 X125.601 Y94.023 E6.03422
G1 X128.267 Y94.023 E6.12289
G1 X129.035 Y94.063 E6.14847
G1 X129.795 Y94.182 E6.17405
G1 X130.538 Y94.38 E6.19963
G1 X131.257 Y94.654 E6.22522
G1 X131.943 Y95.001 E6.25079
G1 X132.59 Y95.417 E6.27637
G1 X133.19 Y95.898 E6.30195
G1 X133.5 Y96.19 E6.31611
G1 X133.617 Y96.307 E6.32162
G1 X134.131 Y96.879 E6.34719
G1 X134.584 Y97.501 E6.37279
G1 X134.97 Y98.166 E6.39836
G1 X135.285 Y98.868 E6.42395
G1 X135.525 Y99.599 E6.44954
G1 X135.688 Y100.35 E6.4751
G1 X135.772 Y101.115 E6.5007
G1 X135.784 Y101.54 E6.51484
G1 X135.784 Y133.46 E7.5765
G1 X135.744 Y134.228 E7.60208
G1 X135.625 Y134.988 E7.62767
G1 X135.427 Y135.731 E7.65324
G1 X135.153 Y136.45 E7.67883
G1 X134.806 Y137.136 E7.7044
G1 X134.39 Y137.783 E7.72999
G1 X133.909 Y138.383 E7.75556
G1 X133.617 Y138.693 E7.76973
G1 X133.5 Y138.81 E7.77523
G1 X132.928 Y139.324 E7.80081
G1 X132.306 Y139.777 E7.8264
G1 X131.641 Y140.163 E7.85198
G1 X130.939 Y140.478 E7.87757
G1 X130.208 Y140.718 E7.90316
G1 X129.457 Y140.881 E7.92872
G1 X128.692 Y140.965 E7.95431
G1 X128.267 Y140.977 E7.96846
G1 X106.733 Y140.977 E8.68468
G1 X105.965 Y140.937 E8.71026
G1 X105.205 Y140.818 E8.73584
G1 X104.462 Y140.62 E8.76142
G1 X103.743 Y140.346 E8.78701
G1 X103.057 Y139.999 E8.81258
G1 X102.41 Y139.583 E8.83816
G1 X101.81 Y139.102 E8.86374
G1 X101.5 Y138.81 E8.8779
G1 X101.383 Y138.693 E8.88341
G1 X100.869 Y138.121 E8.90898
G1 X100.416 Y137.499 E8.93458
G1 X100.03 Y136.834 E8.96015
G1 X99.715 Y136.132 E8.98574
G1 X99.475 Y135.401 E9.01133
G1 X99.312 Y134.65 E9.03689
G1 X99.228 Y133.885 E9.06249
G1 X99.216 Y133.46 E9.07663
G1 X99.216 Y101.54 E10.13829
G1 X99.256 Y100.772 E10.16387
G1 X99.375 Y100.012 E10.18946
G1 X99.573 Y99.269 E10.21503
G1 X99.847 Y98.55 E10.24062
G1 X100.194 Y97.864 E10.26619
G1 X100.61 Y97.217 E10.29178
G1 X101.091 Y96.617 E10.31735
G1 X101.383 Y96.307 E10.33152
M204 S5000
M205 X30 Y30
G0 F3600 X101.666 Y96.59
M204 S500
M205 X20 Y20
G1 F1800 X101.783 Y96.473 E10.33702
G1 X102.34 Y95.973 E10.36192
G1 X102.946 Y95.536 E10.38677
G1 X103.596 Y95.165 E10.41166
G1 X104.282 Y94.866 E10.43655
G1 X104.996 Y94.642 E10.46144
G1 X105.729 Y94.495 E10.4863
G1 X106.733 Y94.423 E10.51978
G1 X123.168 Y94.423 E11.06641
G1 X123.915 Y94.463 E11.09129
G1 X124.381 Y94.538 E11.10699
G1 X124.597 Y94.495 E11.11432
G1 X125.601 Y94.423 E11.1478
G1 X128.267 Y94.423 E11.23647
G1 X129.014 Y94.463 E11.26135
G1 X129.752 Y94.582 E11.28621
G1 X130.474 Y94.78 E11.31111
G1 X131.17 Y95.053 E11.33598
G1 X131.833 Y95.4 E11.36087
G1 X132.456 Y95.815 E11.38577
G1 X133.217 Y96.473 E11.41923
G1 X133.334 Y96.59 E11.42473
G1 X133.834 Y97.147 E11.44962
G1 X134.271 Y97.753 E11.47447
G1 X134.642 Y98.403 E11.49937
G1 X134.941 Y99.089 E11.52426
G1 X135.165 Y99.803 E11.54915
G1 X135.312 Y100.536 E11.57401
G1 X135.384 Y101.54 E11.60749
G1 X135.384 Y133.46 E12.66915
G1 X135.344 Y134.207 E12.69403
G1 X135.225 Y134.945 E12.7189
G1 X135.027 Y135.667 E12.7438
G1 X134.754 Y136.363 E12.76866
G1 X134.407 Y137.026 E12.79355
G1 X133.992 Y137.649 E12.81845
G1 X133.334 Y138.41 E12.85191
G1 X133.217 Y138.527 E12.85741
G1 X132.66 Y139.027 E12.88231
G1 X132.054 Y139.464 E12.90716
G1 X131.404 Y139.835 E12.93205
G1 X130.718 Y140.134 E12.95694
G1 X130.004 Y140.358 E12.98183
G1 X129.271 Y140.505 E13.0067
G1 X128.267 Y140.577 E13.04017
G1 X106.733 Y140.577 E13.7564
G1 X105.986 Y140.537 E13.78128
G1 X105.248 Y140.418 E13.80614
G1 X104.526 Y140.22 E13.83104
G1 X103.83 Y139.947 E13.85591
G1 X103.167 Y139.6 E13.8808
G1 X102.544 Y139.185 E13.90569
G1 X101.783 Y138.527 E13.93916
G1 X101.666 Y138.41 E13.94466
G1 X101.166 Y137.853 E13.96955
G1 X100.729 Y137.247 E13.9944
G1 X100.358 Y136.597 E14.0193
G1 X100.059 Y135.911 E14.04419
G1 X99.835 Y135.197 E14.06907
G1 X99.688 Y134.464 E14.09394
G1 X99.616 Y133.46 E14.12742
G1 X99.616 Y101.54 E15.18908
G1 X99.656 Y100.793 E15.21396
G1 X99.775 Y100.055 E15.23883
G1 X99.973 Y99.333 E15.26373
G1 X100.246 Y98.637 E15.28859
G1 X100.593 Y97.974 E15.31348
G1 X101.008 Y97.351 E15.33838
G1 X101.666 Y96.59 E15.37184
M204 S5000
M205 X30 Y30
G0 F3600 X101.949 Y96.873
M204 S500
M205 X20 Y20
G1 F1800 X102.066 Y96.756 E15.37734
G1 X102.607 Y96.272 E15.40149
G1 X103.198 Y95.849 E15.42566
G1 X103.832 Y95.495 E15.44981
G1 X104.501 Y95.212 E15.47397
G1 X105.197 Y95.004 E15.49813
G1 X105.912 Y94.874 E15.5223
G1 X106.733 Y94.823 E15.54966
G1 X123.168 Y94.823 E16.09629
G1 X123.893 Y94.863 E16.12044
G1 X124.388 Y94.945 E16.13713
G1 X124.78 Y94.874 E16.15038
G1 X125.601 Y94.823 E16.17774
G1 X128.267 Y94.823 E16.26641
G1 X128.992 Y94.863 E16.29056
G1 X129.709 Y94.982 E16.31474
G1 X130.408 Y95.18 E16.3389
G1 X131.081 Y95.453 E16.36305
G1 X131.72 Y95.798 E16.38721
G1 X132.317 Y96.212 E16.41137
G1 X132.934 Y96.756 E16.43873
G1 X133.051 Y96.873 E16.44423
G1 X133.535 Y97.414 E16.46838
G1 X133.958 Y98.005 E16.49255
G1 X134.312 Y98.639 E16.5167
G1 X134.595 Y99.308 E16.54086
G1 X134.803 Y100.004 E16.56502
G1 X134.933 Y100.719 E16.58919
G1 X134.984 Y101.54 E16.61655
G1 X134.984 Y133.46 E17.67822
G1 X134.944 Y134.185 E17.70237
G1 X134.825 Y134.902 E17.72654
G1 X134.627 Y135.601 E17.7507
G1 X134.354 Y136.274 E17.77486
G1 X134.009 Y136.913 E17.79901
G1 X133.595 Y137.51 E17.82318
G1 X133.051 Y138.127 E17.85053
G1 X132.934 Y138.244 E17.85604
G1 X132.393 Y138.728 E17.88018
G1 X131.802 Y139.151 E17.90435
G1 X131.168 Y139.505 E17.92851
G1 X130.499 Y139.788 E17.95267
G1 X129.803 Y139.996 E17.97683
G1 X129.088 Y140.126 E18.001
G1 X128.267 Y140.177 E18.02836
G1 X106.733 Y140.177 E18.74458
G1 X106.008 Y140.137 E18.76873
G1 X105.291 Y140.018 E18.7929
G1 X104.592 Y139.82 E18.81707
G1 X103.919 Y139.547 E18.84122
G1 X103.28 Y139.202 E18.86538
G1 X102.683 Y138.788 E18.88954
G1 X102.066 Y138.244 E18.9169
G1 X101.949 Y138.127 E18.9224
G1 X101.465 Y137.586 E18.94655
G1 X101.042 Y136.995 E18.97072
G1 X100.688 Y136.361 E18.99487
G1 X100.405 Y135.692 E19.01903
G1 X100.197 Y134.996 E19.04319
G1 X100.067 Y134.281 E19.06736
G1 X100.016 Y133.46 E19.09472
G1 X100.016 Y101.54 E20.15638
G1 X100.056 Y100.815 E20.18053
G1 X100.175 Y100.098 E20.20471
G1 X100.373 Y99.399 E20.22887
G1 X100.646 Y98.726 E20.25303
G1 X100.991 Y98.087 E20.27718
G1 X101.405 Y97.49 E20.30134
G1 X101.949 Y96.873 E20.3287
M204 S5000
M205 X30 Y30
G0 F3600 X102.232 Y97.156
M204 S500
M205 X20 Y20
G1 F1800 X102.349 Y97.039 E20.33421
G1 X102.874 Y96.57 E20.35762
G1 X103.449 Y96.164 E20.38103
G1 X104.067 Y95.826 E20.40446
G1 X104.718 Y95.559 E20.42786
G1 X105.396 Y95.369 E20.45128
G1 X106.091 Y95.256 E20.4747
G1 X106.733 Y95.223 E20.49608
G1 X123.168 Y95.223 E21.04271
G1 X123.871 Y95.263 E21.06613
G1 X124.38 Y95.35 E21.08331
G1 X124.959 Y95.256 E21.10282
G1 X125.601 Y95.223 E21.1242
G1 X128.267 Y95.223 E21.21287
G1 X128.97 Y95.263 E21.23629
G1 X129.664 Y95.382 E21.25971
G1 X130.339 Y95.58 E21.28311
G1 X130.988 Y95.852 E21.30651
G1 X131.602 Y96.197 E21.32994
G1 X132.173 Y96.608 E21.35333
G1 X132.651 Y97.039 E21.37474
G1 X132.768 Y97.156 E21.38024
G1 X133.237 Y97.681 E21.40366
G1 X133.643 Y98.256 E21.42707
G1 X133.981 Y98.874 E21.4505
G1 X134.248 Y99.525 E21.4739
G1 X134.438 Y100.203 E21.49732
G1 X134.551 Y100.898 E21.52074
G1 X134.584 Y101.54 E21.54212
G1 X134.584 Y133.46 E22.60378
G1 X134.544 Y134.163 E22.6272
G1 X134.425 Y134.857 E22.65062
G1 X134.227 Y135.532 E22.67402
G1 X133.955 Y136.181 E22.69743
G1 X133.61 Y136.795 E22.72085
G1 X133.199 Y137.366 E22.74425
G1 X132.768 Y137.844 E22.76566
G1 X132.651 Y137.961 E22.77116
G1 X132.126 Y138.43 E22.79457
G1 X131.551 Y138.836 E22.81799
G1 X130.933 Y139.174 E22.84141
G1 X130.282 Y139.441 E22.86482
G1 X129.604 Y139.631 E22.88824
G1 X128.909 Y139.744 E22.91166
G1 X128.267 Y139.777 E22.93304
G1 X106.733 Y139.777 E23.64926
G1 X106.03 Y139.737 E23.67268
G1 X105.336 Y139.618 E23.6961
G1 X104.661 Y139.42 E23.7195
G1 X104.012 Y139.148 E23.7429
G1 X103.398 Y138.803 E23.76633
G1 X102.827 Y138.392 E23.78973
G1 X102.349 Y137.961 E23.81113
G1 X102.232 Y137.844 E23.81664
G1 X101.763 Y137.319 E23.84005
G1 X101.357 Y136.744 E23.86346
G1 X101.019 Y136.126 E23.88689
G1 X100.752 Y135.475 E23.91029
G1 X100.562 Y134.797 E23.93371
G1 X100.449 Y134.102 E23.95713
G1 X100.416 Y133.46 E23.97851
G1 X100.416 Y101.54 E25.04018
G1 X100.456 Y100.837 E25.06359
G1 X100.575 Y100.143 E25.08701
G1 X100.773 Y99.468 E25.11041
G1 X101.045 Y98.819 E25.13382
G1 X101.39 Y98.205 E25.15724
G1 X101.801 Y97.634 E25.18064
G1 X102.232 Y97.156 E25.20205
M204 S5000
M205 X30 Y30
G0 F3600 X102.515 Y97.439
M204 S500
M205 X20 Y20
G1 F1800 X102.632 Y97.322 E25.20755
G1 X103.141 Y96.869 E25.23021
G1 X103.699 Y96.48 E25.25284
G1 X104.299 Y96.158 E25.27549
G1 X104.933 Y95.909 E25.29814
G1 X105.592 Y95.736 E25.3208
G1 X106.266 Y95.642 E25.34344
G1 X106.733 Y95.623 E25.35898
G1 X123.168 Y95.623 E25.90561
G1 X123.848 Y95.663 E25.92827
G1 X124.379 Y95.757 E25.9462
G1 X124.46 Y95.736 E25.94899
G1 X125.134 Y95.642 E25.97162
G1 X125.601 Y95.623 E25.98717
G1 X128.267 Y95.623 E26.07584
G1 X128.947 Y95.663 E26.09849
G1 X129.617 Y95.782 E26.12113
G1 X130.269 Y95.979 E26.14378
G1 X130.893 Y96.251 E26.16642
G1 X131.481 Y96.595 E26.18908
G1 X132.025 Y97.005 E26.21174
G1 X132.368 Y97.322 E26.22727
G1 X132.485 Y97.439 E26.23277
G1 X132.938 Y97.948 E26.25544
G1 X133.327 Y98.506 E26.27806
G1 X133.649 Y99.106 E26.30071
G1 X133.898 Y99.74 E26.32336
G1 X134.071 Y100.399 E26.34602
G1 X134.165 Y101.073 E26.36866
G1 X134.184 Y101.54 E26.3842
G1 X134.184 Y133.46 E27.44587
G1 X134.144 Y134.14 E27.46852
G1 X134.025 Y134.81 E27.49116
G1 X133.828 Y135.462 E27.51381
G1 X133.556 Y136.086 E27.53645
G1 X133.212 Y136.674 E27.55911
G1 X132.802 Y137.218 E27.58177
G1 X132.485 Y137.561 E27.5973
G1 X132.368 Y137.678 E27.6028
G1 X131.859 Y138.131 E27.62547
G1 X131.301 Y138.52 E27.64809
G1 X130.701 Y138.842 E27.67074
G1 X130.067 Y139.091 E27.69339
G1 X129.408 Y139.264 E27.71605
G1 X128.734 Y139.358 E27.73869
G1 X128.267 Y139.377 E27.75423
G1 X106.733 Y139.377 E28.47046
G1 X106.053 Y139.337 E28.49311
G1 X105.383 Y139.218 E28.51575
G1 X104.731 Y139.021 E28.5384
G1 X104.107 Y138.749 E28.56104
G1 X103.519 Y138.405 E28.5837
G1 X102.975 Y137.995 E28.60636
G1 X102.632 Y137.678 E28.62189
G1 X102.515 Y137.561 E28.62739
G1 X102.062 Y137.052 E28.65006
G1 X101.673 Y136.494 E28.67268
G1 X101.351 Y135.894 E28.69533
G1 X101.102 Y135.26 E28.71798
G1 X100.929 Y134.601 E28.74064
G1 X100.835 Y133.927 E28.76328
G1 X100.816 Y133.46 E28.77882
G1 X100.816 Y101.54 E29.84049
G1 X100.856 Y100.86 E29.86314
G1 X100.975 Y100.19 E29.88578
G1 X101.172 Y99.538 E29.90843
G1 X101.444 Y98.914 E29.93107
G1 X101.788 Y98.326 E29.95373
G1 X102.198 Y97.782 E29.97639
G1 X102.515 Y97.439 E29.99192
M204 S5000
M205 X30 Y30
G0 F3600 X102.798 Y97.722
M204 S500
M205 X20 Y20
G1 F1800 X102.915 Y97.605 E29.99742
G1 X103.407 Y97.169 E30.01929
G1 X103.948 Y96.797 E30.04113
G1 X104.53 Y96.493 E30.06296
G1 X105.145 Y96.262 E30.08481
G1 X105.784 Y96.107 E30.10668
G1 X106.733 Y96.023 E30.13837
G1 X123.168 Y96.023 E30.685
G1 X123.824 Y96.063 E30.70686
G1 X124.398 Y96.169 E30.72628
G1 X124.652 Y96.107 E30.73497
G1 X125.601 Y96.023 E30.76666
G1 X128.267 Y96.023 E30.85533
G1 X128.923 Y96.063 E30.87719
G1 X129.569 Y96.182 E30.89904
G1 X130.196 Y96.379 E30.9209
G1 X130.794 Y96.651 E30.94275
G1 X131.355 Y96.993 E30.9646
G1 X132.085 Y97.605 E30.99628
G1 X132.202 Y97.722 E31.00179
G1 X132.638 Y98.214 E31.02365
G1 X133.01 Y98.755 E31.04549
G1 X133.314 Y99.337 E31.06733
G1 X133.545 Y99.952 E31.08918
G1 X133.7 Y100.591 E31.11105
G1 X133.784 Y101.54 E31.14273
G1 X133.784 Y133.46 E32.2044
G1 X133.744 Y134.116 E32.22626
G1 X133.625 Y134.762 E32.2481
G1 X133.428 Y135.389 E32.26996
G1 X133.156 Y135.987 E32.29181
G1 X132.814 Y136.548 E32.31367
G1 X132.202 Y137.278 E32.34535
G1 X132.085 Y137.395 E32.35085
G1 X131.593 Y137.831 E32.37272
G1 X131.052 Y138.203 E32.39456
G1 X130.47 Y138.507 E32.41639
G1 X129.855 Y138.738 E32.43824
G1 X129.216 Y138.893 E32.46011
G1 X128.267 Y138.977 E32.4918
G1 X106.733 Y138.977 E33.20803
G1 X106.077 Y138.937 E33.22988
G1 X105.431 Y138.818 E33.25173
G1 X104.804 Y138.621 E33.27359
G1 X104.206 Y138.349 E33.29544
G1 X103.645 Y138.007 E33.31729
G1 X102.915 Y137.395 E33.34898
G1 X102.798 Y137.278 E33.35448
G1 X102.362 Y136.786 E33.37635
G1 X101.99 Y136.245 E33.39818
G1 X101.686 Y135.663 E33.42002
G1 X101.455 Y135.048 E33.44187
G1 X101.3 Y134.409 E33.46374
G1 X101.216 Y133.46 E33.49543
G1 X101.216 Y101.54 E34.55709
G1 X101.256 Y100.884 E34.57895
G1 X101.375 Y100.238 E34.6008
G1 X101.572 Y99.611 E34.62266
G1 X101.844 Y99.013 E34.64451
G1 X102.186 Y98.452 E34.66636
