;FLAVOR:Marlin
;TIME:629
;Filament used: 1.01314m
;Layer height: 0.6
;Generated with Cura_SteamEngine 3.6.0
M140 S60
M105
M190 S60
M104 S200
M105
M109 S200
M82 ;absolute extrusion mode
; Ender 3 Custom Start G-code
G28 ; Home all axes
G92 E0 ; Reset Extruder
G1 Z2.0 F3000 ; Move Z Axis up little to prevent scratching of Heat Bed
G1 X0.1 Y20 Z0.3 F5000.0 ; Move to start position
G1 X0.1 Y200.0 Z0.3 F1500.0 E15 ; Draw the first line
G1 X0.4 Y200.0 Z0.3 F5000.0 ; Move to side a little
G1 X0.4 Y20 Z0.3 F1500.0 E30 ; Draw the second line
G92 E0 ; Reset Extruder
G1 Z2.0 F3000 ; Move Z Axis up little to prevent scratching of Heat Bed
; End of custom start GCode
G92 E0
G1 F2400 E-5
;LAYER_COUNT:55
;LAYER:0
M107
M204 S5000
M205 X30 Y30
G0 F3600 X108.747 Y103.227 Z0.2
M204 S500
M205 X20 Y20
;TYPE:SKIRT
G1 F2400 E0
G1 F1800 X109.279 Y102.748 E0.02381
G1 X109.861 Y102.333 E0.04758
G1 X110.486 Y101.984 E0.07139
G1 X111.146 Y101.708 E0.09519
G1 X111.832 Y101.507 E0.11896
G1 X112.537 Y101.384 E0.14277
G1 X113.286 Y101.34 E0.16772
G1 X121.716 Y101.341 E0.4481
G1 X122.43 Y101.381 E0.47189
G1 X123.135 Y101.501 E0.49567
G1 X123.823 Y101.698 E0.51948
G1 X124.484 Y101.971 E0.54326
G1 X125.11 Y102.316 E0.56704
G1 X125.694 Y102.729 E0.59083
G1 X126.229 Y103.204 E0.61462
G1 X126.707 Y103.736 E0.63841
G1 X127.123 Y104.318 E0.6622
G1 X127.471 Y104.943 E0.686
G1 X127.747 Y105.603 E0.70979
G1 X127.948 Y106.289 E0.73357
G1 X128.071 Y106.994 E0.75737
G1 X128.115 Y107.741 E0.78226
G1 X128.115 Y127.26 E1.43146
G1 X128.075 Y127.974 E1.45525
G1 X127.956 Y128.679 E1.47903
G1 X127.758 Y129.367 E1.50284
G1 X127.485 Y130.028 E1.52662
G1 X127.141 Y130.655 E1.55041
G1 X126.728 Y131.239 E1.5742
G1 X126.253 Y131.773 E1.59797
G1 X125.721 Y132.252 E1.62178
G1 X125.139 Y132.667 E1.64556
G1 X124.514 Y133.016 E1.66936
G1 X123.854 Y133.292 E1.69316
G1 X123.168 Y133.493 E1.71693
G1 X122.463 Y133.616 E1.74074
G1 X121.715 Y133.66 E1.76566
G1 X113.285 Y133.66 E2.04604
G1 X112.571 Y133.62 E2.06983
G1 X111.866 Y133.501 E2.09361
G1 X111.178 Y133.303 E2.11742
G1 X110.517 Y133.03 E2.1412
G1 X109.89 Y132.686 E2.16499
G1 X109.306 Y132.273 E2.18878
G1 X108.772 Y131.798 E2.21255
G1 X108.293 Y131.266 E2.23636
G1 X107.878 Y130.684 E2.26014
G1 X107.529 Y130.059 E2.28395
G1 X107.253 Y129.399 E2.30774
G1 X107.052 Y128.713 E2.33152
G1 X106.929 Y128.008 E2.35532
G1 X106.885 Y127.26 E2.38024
G1 X106.885 Y107.74 E3.02948
G1 X106.925 Y107.026 E3.05326
G1 X107.044 Y106.321 E3.07704
G1 X107.242 Y105.633 E3.10085
G1 X107.515 Y104.972 E3.12464
G1 X107.859 Y104.345 E3.14843
G1 X108.272 Y103.761 E3.17222
G1 X108.747 Y103.227 E3.19599
M204 S5000
M205 X30 Y30
G0 F3600 X109.141 Y103.401
M204 S500
M205 X20 Y20
G1 F1800 X109.669 Y102.952 E3.21904
G1 X110.244 Y102.567 E3.24206
G1 X110.861 Y102.252 E3.2651
G1 X111.509 Y102.009 E3.28812
G1 X112.182 Y101.842 E3.31118
G1 X112.868 Y101.754 E3.33418
G1 X113.286 Y101.74 E3.34809
G1 X121.716 Y101.741 E3.62848
G1 X122.407 Y101.781 E3.6515
G1 X123.089 Y101.9 E3.67452
G1 X123.753 Y102.098 E3.69757
G1 X124.39 Y102.37 E3.72061
G1 X124.991 Y102.714 E3.74364
G1 X125.548 Y103.125 E3.76666
G1 X126.055 Y103.598 E3.78972
G1 X126.503 Y104.125 E3.81273
G1 X126.888 Y104.701 E3.83577
G1 X127.204 Y105.317 E3.8588
G1 X127.446 Y105.966 E3.88184
G1 X127.613 Y106.638 E3.90487
G1 X127.701 Y107.325 E3.9279
G1 X127.715 Y107.741 E3.94175
G1 X127.715 Y127.26 E4.59095
G1 X127.675 Y127.951 E4.61397
G1 X127.556 Y128.634 E4.63703
G1 X127.358 Y129.297 E4.66005
G1 X127.086 Y129.934 E4.68308
G1 X126.742 Y130.535 E4.70612
G1 X126.331 Y131.093 E4.72917
G1 X125.859 Y131.599 E4.75218
G1 X125.331 Y132.048 E4.77523
G1 X124.756 Y132.433 E4.79825
G1 X124.139 Y132.748 E4.82129
G1 X123.491 Y132.991 E4.84431
G1 X122.818 Y133.158 E4.86737
G1 X122.132 Y133.246 E4.89037
G1 X121.715 Y133.26 E4.90425
G1 X113.285 Y133.26 E5.18463
G1 X112.594 Y133.22 E5.20766
G1 X111.911 Y133.101 E5.23071
G1 X111.248 Y132.903 E5.25373
G1 X110.611 Y132.631 E5.27677
G1 X110.01 Y132.287 E5.2998
G1 X109.452 Y131.876 E5.32285
G1 X108.946 Y131.404 E5.34586
G1 X108.497 Y130.876 E5.36892
G1 X108.112 Y130.301 E5.39193
G1 X107.797 Y129.684 E5.41497
G1 X107.554 Y129.036 E5.43799
G1 X107.387 Y128.363 E5.46105
G1 X107.299 Y127.677 E5.48406
G1 X107.285 Y127.26 E5.49793
G1 X107.285 Y107.74 E6.14717
G1 X107.325 Y107.049 E6.17019
G1 X107.444 Y106.366 E6.19325
G1 X107.642 Y105.703 E6.21627
G1 X107.914 Y105.066 E6.2393
G1 X108.258 Y104.465 E6.26234
G1 X108.669 Y103.907 E6.28539
G1 X109.141 Y103.401 E6.3084
M204 S5000
M205 X30 Y30
G0 F3600 X109.534 Y103.582
M204 S500
M205 X20 Y20
G1 F1800 X110.056 Y103.164 E6.33064
G1 X110.625 Y102.812 E6.3529
G1 X111.232 Y102.53 E6.37516
G1 X111.868 Y102.322 E6.39741
G1 X112.524 Y102.192 E6.41966
G1 X113.286 Y102.14 E6.44506
G1 X121.716 Y102.141 E6.72544
G1 X122.383 Y102.181 E6.74767
G1 X123.042 Y102.3 E6.76994
G1 X123.681 Y102.497 E6.79218
G1 X124.292 Y102.769 E6.81443
G1 X124.867 Y103.112 E6.83669
G1 X125.396 Y103.521 E6.85893
G1 X125.873 Y103.99 E6.88118
G1 X126.291 Y104.513 E6.90345
G1 X126.643 Y105.082 E6.92571
G1 X126.925 Y105.688 E6.94794
G1 X127.133 Y106.324 E6.97019
G1 X127.263 Y106.981 E6.99247
G1 X127.315 Y107.741 E7.0178
G1 X127.315 Y127.26 E7.66701
G1 X127.275 Y127.928 E7.68927
G1 X127.156 Y128.586 E7.71151
G1 X126.959 Y129.226 E7.73378
G1 X126.687 Y129.837 E7.75602
G1 X126.344 Y130.411 E7.77826
G1 X125.935 Y130.941 E7.80053
G1 X125.466 Y131.418 E7.82278
G1 X124.944 Y131.836 E7.84502
G1 X124.375 Y132.188 E7.86728
G1 X123.768 Y132.47 E7.88954
G1 X123.132 Y132.678 E7.91179
G1 X122.476 Y132.808 E7.93404
G1 X121.715 Y132.86 E7.95941
G1 X113.285 Y132.86 E8.23979
G1 X112.617 Y132.82 E8.26205
G1 X111.959 Y132.701 E8.28429
G1 X111.319 Y132.504 E8.30656
G1 X110.708 Y132.232 E8.3288
G1 X110.134 Y131.889 E8.35104
G1 X109.604 Y131.48 E8.37331
G1 X109.127 Y131.011 E8.39556
G1 X108.709 Y130.489 E8.4178
G1 X108.357 Y129.92 E8.44006
G1 X108.075 Y129.313 E8.46232
G1 X107.867 Y128.677 E8.48457
G1 X107.737 Y128.021 E8.50682
G1 X107.685 Y127.26 E8.53219
G1 X107.685 Y107.74 E9.18142
G1 X107.725 Y107.072 E9.20368
G1 X107.844 Y106.414 E9.22592
G1 X108.041 Y105.774 E9.24819
G1 X108.313 Y105.163 E9.27044
G1 X108.656 Y104.589 E9.29268
G1 X109.065 Y104.059 E9.31494
G1 X109.534 Y103.582 E9.33719
M204 S5000
M205 X30 Y30
G0 F3600 X109.46 Y104.217
M204 S500
M205 X20 Y20
G1 F1800 X109.925 Y103.771 E9.35862
G1 X110.442 Y103.386 E9.38006
G1 X111.003 Y103.067 E9.40153
G1 X111.599 Y102.821 E9.42297
G1 X112.22 Y102.65 E9.4444
G1 X112.858 Y102.558 E9.46584
G1 X113.286 Y102.54 E9.48008
G1 X121.716 Y102.541 E9.76047
G1 X122.359 Y102.581 E9.78189
G1 X122.993 Y102.7 E9.80335
G1 X123.606 Y102.897 E9.82476
G1 X124.191 Y103.168 E9.84621
G1 X124.738 Y103.51 E9.86766
G1 X125.238 Y103.917 E9.88911
G1 X125.684 Y104.382 E9.91054
G1 X126.07 Y104.899 E9.932
G1 X126.388 Y105.46 E9.95345
G1 X126.634 Y106.055 E9.97486
G1 X126.805 Y106.677 E9.99632
G1 X126.898 Y107.315 E10.01776
G1 X126.915 Y107.741 E10.03194
G1 X126.915 Y127.26 E10.68114
G1 X126.875 Y127.903 E10.70257
G1 X126.756 Y128.537 E10.72403
G1 X126.559 Y129.151 E10.74547
G1 X126.288 Y129.736 E10.76692
G1 X125.946 Y130.283 E10.78837
G1 X125.54 Y130.783 E10.8098
G1 X125.075 Y131.229 E10.83123
G1 X124.558 Y131.614 E10.85267
G1 X123.997 Y131.933 E10.87413
G1 X123.401 Y132.179 E10.89558
G1 X122.78 Y132.35 E10.917
G1 X122.142 Y132.442 E10.93844
G1 X121.715 Y132.46 E10.95265
G1 X113.285 Y132.46 E11.23304
G1 X112.642 Y132.42 E11.25446
G1 X112.008 Y132.301 E11.27592
G1 X111.394 Y132.104 E11.29737
G1 X110.809 Y131.833 E11.31881
G1 X110.262 Y131.491 E11.34027
G1 X109.762 Y131.085 E11.36169
G1 X109.316 Y130.62 E11.38312
G1 X108.931 Y130.103 E11.40456
G1 X108.612 Y129.542 E11.42602
G1 X108.366 Y128.946 E11.44747
G1 X108.195 Y128.325 E11.46889
G1 X108.103 Y127.687 E11.49033
G1 X108.085 Y127.26 E11.50455
G1 X108.085 Y107.74 E12.15378
G1 X108.125 Y107.097 E12.17521
G1 X108.244 Y106.463 E12.19667
G1 X108.441 Y105.849 E12.21811
G1 X108.712 Y105.264 E12.23956
G1 X109.054 Y104.717 E12.26101
G1 X109.46 Y104.217 E12.28244
M204 S5000
M205 X30 Y30
G1 F2400 E7.28244
;MESH:S5-mount-test.stl
G0 F3600 X112.611 Y108.345
G0 X113.89 Y108.345
G0 X121.054 Y126.599
G0 X121.124 Y126.669
M204 S500
M205 X20 Y20
;TYPE:WALL-INNER
G1 F2400 E12.28244
G1 F1800 X113.876 Y126.669 E12.5235
G1 X113.876 Y108.331 E13.13343
G1 X121.124 Y108.331 E13.3745
G1 X121.124 Y126.669 E13.98442
M204 S5000
M205 X30 Y30
G0 F3600 X121.524 Y127.069
M204 S500
M205 X20 Y20
;TYPE:WALL-OUTER
G1 F1800 X113.476 Y127.069 E14.2521
G1 X113.476 Y107.931 E14.88863
G1 X121.524 Y107.931 E15.15631
G1 X121.524 Y127.069 E15.79284
M204 S5000
M205 X30 Y30
G0 F3600 X121.324 Y127.069
G0 X121.054 Y126.599
G0 X120.734 Y126.279
M204 S500
M205 X20 Y20
;TYPE:SKIN
G1 F1800 X114.266 Y126.279 E16.00797
G1 X114.266 Y108.721 E16.59195
G1 X120.734 Y108.721 E16.80708
G1 X120.734 Y126.279 E17.39106
M204 S5000
M205 X30 Y30
G0 F3600 X114.784 Y126.098
M204 S500
M205 X20 Y20
G1 F1800 X114.445 Y125.759 E17.407
M204 S5000
M205 X30 Y30
G0 F3600 X114.445 Y125.193
M204 S500
M205 X20 Y20
G1 F1800 X115.35 Y126.098 E17.44957
M204 S5000
M205 X30 Y30
G0 F3600 X115.916 Y126.098
M204 S500
M205 X20 Y20
G1 F1800 X114.445 Y124.628 E17.51874
M204 S5000
M205 X30 Y30
G0 F3600 X114.445 Y124.062
M204 S500
M205 X20 Y20
G1 F1800 X116.481 Y126.098 E17.61451
M204 S5000
M205 X30 Y30
G0 F3600 X117.047 Y126.098
M204 S500
M205 X20 Y20
G1 F1800 X114.445 Y123.496 E17.7369
M204 S5000
M205 X30 Y30
G0 F3600 X114.445 Y122.931
M204 S500
M205 X20 Y20
G1 F1800 X117.613 Y126.098 E17.88589
M204 S5000
M205 X30 Y30
G0 F3600 X118.178 Y126.098
M204 S500
M205 X20 Y20
G1 F1800 X114.445 Y122.365 E18.06148
M204 S5000
M205 X30 Y30
G0 F3600 X114.445 Y121.799
M204 S500
M205 X20 Y20
G1 F1800 X118.744 Y126.098 E18.26369
M204 S5000
M205 X30 Y30
G0 F3600 X119.31 Y126.098
M204 S500
M205 X20 Y20
G1 F1800 X114.445 Y121.234 E18.4925
M204 S5000
M205 X30 Y30
G0 F3600 X114.445 Y120.668
M204 S500
M205 X20 Y20
G1 F1800 X119.875 Y126.098 E18.74791
M204 S5000
M205 X30 Y30
G0 F3600 X120.441 Y126.098
M204 S500
M205 X20 Y20
G1 F1800 X114.445 Y120.102 E19.02994
M204 S5000
M205 X30 Y30
G0 F3600 X114.445 Y119.537
M204 S500
M205 X20 Y20
G1 F1800 X120.554 Y125.645 E19.31727
M204 S5000
M205 X30 Y30
G0 F3600 X120.554 Y125.08
M204 S500
M205 X20 Y20
G1 F1800 X114.445 Y118.971 E19.60462
M204 S5000
M205 X30 Y30
G0 F3600 X114.445 Y118.405
M204 S500
M205 X20 Y20
G1 F1800 X120.554 Y124.514 E19.89197
M204 S5000
M205 X30 Y30
G0 F3600 X120.554 Y123.948
M204 S500
M205 X20 Y20
G1 F1800 X114.445 Y117.84 E20.17929
M204 S5000
M205 X30 Y30
G0 F3600 X114.445 Y117.273
M204 S500
M205 X20 Y20
G1 F1800 X120.554 Y123.383 E20.46666
M204 S5000
M205 X30 Y30
G0 F3600 X120.554 Y122.817
M204 S500
M205 X20 Y20
G1 F1800 X114.445 Y116.707 E20.75404
M204 S5000
M205 X30 Y30
G0 F3600 X114.445 Y116.142
M204 S500
M205 X20 Y20
G1 F1800 X120.554 Y122.251 E21.04138
M204 S5000
M205 X30 Y30
G0 F3600 X120.554 Y121.686
M204 S500
M205 X20 Y20
G1 F1800 X114.445 Y115.576 E21.32876
M204 S5000
M205 X30 Y30
G0 F3600 X114.445 Y115.01
M204 S500
M205 X20 Y20
G1 F1800 X120.554 Y121.12 E21.61613
M204 S5000
M205 X30 Y30
G0 F3600 X120.554 Y120.554
M204 S500
M205 X20 Y20
G1 F1800 X114.445 Y114.445 E21.90348
M204 S5000
M205 X30 Y30
G0 F3600 X114.445 Y113.879
M204 S500
M205 X20 Y20
G1 F1800 X120.554 Y119.988 E22.19083
M204 S5000
M205 X30 Y30
G0 F3600 X120.554 Y119.423
M204 S500
M205 X20 Y20
G1 F1800 X114.445 Y113.313 E22.4782
M204 S5000
M205 X30 Y30
G0 F3600 X114.445 Y112.748
M204 S500
M205 X20 Y20
G1 F1800 X120.554 Y118.857 E22.76555
M204 S5000
M205 X30 Y30
G0 F3600 X120.554 Y118.291
M204 S500
M205 X20 Y20
G1 F1800 X114.445 Y112.182 E23.05289
M204 S5000
M205 X30 Y30
G0 F3600 X114.445 Y111.616
M204 S500
M205 X20 Y20
G1 F1800 X120.554 Y117.726 E23.34027
M204 S5000
M205 X30 Y30
G0 F3600 X120.553 Y117.159
M204 S500
M205 X20 Y20
G1 F1800 X114.445 Y111.051 E23.62757
M204 S5000
M205 X30 Y30
G0 F3600 X114.445 Y110.485
M204 S500
M205 X20 Y20
G1 F1800 X120.553 Y116.594 E23.91489
M204 S5000
M205 X30 Y30
G0 F3600 X120.553 Y116.028
M204 S500
M205 X20 Y20
G1 F1800 X114.445 Y109.919 E24.20222
M204 S5000
M205 X30 Y30
G0 F3600 X114.445 Y109.354
M204 S500
M205 X20 Y20
G1 F1800 X120.553 Y115.462 E24.48952
M204 S5000
M205 X30 Y30
G0 F3600 X120.553 Y114.897
M204 S500
M205 X20 Y20
G1 F1800 X114.558 Y108.901 E24.77153
M204 S5000
M205 X30 Y30
G0 F3600 X115.124 Y108.901
M204 S500
M205 X20 Y20
G1 F1800 X120.553 Y114.331 E25.02692
M204 S5000
M205 X30 Y30
G0 F3600 X120.553 Y113.765
M204 S500
M205 X20 Y20
G1 F1800 X115.689 Y108.901 E25.2557
M204 S5000
M205 X30 Y30
G0 F3600 X116.255 Y108.901
M204 S500
M205 X20 Y20
G1 F1800 X120.553 Y113.2 E25.45789
M204 S5000
M205 X30 Y30
G0 F3600 X120.553 Y112.634
M204 S500
M205 X20 Y20
G1 F1800 X116.821 Y108.901 E25.63346
M204 S5000
M205 X30 Y30
G0 F3600 X117.386 Y108.901
M204 S500
M205 X20 Y20
G1 F1800 X120.553 Y112.068 E25.78242
M204 S5000
M205 X30 Y30
G0 F3600 X120.553 Y111.502
M204 S500
M205 X20 Y20
G1 F1800 X117.952 Y108.901 E25.90477
M204 S5000
M205 X30 Y30
G0 F3600 X118.518 Y108.901
M204 S500
M205 X20 Y20
G1 F1800 X120.553 Y110.937 E26.00051
M204 S5000
M205 X30 Y30
G0 F3600 X120.553 Y110.371
M204 S500
M205 X20 Y20
G1 F1800 X119.083 Y108.901 E26.06966
M204 S5000
M205 X30 Y30
G0 F3600 X119.649 Y108.901
M204 S500
M205 X20 Y20
G1 F1800 X120.553 Y109.805 E26.11218
M204 S5000
M205 X30 Y30
G0 F3600 X120.553 Y109.24
M204 S500
M205 X20 Y20
G1 F1800 X120.215 Y108.901 E26.1281
M204 S5000
M205 X30 Y30
;MESH:NONMESH
G0 F3600 X114.035 Y109.65
;TIME_ELAPSED:37.207943
;LAYER:1
M140 S60
M106 S255
;MESH:S5-mount-test.stl
G0 F5400 X114.035 Y109.65 Z0.8
M204 S500
M205 X20 Y20
;TYPE:FILL
G1 F1006.7 X115.194 Y108.491 E26.29165
G1 X115.264 Y108.421
M204 S5000
M205 X30 Y30
G0 F5400 X115.264 Y108.431
G0 X119.805 Y108.491
M204 S500
M205 X20 Y20
G1 F1006.7 X120.964 Y109.65 E26.45519
G1 X121.034 Y109.72
M204 S5000
M205 X30 Y30
G0 F5400 X121.024 Y109.72
G0 X120.963 Y114.036
M204 S500
M205 X20 Y20
G1 F1006.7 X114.036 Y120.963 E27.43267
G1 X113.966 Y121.033
M204 S5000
M205 X30 Y30
G0 F5400 X113.976 Y121.033
G0 X114.035 Y125.349
M204 S500
M205 X20 Y20
G1 F1006.7 X115.194 Y126.507 E27.59615
G1 X115.264 Y126.577
M204 S5000
M205 X30 Y30
G0 F5400 X115.264 Y126.569
G0 X119.805 Y126.508
M204 S500
M205 X20 Y20
G1 F1006.7 X120.963 Y125.35 E27.75955
G1 X121.033 Y125.28
M204 S5000
M205 X30 Y30
G0 F5400 X121.024 Y125.28
G0 X120.964 Y120.964
M204 S500
M205 X20 Y20
G1 F1006.7 X114.035 Y114.035 E28.73731
G1 X113.965 Y113.965
M204 S5000
M205 X30 Y30
G0 F5400 X113.976 Y113.965
G0 X121.054 Y126.599
G0 X121.124 Y126.669
M204 S500
M205 X20 Y20
;TYPE:WALL-INNER
G1 F1006.7 X113.876 Y126.669 E29.46052
G1 X113.876 Y108.331 E31.29029
G1 X121.124 Y108.331 E32.0135
G1 X121.124 Y126.669 E33.84327
M204 S5000
M205 X30 Y30
G0 F5400 X121.524 Y127.069
M204 S500
M205 X20 Y20
;TYPE:WALL-OUTER
G1 F671.1 X113.476 Y127.069 E34.6463
G1 X113.476 Y107.931 E36.5559
G1 X121.524 Y107.931 E37.35893
G1 X121.524 Y127.069 E39.26853
M204 S5000
M205 X30 Y30
G0 F5400 X121.324 Y127.069
G0 X120.724 Y126.387
;MESH:NONMESH
G0 X114.035 Y109.65
;TIME_ELAPSED:47.690560
;LAYER:2
;MESH:S5-mount-test.stl
G0 F7200 X114.035 Y109.65 Z1.4
M204 S500
M205 X20 Y20
;TYPE:FILL
G1 F1200 X115.194 Y108.491 E39.43208
G1 X115.264 Y108.421
M204 S5000
M205 X30 Y30
G0 F7200 X115.264 Y108.431
G0 X119.805 Y108.491
M204 S500
M205 X20 Y20
G1 F1200 X120.964 Y109.65 E39.59563
G1 X121.034 Y109.72
M204 S5000
M205 X30 Y30
G0 F7200 X121.024 Y109.72
G0 X120.963 Y114.036
M204 S500
M205 X20 Y20
G1 F1200 X114.036 Y120.963 E40.5731
G1 X113.966 Y121.033
M204 S5000
M205 X30 Y30
G0 F7200 X113.976 Y121.033
G0 X114.035 Y125.349
M204 S500
M205 X20 Y20
G1 F1200 X115.194 Y126.507 E40.73658
G1 X115.264 Y126.577
M204 S5000
M205 X30 Y30
G0 F7200 X115.264 Y126.569
G0 X119.805 Y126.508
M204 S500
M205 X20 Y20
G1 F1200 X120.963 Y125.35 E40.89998
G1 X121.033 Y125.28
M204 S5000
M205 X30 Y30
G0 F7200 X121.024 Y125.28
G0 X120.964 Y120.964
M204 S500
M205 X20 Y20
G1 F1200 X114.035 Y114.035 E41.87774
G1 X113.965 Y113.965
M204 S5000
M205 X30 Y30
G0 F7200 X113.976 Y113.965
G0 X121.054 Y126.599
G0 X121.124 Y126.669
M204 S500
