;FLAVOR:Marlin
;TIME:1018
;Filament used: 2.39583m
;Layer height: 0.6
;Generated with Cura_SteamEngine 3.6.0
M140 S60
M105
M190 S60
M104 S200
M105
M109 S200
M82 ;absolute extrusion mode
; Ender 3 Custom Start G-code
G28 ; Home all axes
G92 E0 ; Reset Extruder
G1 Z2.0 F3000 ; Move Z Axis up little to prevent scratching of Heat Bed
G1 X0.1 Y20 Z0.3 F5000.0 ; Move to start position
G1 X0.1 Y200.0 Z0.3 F1500.0 E15 ; Draw the first line
G1 X0.4 Y200.0 Z0.3 F5000.0 ; Move to side a little
G1 X0.4 Y20 Z0.3 F1500.0 E30 ; Draw the second line
G92 E0 ; Reset Extruder
G1 Z2.0 F3000 ; Move Z Axis up little to prevent scratching of Heat Bed
; End of custom start GCode
G92 E0
G1 F2400 E-5
;LAYER_COUNT:55
;LAYER:0
M107
M204 S5000
M205 X30 Y30
G0 F3600 X101.218 Y102.216 Z0.2
M204 S500
M205 X20 Y20
;TYPE:SKIRT
G1 F2400 E0
G1 F1800 X101.804 Y101.686 E0.02628
G1 X102.44 Y101.219 E0.05252
G1 X103.12 Y100.818 E0.07878
G1 X103.838 Y100.488 E0.10506
G1 X104.585 Y100.233 E0.13132
G1 X105.354 Y100.054 E0.15758
G1 X106.138 Y99.954 E0.18386
G1 X106.733 Y99.931 E0.20367
G1 X128.267 Y99.931 E0.91989
G1 X129.056 Y99.971 E0.94617
G1 X129.836 Y100.09 E0.97241
G1 X130.601 Y100.288 E0.99869
G1 X131.341 Y100.562 E1.02494
G1 X132.05 Y100.91 E1.05121
G1 X132.721 Y101.328 E1.0775
G1 X133.345 Y101.811 E1.10375
G1 X133.782 Y102.216 E1.12356
G1 X133.899 Y102.333 E1.12907
G1 X134.429 Y102.919 E1.15535
G1 X134.896 Y103.555 E1.18159
G1 X135.297 Y104.235 E1.20785
G1 X135.627 Y104.953 E1.23413
G1 X135.882 Y105.7 E1.26038
G1 X136.061 Y106.469 E1.28664
G1 X136.161 Y107.253 E1.31293
G1 X136.184 Y107.848 E1.33273
G1 X136.184 Y127.152 E1.97479
G1 X136.144 Y127.941 E2.00106
G1 X136.025 Y128.721 E2.02731
G1 X135.827 Y129.486 E2.05359
G1 X135.553 Y130.226 E2.07983
G1 X135.205 Y130.935 E2.1061
G1 X134.787 Y131.606 E2.1324
G1 X134.304 Y132.23 E2.15864
G1 X133.899 Y132.667 E2.17846
G1 X133.782 Y132.784 E2.18396
G1 X133.223 Y133.29 E2.20904
G1 X133.223 Y146.376 E2.64428
G1 X133.183 Y147.165 E2.67056
G1 X133.064 Y147.945 E2.6968
G1 X132.866 Y148.71 E2.72308
G1 X132.592 Y149.45 E2.74933
G1 X132.244 Y150.159 E2.7756
G1 X131.826 Y150.83 E2.80189
G1 X131.343 Y151.454 E2.82814
G1 X130.938 Y151.891 E2.84795
G1 X130.821 Y152.008 E2.85346
G1 X130.235 Y152.538 E2.87974
G1 X129.599 Y153.005 E2.90598
G1 X128.919 Y153.406 E2.93224
G1 X128.201 Y153.736 E2.95852
G1 X127.454 Y153.991 E2.98477
G1 X126.685 Y154.17 E3.01103
G1 X125.901 Y154.27 E3.03732
G1 X125.306 Y154.293 E3.05713
G1 X120.541 Y154.293 E3.21561
G1 X119.752 Y154.253 E3.24189
G1 X118.972 Y154.134 E3.26813
G1 X118.207 Y153.936 E3.29441
G1 X117.467 Y153.662 E3.32066
G1 X116.758 Y153.314 E3.34693
G1 X116.087 Y152.896 E3.37322
G1 X115.579 Y152.503 E3.39458
G1 X115.108 Y152.521 E3.41026
G1 X110.399 Y152.521 E3.56688
G1 X109.61 Y152.481 E3.59316
G1 X108.83 Y152.362 E3.6194
G1 X108.065 Y152.164 E3.64568
G1 X107.325 Y151.89 E3.67193
G1 X106.616 Y151.542 E3.6982
G1 X105.945 Y151.124 E3.72449
G1 X105.321 Y150.641 E3.75074
G1 X104.884 Y150.236 E3.77055
G1 X104.767 Y150.119 E3.77606
G1 X104.237 Y149.533 E3.80234
G1 X103.77 Y148.897 E3.82858
G1 X103.369 Y148.217 E3.85484
G1 X103.039 Y147.499 E3.88112
G1 X102.784 Y146.752 E3.90737
G1 X102.605 Y145.983 E3.93363
G1 X102.505 Y145.199 E3.95992
G1 X102.482 Y144.604 E3.97972
G1 X102.482 Y133.798 E4.33913
G1 X102.279 Y133.672 E4.34708
G1 X101.655 Y133.189 E4.37332
G1 X101.218 Y132.784 E4.39314
G1 X101.101 Y132.667 E4.39865
G1 X100.571 Y132.081 E4.42492
G1 X100.104 Y131.445 E4.45117
G1 X99.703 Y130.765 E4.47742
G1 X99.373 Y130.047 E4.50371
G1 X99.118 Y129.3 E4.52996
G1 X98.939 Y128.531 E4.55622
G1 X98.839 Y127.747 E4.58251
G1 X98.816 Y127.152 E4.60231
G1 X98.816 Y120.116 E4.83633
G1 X98.856 Y119.327 E4.86261
G1 X98.975 Y118.547 E4.88885
G1 X99.173 Y117.782 E4.91513
G1 X99.277 Y117.501 E4.9251
G1 X99.118 Y117.035 E4.94147
G1 X98.939 Y116.266 E4.96774
G1 X98.839 Y115.482 E4.99402
G1 X98.816 Y114.887 E5.01383
G1 X98.816 Y107.848 E5.24795
G1 X98.856 Y107.059 E5.27422
G1 X98.975 Y106.279 E5.30046
G1 X99.173 Y105.514 E5.32675
G1 X99.447 Y104.774 E5.35299
G1 X99.795 Y104.065 E5.37926
G1 X100.213 Y103.394 E5.40556
G1 X100.696 Y102.77 E5.4318
G1 X101.101 Y102.333 E5.45162
G1 X101.218 Y102.216 E5.45712
M204 S5000
M205 X30 Y30
G0 F3600 X101.5 Y102.498
M204 S500
M205 X20 Y20
G1 F1800 X102.072 Y101.984 E5.4827
G1 X102.694 Y101.531 E5.50829
G1 X103.359 Y101.145 E5.53386
G1 X104.061 Y100.83 E5.55946
G1 X104.792 Y100.59 E5.58505
G1 X105.543 Y100.427 E5.61061
G1 X106.308 Y100.343 E5.6362
G1 X106.733 Y100.331 E5.65034
G1 X128.267 Y100.331 E6.36657
G1 X129.035 Y100.371 E6.39215
G1 X129.795 Y100.49 E6.41773
G1 X130.538 Y100.688 E6.44331
G1 X131.257 Y100.962 E6.4689
G1 X131.943 Y101.309 E6.49447
G1 X132.59 Y101.725 E6.52005
G1 X133.19 Y102.206 E6.54563
G1 X133.5 Y102.498 E6.55979
G1 X133.617 Y102.615 E6.5653
G1 X134.131 Y103.187 E6.59087
G1 X134.584 Y103.809 E6.61647
G1 X134.97 Y104.474 E6.64204
G1 X135.285 Y105.176 E6.66763
G1 X135.525 Y105.907 E6.69322
G1 X135.688 Y106.658 E6.71878
G1 X135.772 Y107.423 E6.74438
G1 X135.784 Y107.848 E6.75852
G1 X135.784 Y127.152 E7.40057
G1 X135.744 Y127.92 E7.42615
G1 X135.625 Y128.68 E7.45174
G1 X135.427 Y129.423 E7.47731
G1 X135.153 Y130.142 E7.5029
G1 X134.806 Y130.828 E7.52847
G1 X134.39 Y131.475 E7.55406
G1 X133.909 Y132.075 E7.57963
G1 X133.617 Y132.385 E7.5938
G1 X133.5 Y132.502 E7.5993
G1 X132.928 Y133.016 E7.62488
G1 X132.823 Y133.092 E7.62919
G1 X132.823 Y146.376 E8.07102
G1 X132.783 Y147.144 E8.0966
G1 X132.664 Y147.904 E8.12218
G1 X132.466 Y148.647 E8.14776
G1 X132.192 Y149.366 E8.17335
G1 X131.845 Y150.052 E8.19892
G1 X131.429 Y150.699 E8.2245
G1 X130.948 Y151.299 E8.25008
G1 X130.656 Y151.609 E8.26424
G1 X130.539 Y151.726 E8.26975
G1 X129.967 Y152.24 E8.29532
G1 X129.345 Y152.693 E8.32092
G1 X128.68 Y153.079 E8.34649
G1 X127.978 Y153.394 E8.37208
G1 X127.247 Y153.634 E8.39767
G1 X126.496 Y153.797 E8.42323
G1 X125.731 Y153.881 E8.44883
G1 X125.306 Y153.893 E8.46297
G1 X120.541 Y153.893 E8.62146
G1 X119.773 Y153.853 E8.64703
G1 X119.013 Y153.734 E8.67262
G1 X118.27 Y153.536 E8.69819
G1 X117.551 Y153.262 E8.72379
G1 X116.865 Y152.915 E8.74935
G1 X116.218 Y152.499 E8.77494
G1 X115.708 Y152.09 E8.79668
G1 X115.533 Y152.109 E8.80254
G1 X115.108 Y152.121 E8.81668
G1 X110.399 Y152.121 E8.9733
G1 X109.631 Y152.081 E8.99888
G1 X108.871 Y151.962 E9.02446
G1 X108.128 Y151.764 E9.05004
G1 X107.409 Y151.49 E9.07563
G1 X106.723 Y151.143 E9.1012
G1 X106.076 Y150.727 E9.12678
G1 X105.476 Y150.246 E9.15236
G1 X105.166 Y149.954 E9.16652
G1 X105.049 Y149.837 E9.17203
G1 X104.535 Y149.265 E9.19761
G1 X104.082 Y148.643 E9.2232
G1 X103.696 Y147.978 E9.24877
G1 X103.381 Y147.276 E9.27436
G1 X103.141 Y146.545 E9.29995
G1 X102.978 Y145.794 E9.32551
G1 X102.894 Y145.029 E9.35111
G1 X102.882 Y144.604 E9.36525
G1 X102.882 Y133.609 E9.73095
G1 X102.884 Y133.579 E9.73195
G1 X102.41 Y133.275 E9.75068
G1 X101.81 Y132.794 E9.77625
G1 X101.5 Y132.502 E9.79042
G1 X101.383 Y132.385 E9.79592
G1 X100.869 Y131.813 E9.8215
G1 X100.416 Y131.191 E9.84709
G1 X100.03 Y130.526 E9.87267
G1 X99.715 Y129.824 E9.89826
G1 X99.475 Y129.093 E9.92385
G1 X99.312 Y128.342 E9.94941
G1 X99.228 Y127.577 E9.975
G1 X99.216 Y127.152 E9.98915
G1 X99.216 Y120.116 E10.22316
G1 X99.256 Y119.348 E10.24874
G1 X99.375 Y118.588 E10.27433
G1 X99.573 Y117.845 E10.2999
G1 X99.7 Y117.512 E10.31176
G1 X99.475 Y116.828 E10.33571
G1 X99.312 Y116.077 E10.36127
G1 X99.228 Y115.312 E10.38686
G1 X99.216 Y114.887 E10.401
G1 X99.216 Y107.848 E10.63512
G1 X99.256 Y107.08 E10.6607
G1 X99.375 Y106.32 E10.68629
G1 X99.573 Y105.577 E10.71186
G1 X99.847 Y104.858 E10.73745
G1 X100.194 Y104.172 E10.76302
G1 X100.61 Y103.525 E10.7886
G1 X101.091 Y102.925 E10.81418
G1 X101.383 Y102.615 E10.82835
G1 X101.5 Y102.498 E10.83385
M204 S5000
M205 X30 Y30
G0 F3600 X101.783 Y102.781
M204 S500
M205 X20 Y20
G1 F1800 X102.34 Y102.281 E10.85874
G1 X102.946 Y101.844 E10.88359
G1 X103.596 Y101.473 E10.90849
G1 X104.282 Y101.174 E10.93338
G1 X104.996 Y100.95 E10.95827
G1 X105.729 Y100.803 E10.98313
G1 X106.733 Y100.731 E11.01661
G1 X128.267 Y100.731 E11.73283
G1 X129.014 Y100.771 E11.75771
G1 X129.752 Y100.89 E11.78258
G1 X130.474 Y101.088 E11.80748
G1 X131.17 Y101.361 E11.83234
G1 X131.833 Y101.708 E11.85723
G1 X132.456 Y102.123 E11.88213
G1 X133.217 Y102.781 E11.91559
G1 X133.334 Y102.898 E11.92109
G1 X133.834 Y103.455 E11.94599
G1 X134.271 Y104.061 E11.97084
G1 X134.642 Y104.711 E11.99573
G1 X134.941 Y105.397 E12.02062
G1 X135.165 Y106.111 E12.04551
G1 X135.312 Y106.844 E12.07038
G1 X135.384 Y107.848 E12.10385
G1 X135.384 Y127.152 E12.74591
G1 X135.344 Y127.899 E12.77079
G1 X135.225 Y128.637 E12.79565
G1 X135.027 Y129.359 E12.82055
G1 X134.754 Y130.055 E12.84542
G1 X134.407 Y130.718 E12.87031
G1 X133.992 Y131.341 E12.89521
G1 X133.334 Y132.102 E12.92867
G1 X133.217 Y132.219 E12.93417
G1 X132.66 Y132.719 E12.95906
G1 X132.423 Y132.89 E12.96878
G1 X132.423 Y146.376 E13.41733
G1 X132.383 Y147.123 E13.44221
G1 X132.264 Y147.861 E13.46707
G1 X132.066 Y148.583 E13.49198
G1 X131.793 Y149.279 E13.51684
G1 X131.446 Y149.942 E13.54173
G1 X131.031 Y150.565 E13.56663
G1 X130.373 Y151.326 E13.60009
G1 X130.256 Y151.443 E13.60559
G1 X129.699 Y151.943 E13.63049
G1 X129.093 Y152.38 E13.65534
G1 X128.443 Y152.751 E13.68023
G1 X127.757 Y153.05 E13.70512
G1 X127.043 Y153.274 E13.73001
G1 X126.31 Y153.421 E13.75487
G1 X125.306 Y153.493 E13.78835
G1 X120.541 Y153.493 E13.94684
G1 X119.794 Y153.453 E13.97172
G1 X119.056 Y153.334 E13.99658
G1 X118.334 Y153.136 E14.02148
G1 X117.638 Y152.863 E14.04635
G1 X116.975 Y152.516 E14.07124
G1 X116.352 Y152.101 E14.09613
G1 X115.851 Y151.668 E14.11816
G1 X115.108 Y151.721 E14.14293
G1 X110.399 Y151.721 E14.29955
G1 X109.652 Y151.681 E14.32444
G1 X108.914 Y151.562 E14.3493
G1 X108.192 Y151.364 E14.3742
G1 X107.496 Y151.091 E14.39907
G1 X106.833 Y150.744 E14.42395
G1 X106.21 Y150.329 E14.44885
G1 X105.449 Y149.671 E14.48231
G1 X105.332 Y149.554 E14.48782
G1 X104.832 Y148.997 E14.51271
G1 X104.395 Y148.391 E14.53756
G1 X104.024 Y147.741 E14.56245
G1 X103.725 Y147.055 E14.58734
G1 X103.501 Y146.341 E14.61223
G1 X103.354 Y145.608 E14.6371
G1 X103.282 Y144.604 E14.67058
G1 X103.282 Y133.609 E15.03627
G1 X103.295 Y133.359 E15.0446
G1 X103.167 Y133.292 E15.0494
G1 X102.544 Y132.877 E15.0743
G1 X101.783 Y132.219 E15.10776
G1 X101.666 Y132.102 E15.11326
G1 X101.166 Y131.545 E15.13816
G1 X100.729 Y130.939 E15.16301
G1 X100.358 Y130.289 E15.1879
G1 X100.059 Y129.603 E15.21279
G1 X99.835 Y128.889 E15.23768
G1 X99.688 Y128.156 E15.26255
G1 X99.616 Y127.152 E15.29602
G1 X99.616 Y120.116 E15.53004
G1 X99.656 Y119.369 E15.55492
G1 X99.775 Y118.631 E15.57979
G1 X99.973 Y117.909 E15.60469
G1 X100.132 Y117.505 E15.61913
G1 X100.059 Y117.338 E15.62519
G1 X99.835 Y116.624 E15.65008
G1 X99.688 Y115.891 E15.67494
G1 X99.616 Y114.887 E15.70842
G1 X99.616 Y107.848 E15.94254
G1 X99.656 Y107.101 E15.96742
G1 X99.775 Y106.363 E15.99228
G1 X99.973 Y105.641 E16.01718
G1 X100.246 Y104.945 E16.04205
G1 X100.593 Y104.282 E16.06694
G1 X101.008 Y103.659 E16.09184
G1 X101.666 Y102.898 E16.1253
G1 X101.783 Y102.781 E16.1308
M204 S5000
M205 X30 Y30
G0 F3600 X102.066 Y103.064
M204 S500
M205 X20 Y20
G1 F1800 X102.607 Y102.58 E16.15494
G1 X103.198 Y102.157 E16.17912
G1 X103.832 Y101.803 E16.20327
G1 X104.501 Y101.52 E16.22743
G1 X105.197 Y101.312 E16.25159
G1 X105.912 Y101.182 E16.27576
G1 X106.733 Y101.131 E16.30312
G1 X128.267 Y101.131 E17.01934
G1 X128.992 Y101.171 E17.04349
G1 X129.709 Y101.29 E17.06767
G1 X130.408 Y101.488 E17.09183
G1 X131.081 Y101.761 E17.11599
G1 X131.72 Y102.106 E17.14014
G1 X132.317 Y102.52 E17.1643
G1 X132.934 Y103.064 E17.19166
G1 X133.051 Y103.181 E17.19717
G1 X133.535 Y103.722 E17.22131
G1 X133.958 Y104.313 E17.24548
G1 X134.312 Y104.947 E17.26963
G1 X134.595 Y105.616 E17.29379
G1 X134.803 Y106.312 E17.31795
G1 X134.933 Y107.027 E17.34212
G1 X134.984 Y107.848 E17.36948
G1 X134.984 Y127.152 E18.01154
G1 X134.944 Y127.877 E18.03569
G1 X134.825 Y128.594 E18.05986
G1 X134.627 Y129.293 E18.08403
G1 X134.354 Y129.966 E18.10818
G1 X134.009 Y130.605 E18.13233
G1 X133.595 Y131.202 E18.1565
G1 X133.051 Y131.819 E18.18386
G1 X132.934 Y131.936 E18.18936
G1 X132.393 Y132.42 E18.2135
G1 X132.023 Y132.685 E18.22864
G1 X132.023 Y146.376 E18.684
G1 X131.983 Y147.101 E18.70816
G1 X131.864 Y147.818 E18.73233
G1 X131.666 Y148.517 E18.75649
G1 X131.393 Y149.19 E18.78065
G1 X131.048 Y149.829 E18.8048
G1 X130.634 Y150.426 E18.82896
G1 X130.09 Y151.043 E18.85632
G1 X129.973 Y151.16 E18.86183
G1 X129.432 Y151.644 E18.88597
G1 X128.841 Y152.067 E18.91014
G1 X128.207 Y152.421 E18.93429
G1 X127.538 Y152.704 E18.95845
G1 X126.842 Y152.912 E18.98262
G1 X126.127 Y153.042 E19.00679
G1 X125.306 Y153.093 E19.03415
G1 X120.541 Y153.093 E19.19263
G1 X119.816 Y153.053 E19.21678
G1 X119.099 Y152.934 E19.24095
G1 X118.4 Y152.736 E19.26512
G1 X117.727 Y152.463 E19.28927
G1 X117.088 Y152.118 E19.31343
G1 X116.491 Y151.704 E19.33759
G1 X115.987 Y151.259 E19.35995
G1 X115.929 Y151.27 E19.36192
G1 X115.108 Y151.321 E19.38927
G1 X110.399 Y151.321 E19.5459
G1 X109.674 Y151.281 E19.57005
G1 X108.957 Y151.162 E19.59422
G1 X108.258 Y150.964 E19.61838
G1 X107.585 Y150.691 E19.64254
G1 X106.946 Y150.346 E19.66669
G1 X106.349 Y149.932 E19.69086
G1 X105.732 Y149.388 E19.71822
G1 X105.615 Y149.271 E19.72372
G1 X105.131 Y148.73 E19.74786
G1 X104.708 Y148.139 E19.77203
G1 X104.354 Y147.505 E19.79619
G1 X104.071 Y146.836 E19.82035
G1 X103.863 Y146.14 E19.84451
G1 X103.733 Y145.425 E19.86868
G1 X103.682 Y144.604 E19.89604
G1 X103.682 Y133.609 E20.26173
G1 X103.709 Y133.125 E20.27786
G1 X103.28 Y132.894 E20.29406
G1 X102.683 Y132.48 E20.31822
G1 X102.066 Y131.936 E20.34558
G1 X101.949 Y131.819 E20.35109
G1 X101.465 Y131.278 E20.37523
G1 X101.042 Y130.687 E20.3994
G1 X100.688 Y130.053 E20.42355
G1 X100.405 Y129.384 E20.44771
G1 X100.197 Y128.688 E20.47188
G1 X100.067 Y127.973 E20.49605
G1 X100.016 Y127.152 E20.52341
G1 X100.016 Y120.116 E20.75742
G1 X100.056 Y119.391 E20.78157
G1 X100.175 Y118.674 E20.80575
G1 X100.373 Y117.975 E20.82991
G1 X100.566 Y117.499 E20.84699
G1 X100.405 Y117.119 E20.86072
G1 X100.197 Y116.423 E20.88488
G1 X100.067 Y115.708 E20.90905
G1 X100.016 Y114.887 E20.93641
G1 X100.016 Y107.848 E21.17053
G1 X100.056 Y107.123 E21.19468
G1 X100.175 Y106.406 E21.21885
G1 X100.373 Y105.707 E21.24302
G1 X100.646 Y105.034 E21.26717
G1 X100.991 Y104.395 E21.29133
G1 X101.405 Y103.798 E21.31549
G1 X101.949 Y103.181 E21.34285
G1 X102.066 Y103.064 E21.34835
M204 S5000
M205 X30 Y30
G0 F3600 X102.349 Y103.347
M204 S500
M205 X20 Y20
G1 F1800 X102.874 Y102.878 E21.37177
G1 X103.449 Y102.472 E21.39518
G1 X104.067 Y102.134 E21.41861
G1 X104.718 Y101.867 E21.44201
G1 X105.396 Y101.677 E21.46543
G1 X106.091 Y101.564 E21.48885
G1 X106.733 Y101.531 E21.51023
G1 X128.267 Y101.531 E22.22645
G1 X128.97 Y101.571 E22.24987
G1 X129.664 Y101.69 E22.27329
G1 X130.339 Y101.888 E22.29669
G1 X130.988 Y102.16 E22.32009
G1 X131.602 Y102.505 E22.34352
G1 X132.173 Y102.916 E22.36692
G1 X132.651 Y103.347 E22.38832
G1 X132.768 Y103.464 E22.39383
G1 X133.237 Y103.989 E22.41724
G1 X133.643 Y104.564 E22.44065
G1 X133.981 Y105.182 E22.46408
G1 X134.248 Y105.833 E22.48748
G1 X134.438 Y106.511 E22.5109
G1 X134.551 Y107.206 E22.53432
G1 X134.584 Y107.848 E22.5557
G1 X134.584 Y127.152 E23.19776
G1 X134.544 Y127.855 E23.22118
G1 X134.425 Y128.549 E23.2446
G1 X134.227 Y129.224 E23.26799
G1 X133.955 Y129.873 E23.2914
G1 X133.61 Y130.487 E23.31482
G1 X133.199 Y131.058 E23.33822
G1 X132.768 Y131.536 E23.35963
G1 X132.651 Y131.653 E23.36513
G1 X132.126 Y132.122 E23.38855
G1 X131.616 Y132.482 E23.40931
G1 X131.623 Y132.624 E23.41404
G1 X131.623 Y146.376 E23.87143
G1 X131.583 Y147.079 E23.89485
G1 X131.464 Y147.773 E23.91827
G1 X131.266 Y148.448 E23.94167
G1 X130.994 Y149.097 E23.96507
G1 X130.649 Y149.711 E23.9885
G1 X130.238 Y150.282 E24.0119
G1 X129.807 Y150.76 E24.0333
G1 X129.69 Y150.877 E24.03881
G1 X129.165 Y151.346 E24.06222
G1 X128.59 Y151.752 E24.08563
G1 X127.972 Y152.09 E24.10906
G1 X127.321 Y152.357 E24.13246
