;FLAVOR:Marlin
;TIME:2056
;Filament used: 0.462199m
;Layer height: 0.1
;Generated with Cura_SteamEngine 3.1.0
M190 S60
M104 S200
M109 S200
M82 ; absolute extrusion mode
G28 ;Home
G1 Z15.0 F6000 ;Move the platform down 15mm
;Prime the extruder
G92 E0
G1 F200 E3
G92 E0
;LAYER_COUNT:250
;LAYER:0
M107
M204 S5000
M205 X30 Y30
G0 F3600 X100.585 Y96.102 Z0.2
M204 S500
M205 X20 Y20
;TYPE:SKIRT
G1 F1800 X100.702 Y95.985 E0.0055
G1 X101.288 Y95.455 E0.03178
G1 X101.924 Y94.988 E0.05803
G1 X102.604 Y94.587 E0.08428
G1 X103.322 Y94.257 E0.11057
G1 X104.069 Y94.002 E0.13682
G1 X104.838 Y93.823 E0.16308
G1 X105.622 Y93.723 E0.18937
G1 X106.217 Y93.7 E0.20917
G1 X106.712 Y93.7 E0.22563
G1 X106.904 Y93.587 E0.23304
G1 X107.622 Y93.257 E0.25933
G1 X108.369 Y93.002 E0.28558
G1 X109.138 Y92.823 E0.31184
G1 X109.922 Y92.723 E0.33813
G1 X111.081 Y92.72 E0.37668
G1 X111.495 Y92.75 E0.39048
G1 X112.278 Y92.847 E0.41672
G1 X113.048 Y93.023 E0.443
G1 X113.797 Y93.275 E0.46928
G1 X114.515 Y93.602 E0.49552
G1 X115.198 Y94 E0.52181
G1 X115.836 Y94.465 E0.54807
G1 X116.485 Y95.053 E0.5772
G1 X119.454 Y98.064 E0.71784
G1 X119.979 Y98.654 E0.74411
G1 X120.442 Y99.294 E0.77038
G1 X120.838 Y99.977 E0.79664
G1 X121.163 Y100.697 E0.82291
G1 X121.413 Y101.446 E0.84918
G1 X121.587 Y102.216 E0.87543
G1 X121.681 Y103 E0.9017
G1 X121.7 Y103.559 E0.9203
G1 X121.67 Y116.549 E1.35235
G1 X121.628 Y117.338 E1.37863
G1 X121.507 Y118.118 E1.40488
G1 X121.307 Y118.882 E1.43115
G1 X121.031 Y119.622 E1.45742
G1 X120.682 Y120.33 E1.48367
G1 X120.263 Y120.999 E1.50993
G1 X119.779 Y121.623 E1.53619
G1 X119.347 Y122.085 E1.55723
G1 X116.336 Y125.054 E1.69787
G1 X115.746 Y125.579 E1.72414
G1 X115.106 Y126.042 E1.75041
G1 X114.423 Y126.438 E1.77667
G1 X113.703 Y126.763 E1.80295
G1 X112.954 Y127.013 E1.82921
G1 X112.184 Y127.187 E1.85547
G1 X111.4 Y127.281 E1.88173
G1 X110.859 Y127.3 E1.89973
G1 X110.517 Y127.3 E1.91111
G1 X109.728 Y127.26 E1.93738
G1 X108.948 Y127.141 E1.96363
G1 X108.183 Y126.943 E1.98991
G1 X107.443 Y126.669 E2.01616
G1 X106.734 Y126.321 E2.04242
G1 X106.7 Y126.3 E2.04375
G1 X106.217 Y126.3 E2.05982
G1 X105.428 Y126.26 E2.08609
G1 X104.648 Y126.141 E2.11234
G1 X103.883 Y125.943 E2.13862
G1 X103.143 Y125.669 E2.16486
G1 X102.434 Y125.321 E2.19113
G1 X101.763 Y124.903 E2.21743
G1 X101.139 Y124.42 E2.24367
G1 X100.702 Y124.015 E2.26349
G1 X100.585 Y123.898 E2.26899
G1 X100.055 Y123.312 E2.29527
G1 X99.588 Y122.676 E2.32152
G1 X99.187 Y121.996 E2.34777
G1 X98.857 Y121.278 E2.37405
G1 X98.602 Y120.531 E2.40031
G1 X98.423 Y119.762 E2.42657
G1 X98.323 Y118.978 E2.45286
G1 X98.302 Y118.218 E2.47814
G1 X98.332 Y116.804 E2.52518
G1 X98.388 Y116.016 E2.55146
G1 X98.524 Y115.238 E2.57773
G1 X98.738 Y114.478 E2.60399
G1 X99.028 Y113.743 E2.63027
G1 X99.391 Y113.042 E2.65652
G1 X99.822 Y112.38 E2.6828
G1 X100.319 Y111.766 E2.70907
G1 X100.733 Y111.338 E2.72888
G1 X101.744 Y110.369 E2.77545
G1 X102.152 Y110.016 E2.7934
G1 X101.438 Y109.367 E2.82549
G1 X100.469 Y108.356 E2.87207
G1 X99.952 Y107.759 E2.89833
G1 X99.498 Y107.113 E2.9246
G1 X99.112 Y106.424 E2.95086
G1 X98.797 Y105.7 E2.97712
G1 X98.558 Y104.947 E3.0034
G1 X98.395 Y104.175 E3.02964
G1 X98.312 Y103.389 E3.05593
G1 X98.3 Y102.959 E3.07024
G1 X98.3 Y101.617 E3.11487
G1 X98.34 Y100.828 E3.14115
G1 X98.459 Y100.048 E3.16739
G1 X98.657 Y99.283 E3.19367
G1 X98.931 Y98.543 E3.21992
G1 X99.279 Y97.834 E3.24619
G1 X99.697 Y97.163 E3.27248
G1 X100.18 Y96.539 E3.29873
G1 X100.585 Y96.102 E3.31855
M204 S5000
M205 X30 Y30
G0 F3600 X100.867 Y96.384
M204 S500
M205 X20 Y20
G1 F1800 X100.984 Y96.267 E3.32405
G1 X101.556 Y95.753 E3.34963
G1 X102.178 Y95.3 E3.37522
G1 X102.843 Y94.914 E3.40079
G1 X103.545 Y94.599 E3.42638
G1 X104.276 Y94.359 E3.45197
G1 X105.027 Y94.196 E3.47753
G1 X105.792 Y94.112 E3.50313
G1 X106.217 Y94.1 E3.51727
G1 X106.823 Y94.1 E3.53743
G1 X107.143 Y93.914 E3.54974
G1 X107.845 Y93.599 E3.57533
G1 X108.576 Y93.359 E3.60092
G1 X109.327 Y93.196 E3.62648
G1 X110.092 Y93.112 E3.65208
G1 X111.052 Y93.119 E3.68401
G1 X111.466 Y93.149 E3.69781
G1 X112.229 Y93.245 E3.72339
G1 X112.978 Y93.419 E3.74897
G1 X113.705 Y93.67 E3.77455
G1 X114.402 Y93.995 E3.80013
G1 X115.062 Y94.39 E3.82571
G1 X115.677 Y94.852 E3.85129
G1 X116.2 Y95.334 E3.87495
G1 X119.169 Y98.345 E4.01559
G1 X119.68 Y98.92 E4.04118
G1 X120.128 Y99.545 E4.06675
G1 X120.51 Y100.213 E4.09235
G1 X120.819 Y100.917 E4.11792
G1 X121.054 Y101.65 E4.14352
G1 X121.212 Y102.403 E4.16911
G1 X121.291 Y103.168 E4.19469
G1 X121.3 Y103.558 E4.20766
G1 X121.27 Y116.548 E4.63972
G1 X121.228 Y117.316 E4.6653
G1 X121.107 Y118.076 E4.69089
G1 X120.908 Y118.819 E4.71648
G1 X120.632 Y119.537 E4.74206
G1 X120.284 Y120.222 E4.76762
G1 X119.866 Y120.868 E4.79321
G1 X119.383 Y121.467 E4.8188
G1 X119.066 Y121.8 E4.83409
G1 X116.055 Y124.769 E4.97474
G1 X115.48 Y125.28 E5.00032
G1 X114.855 Y125.728 E5.0259
G1 X114.187 Y126.11 E5.05149
G1 X113.483 Y126.419 E5.07706
G1 X112.75 Y126.654 E5.10266
G1 X111.997 Y126.812 E5.12826
G1 X110.859 Y126.9 E5.16622
G1 X110.517 Y126.9 E5.17759
G1 X109.749 Y126.86 E5.20317
G1 X108.989 Y126.741 E5.22876
G1 X108.246 Y126.543 E5.25433
G1 X107.527 Y126.269 E5.27992
G1 X106.841 Y125.922 E5.30549
G1 X106.807 Y125.9 E5.30684
G1 X106.217 Y125.9 E5.32646
G1 X105.449 Y125.86 E5.35204
G1 X104.689 Y125.741 E5.37763
G1 X103.946 Y125.543 E5.4032
G1 X103.227 Y125.269 E5.42879
G1 X102.541 Y124.922 E5.45436
G1 X101.894 Y124.506 E5.47995
G1 X101.294 Y124.025 E5.50552
G1 X100.984 Y123.733 E5.51969
G1 X100.867 Y123.616 E5.52519
G1 X100.353 Y123.044 E5.55077
G1 X99.9 Y122.422 E5.57636
G1 X99.514 Y121.757 E5.60194
G1 X99.199 Y121.055 E5.62753
G1 X98.959 Y120.324 E5.65312
G1 X98.796 Y119.573 E5.67868
G1 X98.712 Y118.808 E5.70427
G1 X98.702 Y118.226 E5.72363
G1 X98.732 Y116.812 E5.77067
G1 X98.788 Y116.045 E5.79625
G1 X98.923 Y115.288 E5.82183
G1 X99.137 Y114.549 E5.84742
G1 X99.426 Y113.836 E5.87301
G1 X99.787 Y113.157 E5.89858
G1 X100.217 Y112.519 E5.92417
G1 X100.711 Y111.93 E5.94974
G1 X101.01 Y111.627 E5.9639
G1 X102.021 Y110.658 E6.01048
G1 X102.603 Y110.155 E6.03606
G1 X102.81 Y110.011 E6.04445
G1 X102.387 Y109.7 E6.06191
G1 X101.727 Y109.09 E6.0918
G1 X100.758 Y108.079 E6.13838
G1 X100.255 Y107.497 E6.16396
G1 X99.815 Y106.866 E6.18955
G1 X99.444 Y106.193 E6.21511
G1 X99.144 Y105.484 E6.24072
G1 X98.92 Y104.749 E6.26627
G1 X98.773 Y103.994 E6.29186
G1 X98.7 Y102.959 E6.32636
G1 X98.7 Y101.617 E6.371
G1 X98.74 Y100.849 E6.39658
G1 X98.859 Y100.089 E6.42216
G1 X99.057 Y99.346 E6.44774
G1 X99.331 Y98.627 E6.47333
G1 X99.678 Y97.941 E6.4989
G1 X100.094 Y97.294 E6.52448
G1 X100.575 Y96.694 E6.55006
G1 X100.867 Y96.384 E6.56422
M204 S5000
M205 X30 Y30
G0 F3600 X101.15 Y96.667
M204 S500
M205 X20 Y20
G1 F1800 X101.267 Y96.55 E6.56973
G1 X101.824 Y96.05 E6.59462
G1 X102.43 Y95.613 E6.61947
G1 X103.08 Y95.242 E6.64437
G1 X103.766 Y94.943 E6.66926
G1 X104.48 Y94.719 E6.69414
G1 X105.213 Y94.572 E6.71901
G1 X106.217 Y94.5 E6.75249
G1 X106.928 Y94.5 E6.77614
G1 X107.38 Y94.242 E6.79345
G1 X108.066 Y93.943 E6.81834
G1 X108.78 Y93.719 E6.84322
G1 X109.513 Y93.572 E6.86809
G1 X110.258 Y93.505 E6.89297
G1 X111.023 Y93.518 E6.91842
G1 X111.437 Y93.548 E6.93222
G1 X112.179 Y93.642 E6.9571
G1 X112.907 Y93.815 E6.98199
G1 X113.612 Y94.064 E7.00685
G1 X114.287 Y94.387 E7.03174
G1 X114.923 Y94.78 E7.05661
G1 X115.514 Y95.239 E7.0815
G1 X115.915 Y95.615 E7.09978
G1 X118.884 Y98.626 E7.24042
G1 X119.38 Y99.186 E7.26531
G1 X119.814 Y99.796 E7.29021
G1 X120.18 Y100.448 E7.31507
G1 X120.474 Y101.136 E7.33996
G1 X120.693 Y101.851 E7.36483
G1 X120.835 Y102.586 E7.38973
G1 X120.9 Y103.557 E7.4221
G1 X120.87 Y116.547 E7.85415
G1 X120.828 Y117.294 E7.87903
G1 X120.707 Y118.032 E7.90391
G1 X120.508 Y118.753 E7.92878
G1 X120.233 Y119.449 E7.95367
G1 X119.885 Y120.111 E7.97855
G1 X119.469 Y120.733 E8.00344
G1 X118.785 Y121.515 E8.03799
G1 X115.774 Y124.484 E8.17864
G1 X115.214 Y124.98 E8.20352
G1 X114.604 Y125.414 E8.22842
G1 X113.952 Y125.78 E8.25328
G1 X113.264 Y126.074 E8.27817
G1 X112.549 Y126.293 E8.30304
G1 X111.814 Y126.435 E8.32794
G1 X110.859 Y126.5 E8.35978
G1 X110.517 Y126.5 E8.37115
G1 X109.77 Y126.46 E8.39603
G1 X109.032 Y126.341 E8.4209
G1 X108.31 Y126.143 E8.4458
G1 X107.614 Y125.87 E8.47066
G1 X106.951 Y125.523 E8.49555
G1 X106.916 Y125.5 E8.49694
G1 X106.217 Y125.5 E8.52019
G1 X105.47 Y125.46 E8.54507
G1 X104.732 Y125.341 E8.56994
G1 X104.01 Y125.143 E8.59484
G1 X103.314 Y124.87 E8.6197
G1 X102.651 Y124.523 E8.64459
G1 X102.028 Y124.108 E8.66949
G1 X101.267 Y123.45 E8.70295
G1 X101.15 Y123.333 E8.70845
G1 X100.65 Y122.776 E8.73335
G1 X100.213 Y122.17 E8.7582
G1 X99.842 Y121.52 E8.78309
G1 X99.543 Y120.834 E8.80798
G1 X99.319 Y120.12 E8.83287
G1 X99.172 Y119.387 E8.85773
G1 X99.105 Y118.642 E8.88261
G1 X99.102 Y118.235 E8.89615
G1 X99.132 Y116.821 E8.94319
G1 X99.187 Y116.075 E8.96807
G1 X99.322 Y115.339 E8.99296
G1 X99.535 Y114.622 E9.01784
G1 X99.823 Y113.931 E9.04274
G1 X100.184 Y113.276 E9.06761
G1 X100.612 Y112.662 E9.0925
G1 X101.286 Y111.915 E9.12597
G1 X102.297 Y110.946 E9.17254
G1 X102.864 Y110.458 E9.19743
G1 X103.48 Y110.034 E9.2223
G1 X103.538 Y110.003 E9.22449
G1 X103.141 Y109.764 E9.2399
G1 X102.545 Y109.312 E9.26478
G1 X102.015 Y108.814 E9.28897
G1 X101.046 Y107.803 E9.33554
G1 X100.558 Y107.236 E9.36042
G1 X100.134 Y106.62 E9.3853
G1 X99.777 Y105.962 E9.4102
G1 X99.493 Y105.27 E9.43507
G1 X99.284 Y104.552 E9.45995
G1 X99.153 Y103.816 E9.48481
G1 X99.1 Y102.959 E9.51337
G1 X99.1 Y101.617 E9.558
G1 X99.14 Y100.87 E9.58289
G1 X99.259 Y100.132 E9.60775
G1 X99.457 Y99.41 E9.63265
G1 X99.73 Y98.714 E9.65752
G1 X100.077 Y98.051 E9.6824
G1 X100.492 Y97.428 E9.7073
G1 X101.15 Y96.667 E9.74076
M204 S5000
M205 X30 Y30
G0 F3600 X101.433 Y96.95
M204 S500
M205 X20 Y20
G1 F1800 X101.55 Y96.833 E9.74627
G1 X102.091 Y96.349 E9.77041
G1 X102.682 Y95.926 E9.79458
G1 X103.316 Y95.572 E9.81873
G1 X103.985 Y95.289 E9.84289
G1 X104.681 Y95.081 E9.86705
G1 X105.396 Y94.951 E9.89122
G1 X106.217 Y94.9 E9.91858
G1 X107.029 Y94.9 E9.94559
G1 X107.616 Y94.572 E9.96796
G1 X108.285 Y94.289 E9.99212
G1 X108.981 Y94.081 E10.01628
G1 X109.696 Y93.951 E10.04045
G1 X110.42 Y93.901 E10.06459
G1 X110.994 Y93.917 E10.08368
G1 X111.408 Y93.947 E10.09749
G1 X112.128 Y94.04 E10.12164
G1 X112.834 Y94.21 E10.14579
G1 X113.517 Y94.458 E10.16996
G1 X114.169 Y94.779 E10.19413
G1 X114.781 Y95.17 E10.21828
G1 X115.347 Y95.625 E10.24244
G1 X115.631 Y95.896 E10.25549
G1 X118.6 Y98.907 E10.39614
G1 X119.08 Y99.451 E10.42027
G1 X119.498 Y100.045 E10.44443
G1 X119.849 Y100.682 E10.46862
G1 X120.127 Y101.353 E10.49277
G1 X120.329 Y102.05 E10.51691
G1 X120.454 Y102.766 E10.54108
G1 X120.5 Y103.556 E10.5674
G1 X120.47 Y116.546 E10.99945
G1 X120.428 Y117.271 E11.02361
G1 X120.307 Y117.988 E11.04779
G1 X120.108 Y118.686 E11.07193
G1 X119.834 Y119.359 E11.0961
G1 X119.487 Y119.997 E11.12026
G1 X119.072 Y120.593 E11.14441
G1 X118.504 Y121.231 E11.17282
G1 X115.493 Y124.2 E11.31347
G1 X114.949 Y124.68 E11.3376
G1 X114.355 Y125.098 E11.36175
G1 X113.718 Y125.449 E11.38594
G1 X113.047 Y125.727 E11.4101
G1 X112.35 Y125.929 E11.43424
G1 X111.634 Y126.054 E11.45841
G1 X110.859 Y126.1 E11.48423
G1 X110.517 Y126.1 E11.49561
G1 X109.792 Y126.06 E11.51976
G1 X109.075 Y125.941 E11.54393
G1 X108.376 Y125.743 E11.5681
G1 X107.703 Y125.47 E11.59225
G1 X107.064 Y125.125 E11.61641
G1 X107.028 Y125.1 E11.61786
G1 X106.217 Y125.1 E11.64484
G1 X105.492 Y125.06 E11.66899
G1 X104.775 Y124.941 E11.69316
G1 X104.076 Y124.743 E11.71732
G1 X103.403 Y124.47 E11.74148
G1 X102.764 Y124.125 E11.76563
G1 X102.167 Y123.711 E11.7898
G1 X101.55 Y123.167 E11.81716
G1 X101.433 Y123.05 E11.82266
G1 X100.949 Y122.509 E11.8468
G1 X100.526 Y121.918 E11.87098
G1 X100.172 Y121.284 E11.89513
G1 X99.889 Y120.615 E11.91929
G1 X99.681 Y119.919 E11.94345
G1 X99.551 Y119.204 E11.96762
G1 X99.501 Y118.243 E11.99962
G1 X99.531 Y116.829 E12.04667
G1 X99.587 Y116.105 E12.07082
G1 X99.721 Y115.391 E12.09498
G1 X99.934 Y114.696 E12.11916
G1 X100.221 Y114.029 E12.14331
G1 X100.58 Y113.398 E12.16745
G1 X101.006 Y112.809 E12.19163
G1 X101.563 Y112.204 E12.21898
G1 X102.574 Y111.235 E12.26556
G1 X103.125 Y110.762 E12.28971
G1 X103.725 Y110.353 E12.31386
G1 X104.2 Y110.1 E12.33176
G1 X104.2 Y109.903 E12.33832
G1 X103.896 Y109.757 E12.34953
G1 X103.279 Y109.373 E12.3737
G1 X102.708 Y108.924 E12.39786
G1 X102.304 Y108.537 E12.41647
G1 X101.335 Y107.526 E12.46305
G1 X100.862 Y106.975 E12.4872
G1 X100.453 Y106.375 E12.51135
G1 X100.111 Y105.733 E12.53555
G1 X99.843 Y105.059 E12.55967
G1 X99.65 Y104.358 E12.58385
G1 X99.535 Y103.641 E12.60801
G1 X99.5 Y102.959 E12.63072
G1 X99.5 Y101.617 E12.67535
G1 X99.54 Y100.892 E12.6995
G1 X99.659 Y100.175 E12.72368
G1 X99.857 Y99.476 E12.74784
G1 X100.13 Y98.803 E12.772
G1 X100.475 Y98.164 E12.79615
G1 X100.889 Y97.567 E12.82031
G1 X101.433 Y96.95 E12.84767
M204 S5000
M205 X30 Y30
G0 F3600 X101.716 Y97.233
M204 S500
M205 X20 Y20
G1 F1800 X101.833 Y97.116 E12.85318
G1 X102.358 Y96.647 E12.87659
G1 X102.933 Y96.241 E12.9
G1 X103.551 Y95.903 E12.92343
G1 X104.202 Y95.636 E12.94683
G1 X104.88 Y95.446 E12.97025
G1 X105.575 Y95.333 E12.99367
G1 X106.217 Y95.3 E13.01505
G1 X107.149 Y95.3 E13.04605
G1 X107.233 Y95.241 E13.04947
G1 X107.851 Y94.903 E13.07289
G1 X108.502 Y94.636 E13.0963
G1 X109.18 Y94.446 E13.11972
G1 X109.875 Y94.333 E13.14313
G1 X110.578 Y94.3 E13.16654
G1 X110.965 Y94.316 E13.17943
G1 X111.379 Y94.346 E13.19323
G1 X112.077 Y94.437 E13.21664
G1 X112.761 Y94.606 E13.24008
G1 X113.42 Y94.852 E13.26347
G1 X114.048 Y95.17 E13.28689
G1 X114.635 Y95.558 E13.31029
G1 X115.346 Y96.177 E13.34164
G1 X118.315 Y99.188 E13.48229
G1 X118.78 Y99.716 E13.50569
G1 X119.182 Y100.294 E13.5291
G1 X119.516 Y100.914 E13.55253
G1 X119.778 Y101.567 E13.57593
G1 X119.963 Y102.247 E13.59937
G1 X120.071 Y102.942 E13.62276
G1 X120.1 Y103.555 E13.64317
G1 X120.07 Y116.545 E14.07522
G1 X120.028 Y117.248 E14.09865
G1 X119.907 Y117.942 E14.12208
G1 X119.709 Y118.617 E14.14547
G1 X119.434 Y119.265 E14.16889
G1 X119.089 Y119.879 E14.19231
G1 X118.675 Y120.449 E14.21574
G1 X118.223 Y120.946 E14.23809
G1 X115.212 Y123.915 E14.37873
G1 X114.684 Y124.38 E14.40213
G1 X114.106 Y124.782 E14.42555
G1 X113.486 Y125.116 E14.44897
G1 X112.833 Y125.378 E14.47237
G1 X112.153 Y125.563 E14.49581
G1 X111.458 Y125.671 E14.51921
G1 X110.859 Y125.7 E14.53915
G1 X110.517 Y125.7 E14.55053
G1 X109.814 Y125.66 E14.57395
G1 X109.12 Y125.541 E14.59737
G1 X108.445 Y125.343 E14.62076
G1 X107.796 Y125.071 E14.64417
G1 X107.182 Y124.726 E14.66759
G1 X107.146 Y124.7 E14.66907
G1 X106.217 Y124.7 E14.69997
G1 X105.514 Y124.66 E14.72339
G1 X104.82 Y124.541 E14.74681
G1 X104.145 Y124.343 E14.7702
G1 X103.496 Y124.071 E14.79361
G1 X102.882 Y123.726 E14.81703
G1 X102.311 Y123.315 E14.84043
G1 X101.833 Y122.884 E14.86184
G1 X101.716 Y122.767 E14.86734
G1 X101.247 Y122.242 E14.89076
G1 X100.841 Y121.667 E14.91417
G1 X100.503 Y121.049 E14.9376
G1 X100.236 Y120.398 E14.961
G1 X100.046 Y119.72 E14.98442
G1 X99.933 Y119.025 E15.00784
G1 X99.901 Y118.251 E15.0336
G1 X99.931 Y116.837 E15.08064
G1 X99.986 Y116.136 E15.10403
G1 X100.12 Y115.445 E15.12744
G1 X100.332 Y114.773 E15.15088
G1 X100.618 Y114.13 E15.17429
G1 X100.976 Y113.523 E15.19772
G1 X101.399 Y112.961 E15.22112
G1 X101.84 Y112.493 E15.24251
G1 X102.851 Y111.524 E15.28908
G1 X103.386 Y111.066 E15.31251
G1 X103.969 Y110.673 E15.33589
G1 X104.594 Y110.347 E15.35934
G1 X104.6 Y110.345 E15.35955
G1 X104.6 Y109.655 E15.3825
G1 X104.012 Y109.364 E15.40432
G1 X103.42 Y108.983 E15.42773
G1 X102.876 Y108.537 E15.45113
G1 X102.593 Y108.26 E15.4643
G1 X101.624 Y107.249 E15.51088
G1 X101.166 Y106.714 E15.5343
G1 X100.773 Y106.131 E15.55769
G1 X100.447 Y105.506 E15.58113
G1 X100.195 Y104.849 E15.60454
G1 X100.019 Y104.167 E15.62796
G1 X99.921 Y103.47 E15.65137
G1 X99.9 Y102.959 E15.66839
G1 X99.9 Y101.617 E15.71302
G1 X99.94 Y100.914 E15.73644
G1 X100.059 Y100.22 E15.75986
G1 X100.257 Y99.545 E15.78326
G1 X100.529 Y98.896 E15.80666
G1 X100.874 Y98.282 E15.83009
G1 X101.285 Y97.711 E15.85349
G1 X101.716 Y97.233 E15.87489
M204 S5000
