;FLAVOR:Marlin
;TIME:1779
;Filament used: 0.769932m
;Layer height: 0.1
;Generated with Cura_SteamEngine 4.0.0
M140 S60
M105
M190 S60
M104 S200
M105
M109 S200
M82 ;absolute extrusion mode
; Ender 3 Custom Start G-code
G28 ; Home all axes
G92 E0 ; Reset Extruder
G1 Z2.0 F3000 ; Move Z Axis up little to prevent scratching of Heat Bed
G1 X0.1 Y20 Z0.3 F5000.0 ; Move to start position
G1 X0.1 Y200.0 Z0.3 F1500.0 E15 ; Draw the first line
G1 X0.4 Y200.0 Z0.3 F5000.0 ; Move to side a little
G1 X0.4 Y20 Z0.3 F1500.0 E30 ; Draw the second line
G92 E0 ; Reset Extruder
G1 Z2.0 F3000 ; Move Z Axis up little to prevent scratching of Heat Bed
; End of custom start GCode
G92 E0
G1 F2400 E-5
;LAYER_COUNT:80
;LAYER:0
M107
M204 S5000
M205 X30 Y30
G0 F3600 X107.164 Y100.35 Z0.2
M204 S500
M205 X20 Y20
;TYPE:SKIRT
G1 F2400 E0
G1 F1800 X107.724 Y99.855 E0.02486
G1 X108.322 Y99.386 E0.05014
G1 X108.909 Y98.977 E0.07393
G1 X109.789 Y98.523 E0.10687
G1 X110.459 Y98.241 E0.13104
G1 X111.133 Y98.001 E0.15484
G1 X112.067 Y97.8 E0.18662
G1 X112.813 Y97.697 E0.21166
G1 X113.437 Y97.642 E0.2325
G1 X117.001 Y97.502 E0.35113
G1 X122.315 Y97.049 E0.52851
G1 X127.611 Y96.295 E0.70644
G1 X129.949 Y95.864 E0.78551
G1 X130.658 Y95.774 E0.80928
G1 X131.373 Y95.764 E0.83306
G1 X132.085 Y95.833 E0.85685
G1 X132.785 Y95.982 E0.88066
G1 X133.464 Y96.207 E0.90445
G1 X134.308 Y96.615 E0.93563
G1 X142.301 Y101.229 E1.24259
G1 X142.899 Y101.621 E1.26637
G1 X143.45 Y102.077 E1.29016
G1 X143.947 Y102.591 E1.31394
G1 X144.383 Y103.158 E1.33773
G1 X144.753 Y103.77 E1.36152
G1 X145.053 Y104.42 E1.38533
G1 X145.36 Y105.434 E1.42057
G1 X146.452 Y110.543 E1.59433
G1 X147.093 Y113.04 E1.68007
G1 X148.494 Y117.743 E1.84329
G1 X148.659 Y118.439 E1.86708
G1 X148.746 Y119.149 E1.89087
G1 X148.753 Y119.864 E1.91465
G1 X148.681 Y120.576 E1.93846
G1 X148.529 Y121.275 E1.96225
G1 X148.3 Y121.952 E1.98602
G1 X147.902 Y122.772 E2.01633
G1 X146.973 Y124.38 E2.0781
G1 X146.581 Y124.978 E2.10188
G1 X146.125 Y125.529 E2.12567
G1 X145.34 Y126.245 E2.16101
G1 X140.204 Y130.207 E2.37675
G1 X139.614 Y130.612 E2.40056
G1 X138.983 Y130.948 E2.42433
G1 X138.503 Y131.147 E2.44162
G1 X135.562 Y132.228 E2.54583
G1 X130.671 Y134.277 E2.72221
G1 X124.509 Y137.318 E2.95075
G1 X123.851 Y137.598 E2.97454
G1 X123.165 Y137.803 E2.99835
G1 X122.462 Y137.931 E3.02212
G1 X121.675 Y137.979 E3.04834
G1 X111.684 Y137.977 E3.38064
G1 X110.97 Y137.937 E3.40443
G1 X110.614 Y137.887 E3.41639
G1 X108.227 Y137.482 E3.49691
G1 X102.942 Y136.805 E3.67413
G1 X97.625 Y136.429 E3.85141
G1 X93.216 Y136.333 E3.99809
G1 X92.503 Y136.278 E4.02188
G1 X91.801 Y136.143 E4.04565
G1 X91.118 Y135.931 E4.06944
G1 X90.462 Y135.644 E4.09326
G1 X89.844 Y135.285 E4.11703
G1 X89.268 Y134.86 E4.14084
G1 X88.745 Y134.373 E4.1646
G1 X88.278 Y133.831 E4.1884
G1 X87.875 Y133.24 E4.21219
G1 X87.541 Y132.607 E4.236
G1 X87.279 Y131.942 E4.25977
G1 X87.093 Y131.251 E4.28357
G1 X86.985 Y130.544 E4.30736
G1 X86.956 Y129.934 E4.32767
G1 X86.957 Y123.122 E4.55424
G1 X86.997 Y122.408 E4.57802
G1 X87.117 Y121.703 E4.60181
G1 X87.314 Y121.015 E4.62561
G1 X87.587 Y120.354 E4.6494
G1 X87.932 Y119.728 E4.67317
G1 X88.345 Y119.143 E4.69699
G1 X88.82 Y118.609 E4.72076
G1 X89.398 Y118.094 E4.74651
G1 X91.35 Y116.557 E4.82914
G1 X95.403 Y113.086 E5.00662
G1 X99.245 Y109.401 E5.18368
G1 X101.02 Y107.55 E5.26898
G1 X104.579 Y103.502 E5.44826
G1 X106.685 Y100.882 E5.56006
G1 X107.164 Y100.35 E5.58387
M204 S5000
M205 X30 Y30
G0 F3600 X107.461 Y100.619
M204 S500
M205 X20 Y20
G1 F1800 X107.971 Y100.17 E5.60647
G1 X108.569 Y99.701 E5.63175
G1 X109.138 Y99.306 E5.65478
G1 X109.944 Y98.892 E5.68492
G1 X110.614 Y98.61 E5.7091
G1 X111.267 Y98.379 E5.73214
G1 X112.121 Y98.196 E5.76119
G1 X112.867 Y98.093 E5.78623
G1 X113.452 Y98.042 E5.80576
G1 X117.03 Y97.901 E5.92486
G1 X122.354 Y97.448 E6.10258
G1 X127.663 Y96.691 E6.28094
G1 X130.021 Y96.257 E6.36069
G1 X130.708 Y96.171 E6.38371
G1 X131.401 Y96.165 E6.40676
G1 X132.089 Y96.239 E6.42978
G1 X132.765 Y96.391 E6.45283
G1 X133.418 Y96.621 E6.47585
G1 X134.108 Y96.962 E6.50145
G1 X142.101 Y101.576 E6.80841
G1 X142.679 Y101.956 E6.83142
G1 X143.211 Y102.4 E6.85447
G1 X143.687 Y102.903 E6.8775
G1 X144.102 Y103.457 E6.90052
G1 X144.451 Y104.056 E6.92358
G1 X144.728 Y104.69 E6.94659
G1 X144.968 Y105.517 E6.97523
G1 X146.057 Y110.611 E7.14849
G1 X146.713 Y113.168 E7.23629
G1 X148.11 Y117.857 E7.39902
G1 X148.269 Y118.531 E7.42205
G1 X148.35 Y119.219 E7.44509
G1 X148.35 Y119.912 E7.46814
G1 X148.271 Y120.6 E7.49118
G1 X148.113 Y121.274 E7.5142
G1 X147.878 Y121.925 E7.53722
G1 X147.555 Y122.572 E7.56127
G1 X146.626 Y124.18 E7.62304
G1 X146.246 Y124.758 E7.64605
G1 X145.801 Y125.289 E7.66909
G1 X145.096 Y125.929 E7.70076
G1 X139.96 Y129.891 E7.9165
G1 X139.388 Y130.281 E7.93953
G1 X138.775 Y130.604 E7.96258
G1 X138.365 Y130.772 E7.97731
G1 X135.41 Y131.858 E8.08202
G1 X130.499 Y133.915 E8.25911
G1 X124.332 Y136.959 E8.48786
G1 X123.694 Y137.229 E8.5109
G1 X123.03 Y137.424 E8.53391
G1 X122.347 Y137.541 E8.55696
G1 X121.675 Y137.579 E8.57935
G1 X111.684 Y137.577 E8.91165
G1 X110.681 Y137.492 E8.94513
G1 X108.298 Y137.087 E9.02553
G1 X102.984 Y136.407 E9.20371
G1 X97.662 Y136.031 E9.38116
G1 X93.225 Y135.934 E9.52877
G1 X92.534 Y135.878 E9.55183
G1 X91.855 Y135.744 E9.57485
G1 X91.196 Y135.533 E9.59787
G1 X90.565 Y135.246 E9.62092
G1 X89.972 Y134.889 E9.64394
G1 X89.423 Y134.466 E9.66699
G1 X88.927 Y133.983 E9.69002
G1 X88.49 Y133.446 E9.71305
G1 X88.118 Y132.862 E9.73608
G1 X87.816 Y132.239 E9.75911
G1 X87.587 Y131.585 E9.78215
G1 X87.436 Y130.909 E9.80519
G1 X87.356 Y129.934 E9.83773
G1 X87.357 Y123.122 E10.0643
G1 X87.397 Y122.431 E10.08732
G1 X87.517 Y121.749 E10.11035
G1 X87.714 Y121.085 E10.13339
G1 X87.986 Y120.448 E10.15642
G1 X88.33 Y119.847 E10.17946
G1 X88.741 Y119.29 E10.20248
G1 X89.214 Y118.783 E10.22554
G1 X89.646 Y118.409 E10.24455
G1 X91.588 Y116.881 E10.32673
G1 X95.666 Y113.388 E10.50532
G1 X99.54 Y109.672 E10.68387
G1 X101.314 Y107.821 E10.76914
G1 X104.879 Y103.768 E10.94867
G1 X106.997 Y101.132 E11.06114
G1 X107.461 Y100.619 E11.08415
M204 S5000
M205 X30 Y30
G0 F3600 X107.758 Y100.887
M204 S500
M205 X20 Y20
G1 F1800 X108.218 Y100.485 E11.10446
G1 X108.816 Y100.016 E11.12974
G1 X109.366 Y99.635 E11.15199
G1 X110.1 Y99.261 E11.17939
G1 X110.77 Y98.979 E11.20357
G1 X111.401 Y98.756 E11.22583
G1 X112.176 Y98.593 E11.25217
G1 X112.922 Y98.49 E11.27722
G1 X113.468 Y98.441 E11.29545
G1 X117.057 Y98.3 E11.41491
G1 X122.408 Y97.844 E11.59353
G1 X127.741 Y97.084 E11.7727
G1 X130.093 Y96.651 E11.85225
G1 X130.758 Y96.569 E11.87453
G1 X131.427 Y96.567 E11.89678
G1 X132.091 Y96.645 E11.91902
G1 X132.741 Y96.802 E11.94126
G1 X133.369 Y97.035 E11.96354
G1 X133.908 Y97.308 E11.98363
G1 X141.901 Y101.922 E12.2906
G1 X142.459 Y102.291 E12.31285
G1 X142.97 Y102.723 E12.3351
G1 X143.425 Y103.213 E12.35734
G1 X143.818 Y103.754 E12.37958
G1 X144.145 Y104.338 E12.40184
G1 X144.399 Y104.957 E12.4241
G1 X144.577 Y105.601 E12.44632
G1 X145.67 Y110.715 E12.62025
G1 X146.322 Y113.254 E12.70744
G1 X147.727 Y117.971 E12.87114
G1 X147.879 Y118.623 E12.89341
G1 X147.953 Y119.288 E12.91566
G1 X147.947 Y119.957 E12.93792
G1 X147.861 Y120.62 E12.96015
G1 X147.696 Y121.269 E12.98242
G1 X147.455 Y121.893 E13.00467
G1 X147.209 Y122.371 E13.02255
G1 X146.28 Y123.979 E13.08432
G1 X145.911 Y124.538 E13.1066
G1 X145.479 Y125.048 E13.12883
G1 X144.851 Y125.612 E13.1569
G1 X139.715 Y129.574 E13.37265
G1 X139.162 Y129.95 E13.39489
G1 X138.568 Y130.258 E13.41714
G1 X138.227 Y130.396 E13.42938
G1 X135.27 Y131.483 E13.53416
G1 X130.346 Y133.545 E13.71172
G1 X124.155 Y136.601 E13.94135
G1 X123.538 Y136.86 E13.96361
G1 X122.895 Y137.045 E13.98586
G1 X122.234 Y137.151 E14.00813
G1 X121.675 Y137.179 E14.02674
G1 X111.684 Y137.177 E14.35904
G1 X110.748 Y137.098 E14.39029
G1 X108.366 Y136.694 E14.47064
G1 X103.011 Y136.008 E14.65021
G1 X97.678 Y135.631 E14.82803
G1 X93.234 Y135.534 E14.97587
G1 X92.567 Y135.479 E14.99813
G1 X91.911 Y135.345 E15.0204
G1 X91.276 Y135.135 E15.04264
G1 X90.671 Y134.849 E15.0649
G1 X90.104 Y134.494 E15.08715
G1 X89.584 Y134.074 E15.10938
G1 X89.117 Y133.594 E15.13166
G1 X88.711 Y133.063 E15.15389
G1 X88.371 Y132.486 E15.17616
G1 X88.102 Y131.874 E15.1984
G1 X87.909 Y131.233 E15.22066
G1 X87.793 Y130.574 E15.24292
G1 X87.756 Y129.934 E15.26424
G1 X87.757 Y123.122 E15.49081
G1 X87.797 Y122.454 E15.51307
G1 X87.916 Y121.796 E15.53531
G1 X88.114 Y121.157 E15.55756
G1 X88.385 Y120.545 E15.57982
G1 X88.728 Y119.971 E15.60206
G1 X89.137 Y119.441 E15.62432
G1 X89.606 Y118.964 E15.64657
G1 X89.893 Y118.723 E15.65904
G1 X91.851 Y117.182 E15.74191
G1 X95.939 Y113.681 E15.92093
G1 X99.811 Y109.967 E16.09938
G1 X101.621 Y108.078 E16.18639
G1 X105.186 Y104.024 E16.36595
G1 X107.309 Y101.383 E16.47865
G1 X107.758 Y100.887 E16.5009
M204 S5000
M205 X30 Y30
G0 F3600 X108.055 Y101.157
M204 S500
M205 X20 Y20
G1 F1800 X108.465 Y100.799 E16.51901
G1 X109.063 Y100.33 E16.54428
G1 X109.594 Y99.965 E16.56571
G1 X110.255 Y99.629 E16.59038
G1 X110.925 Y99.347 E16.61455
G1 X111.533 Y99.134 E16.63598
G1 X112.231 Y98.989 E16.65969
G1 X112.977 Y98.886 E16.68474
G1 X113.484 Y98.841 E16.70167
G1 X117.085 Y98.699 E16.82153
G1 X122.444 Y98.243 E17.00042
G1 X127.801 Y97.48 E17.18039
G1 X130.166 Y97.044 E17.26038
G1 X130.806 Y96.967 E17.28182
G1 X131.451 Y96.969 E17.30327
G1 X132.09 Y97.052 E17.3247
G1 X132.714 Y97.212 E17.34613
G1 X133.314 Y97.449 E17.36758
G1 X133.708 Y97.654 E17.38235
G1 X141.701 Y102.268 E17.68932
G1 X142.238 Y102.625 E17.71076
G1 X142.727 Y103.045 E17.7322
G1 X143.16 Y103.522 E17.75363
G1 X143.531 Y104.049 E17.77507
G1 X143.834 Y104.618 E17.79651
G1 X144.064 Y105.221 E17.81797
G1 X144.186 Y105.685 E17.83393
G1 X145.28 Y110.801 E18.00794
G1 X145.938 Y113.365 E18.09598
G1 X147.344 Y118.086 E18.25982
G1 X147.489 Y118.714 E18.28125
G1 X147.556 Y119.355 E18.30269
G1 X147.542 Y119.999 E18.32411
G1 X147.449 Y120.637 E18.34556
G1 X147.278 Y121.259 E18.36701
G1 X147.031 Y121.854 E18.38844
G1 X146.863 Y122.171 E18.40037
G1 X145.934 Y123.779 E18.46214
G1 X145.577 Y124.316 E18.48359
G1 X145.157 Y124.805 E18.50503
G1 X144.607 Y125.295 E18.52953
G1 X139.471 Y129.257 E18.74527
G1 X138.937 Y129.619 E18.76673
G1 X138.089 Y130.021 E18.79794
G1 X135.118 Y131.113 E18.90322
G1 X130.173 Y133.184 E19.08153
G1 X123.978 Y136.242 E19.31132
G1 X123.383 Y136.491 E19.33277
G1 X122.762 Y136.664 E19.35421
G1 X122.124 Y136.76 E19.37567
G1 X121.675 Y136.779 E19.39062
G1 X111.684 Y136.777 E19.72292
G1 X110.815 Y136.704 E19.75192
G1 X108.411 Y136.296 E19.83302
G1 X103.056 Y135.611 E20.01258
G1 X97.694 Y135.231 E20.19137
G1 X93.242 Y135.134 E20.33948
G1 X92.6 Y135.08 E20.36091
G1 X91.969 Y134.947 E20.38236
G1 X91.36 Y134.737 E20.40378
G1 X90.781 Y134.453 E20.42523
G1 X90.242 Y134.099 E20.44668
G1 X89.75 Y133.682 E20.46813
G1 X89.314 Y133.207 E20.48958
G1 X88.941 Y132.682 E20.511
G1 X88.635 Y132.114 E20.53245
G1 X88.401 Y131.513 E20.55391
G1 X88.244 Y130.888 E20.57534
G1 X88.156 Y129.934 E20.6072
G1 X88.157 Y123.122 E20.83377
G1 X88.197 Y122.479 E20.8552
G1 X88.316 Y121.845 E20.87665
G1 X88.513 Y121.231 E20.8981
G1 X88.785 Y120.647 E20.91953
G1 X89.126 Y120.1 E20.94097
G1 X89.533 Y119.6 E20.96241
G1 X90.141 Y119.037 E20.98997
G1 X92.101 Y117.494 E21.07294
G1 X96.213 Y113.973 E21.25299
G1 X100.095 Y110.25 E21.43189
G1 X101.905 Y108.361 E21.5189
G1 X105.504 Y104.268 E21.70018
G1 X107.621 Y101.634 E21.81258
G1 X108.055 Y101.157 E21.83403
M204 S5000
M205 X30 Y30
G1 F2400 E16.83403
;MESH:Curiosity_Rover_Arm3R.stl
G0 F3600 X110.233 Y106.544
G0 X111.447 Y107.141
G0 X112.154 Y110.475
G0 X115.018 Y126.788
G0 X115.088 Y126.718
M204 S500
M205 X20 Y20
;TYPE:WALL-INNER
G1 F2400 E21.83403
G1 F1800 X121.088 Y126.718 E22.03359
G1 X121.088 Y126.951 E22.04134
G1 X115.088 Y126.951 E22.15758
G1 X115.088 Y130.756 E22.28414
G1 X121.088 Y130.756 E22.4837
G1 X121.088 Y130.988 E22.49141
G1 X115.088 Y130.988 E22.60716
G1 X112.288 Y130.988 E22.70029
G1 X112.288 Y111.28 E23.35578
G1 X111.547 Y110.974 E23.38244
G1 X97.101 Y125.42 E24.06194
G1 X97.025 Y125.496 E24.06551
G1 X97.025 Y125.345 E24.06709
G1 X93.947 Y125.345 E24.16946
G1 X93.947 Y123.717 E24.22361
G1 X94.845 Y123.717 E24.25348
G1 X111.429 Y107.133 E25.03354
G1 X111.54 Y106.285 E25.06198
G1 X111.757 Y105.755 E25.08103
G1 X112.126 Y105.272 E25.10125
G1 X112.582 Y104.926 E25.12028
G1 X113.121 Y104.704 E25.13967
G1 X113.697 Y104.63 E25.15899
G1 X114.27 Y104.709 E25.17823
G1 X114.804 Y104.932 E25.19747
G1 X115.26 Y105.282 E25.21659
G1 X115.614 Y105.742 E25.2359
G1 X115.836 Y106.278 E25.25519
G1 X115.911 Y106.853 E25.27448
G1 X115.836 Y107.428 E25.29377
G1 X115.614 Y107.964 E25.31306
G1 X115.088 Y108.649 E25.34179
G1 X115.088 Y126.718 E25.94277
M204 S5000
M205 X30 Y30
G0 F3600 X115.488 Y126.318
M204 S500
M205 X20 Y20
;TYPE:WALL-OUTER
G1 F1800 X121.488 Y126.318 E26.14233
G1 X121.488 Y127.351 E26.17668
G1 X115.488 Y127.351 E26.37625
G1 X115.488 Y130.356 E26.47619
G1 X121.488 Y130.356 E26.67575
G1 X121.488 Y131.388 E26.71008
G1 X111.888 Y131.388 E27.02938
G1 X111.888 Y111.708 E27.68393
G1 X111.888 Y111.548 E27.68926
G1 X111.641 Y111.446 E27.69814
G1 X111.528 Y111.559 E27.70264
G1 X97.225 Y125.862 E28.37541
G1 X97.225 Y127.145 E28.41808
G1 X97.302 Y127.145 E28.42064
G1 X97.302 Y129.745 E28.50712
G1 X96.625 Y129.745 E28.52964
G1 X96.625 Y125.745 E28.66268
G1 X94.225 Y125.745 E28.7425
G1 X94.225 Y129.745 E28.87554
G1 X93.547 Y129.745 E28.89809
G1 X93.547 Y123.317 E29.11189
G1 X94.679 Y123.317 E29.14954
G1 X111.05 Y106.946 E29.91958
G1 X111.149 Y106.185 E29.9451
G1 X111.408 Y105.552 E29.96785
G1 X111.84 Y104.988 E29.99148
G1 X112.383 Y104.575 E30.01417
G1 X113.019 Y104.314 E30.03704
G1 X113.696 Y104.227 E30.05974
G1 X114.378 Y104.32 E30.08263
G1 X115.006 Y104.583 E30.10528
G1 X115.545 Y104.996 E30.12786
G1 X115.964 Y105.541 E30.15073
G1 X116.226 Y106.174 E30.17351
G1 X116.315 Y106.853 E30.19629
G1 X116.226 Y107.532 E30.21907
G1 X115.964 Y108.165 E30.24185
G1 X115.488 Y108.785 E30.26785
G1 X115.488 Y126.318 E30.851
M204 S5000
M205 X30 Y30
G0 F3600 X115.688 Y126.318
G0 X115.688 Y126.818
G0 X115.06 Y126.923
G0 X114.698 Y130.598
M204 S500
M205 X20 Y20
;TYPE:SKIN
G1 F1800 X112.678 Y130.598 E30.91819
G1 X112.678 Y111.019 E31.56939
G1 X111.455 Y110.514 E31.61339
G1 X97.016 Y124.955 E32.29261
G1 X94.337 Y124.955 E32.38171
G1 X94.337 Y124.107 E32.40992
G1 X95.007 Y124.107 E32.4322
G1 X111.798 Y107.315 E33.22202
G1 X111.919 Y106.389 E33.25308
G1 X112.099 Y105.949 E33.26889
G1 X112.403 Y105.551 E33.28555
G1 X112.775 Y105.268 E33.3011
G1 X113.225 Y105.082 E33.31729
G1 X113.693 Y105.022 E33.33299
G1 X114.165 Y105.088 E33.34884
G1 X114.604 Y105.271 E33.36466
G1 X114.984 Y105.563 E33.3806
G1 X115.271 Y105.936 E33.39625
G1 X115.458 Y106.386 E33.41246
G1 X115.519 Y106.853 E33.42812
G1 X115.458 Y107.32 E33.44379
G1 X115.272 Y107.767 E33.45989
G1 X114.698 Y108.516 E33.49127
G1 X114.698 Y130.598 E34.22573
M204 S5000
M205 X30 Y30
G0 F3600 X112.321 Y111.258
G0 X111.539 Y110.935
G0 X94.792 Y124.773
M204 S500
M205 X20 Y20
G1 F1800 X94.516 Y124.498 E34.23868
M204 S5000
M205 X30 Y30
G0 F3600 X94.871 Y124.286
M204 S500
M205 X20 Y20
G1 F1800 X95.358 Y124.773 E34.26159
M204 S5000
M205 X30 Y30
G0 F3600 X95.923 Y124.773
M204 S500
M205 X20 Y20
G1 F1800 X95.258 Y124.108 E34.29287
M204 S5000
M205 X30 Y30
G0 F3600 X95.541 Y123.825
M204 S500
M205 X20 Y20
G1 F1800 X96.489 Y124.773 E34.33746
M204 S5000
M205 X30 Y30
G0 F3600 X96.998 Y124.717
M204 S500
M205 X20 Y20
G1 F1800 X95.824 Y123.542 E34.39271
M204 S5000
M205 X30 Y30
G0 F3600 X96.107 Y123.26
M204 S500
M205 X20 Y20
G1 F1800 X97.281 Y124.434 E34.44793
M204 S5000
M205 X30 Y30
G0 F3600 X97.564 Y124.151
M204 S500
M205 X20 Y20
G1 F1800 X96.389 Y122.977 E34.50317
M204 S5000
M205 X30 Y30
G0 F3600 X96.672 Y122.694
M204 S500
M205 X20 Y20
G1 F1800 X97.847 Y123.868 E34.55842
M204 S5000
M205 X30 Y30
G0 F3600 X98.13 Y123.586
M204 S500
M205 X20 Y20
G1 F1800 X96.955 Y122.411 E34.61369
M204 S5000
M205 X30 Y30
G0 F3600 X97.238 Y122.128
M204 S500
M205 X20 Y20
G1 F1800 X98.413 Y123.303 E34.66895
M204 S5000
M205 X30 Y30
