;FLAVOR:Marlin
;TIME:3649
;Filament used: 1.20933m
;Layer height: 0.1
;Generated with Cura_SteamEngine 4.0.0
M140 S60
M105
M190 S60
M104 S200
M105
M109 S200
M82 ;absolute extrusion mode
; Ender 3 Custom Start G-code
G28 ; Home all axes
G92 E0 ; Reset Extruder
G1 Z2.0 F3000 ; Move Z Axis up little to prevent scratching of Heat Bed
G1 X0.1 Y20 Z0.3 F5000.0 ; Move to start position
G1 X0.1 Y200.0 Z0.3 F1500.0 E15 ; Draw the first line
G1 X0.4 Y200.0 Z0.3 F5000.0 ; Move to side a little
G1 X0.4 Y20 Z0.3 F1500.0 E30 ; Draw the second line
G92 E0 ; Reset Extruder
G1 Z2.0 F3000 ; Move Z Axis up little to prevent scratching of Heat Bed
; End of custom start GCode
G92 E0
G1 F2400 E-5
;LAYER_COUNT:407
;LAYER:0
M107
M204 S5000
M205 X30 Y30
G0 F3600 X102.662 Y113.937 Z0.2
M204 S500
M205 X20 Y20
;TYPE:SKIRT
G1 F2400 E0
G1 F1800 X102.954 Y113.68 E0.01294
G1 X105.754 Y111.358 E0.13392
G1 X109.698 Y107.768 E0.31131
G1 X113.413 Y103.979 E0.4878
G1 X116.982 Y99.913 E0.66774
G1 X117.483 Y99.403 E0.69152
G1 X117.895 Y99.058 E0.70939
G1 X118.73 Y98.417 E0.7444
G1 X119.321 Y98.014 E0.7682
G1 X120.158 Y97.589 E0.79942
G1 X121.086 Y97.201 E0.83287
G1 X121.761 Y96.963 E0.85668
G1 X122.681 Y96.766 E0.88797
G1 X123.718 Y96.623 E0.92279
G1 X124.431 Y96.565 E0.94658
G1 X125.381 Y96.612 E0.97822
G1 X126.403 Y96.739 E1.01247
G1 X127.107 Y96.867 E1.03627
G1 X128.024 Y97.161 E1.0683
G1 X128.998 Y97.557 E1.10327
G1 X129.645 Y97.863 E1.12707
G1 X130.454 Y98.386 E1.15911
G1 X131.285 Y99.016 E1.1938
G1 X131.83 Y99.479 E1.21758
G1 X132.476 Y100.193 E1.24961
G1 X133.123 Y101.027 E1.28471
G1 X133.529 Y101.616 E1.30851
G1 X133.867 Y102.246 E1.33229
G1 X134.132 Y102.91 E1.35607
G1 X134.322 Y103.6 E1.37987
G1 X134.435 Y104.324 E1.40424
G1 X135.194 Y112.047 E1.66235
G1 X135.225 Y112.677 E1.68333
G1 X135.216 Y127.228 E2.16729
G1 X135.176 Y127.942 E2.19108
G1 X135.056 Y128.647 E2.21487
G1 X134.858 Y129.335 E2.23868
G1 X134.585 Y129.996 E2.26246
G1 X134.261 Y130.587 E2.28488
G1 X133.264 Y132.201 E2.34798
G1 X133.003 Y132.59 E2.36356
G1 X131.001 Y135.356 E2.47713
G1 X130.345 Y136.127 E2.51079
G1 X128.359 Y138.115 E2.60426
G1 X127.826 Y138.592 E2.62805
G1 X127.243 Y139.007 E2.65185
G1 X126.617 Y139.354 E2.67565
G1 X125.957 Y139.629 E2.69944
G1 X125.27 Y139.828 E2.72322
G1 X124.565 Y139.95 E2.74702
G1 X123.834 Y139.992 E2.77137
G1 X107.834 Y140 E3.30354
G1 X107.12 Y139.96 E3.32732
G1 X106.415 Y139.841 E3.3511
G1 X105.727 Y139.644 E3.3749
G1 X105.066 Y139.372 E3.39868
G1 X104.439 Y139.027 E3.42248
G1 X103.855 Y138.615 E3.44625
G1 X103.328 Y138.148 E3.46967
G1 X101.804 Y136.639 E3.541
G1 X101.707 Y136.54 E3.54561
G1 X101.236 Y136.053 E3.56815
G1 X100.768 Y135.512 E3.59194
G1 X100.363 Y134.922 E3.61574
G1 X100.027 Y134.291 E3.63952
G1 X99.764 Y133.626 E3.6633
G1 X99.585 Y132.977 E3.6857
G1 X98.585 Y128.425 E3.84071
G1 X98.471 Y127.719 E3.86449
G1 X98.436 Y127.026 E3.88757
G1 X98.442 Y125.555 E3.9365
G1 X98.485 Y124.841 E3.96029
G1 X98.556 Y124.376 E3.97593
G1 X99.552 Y119.179 E4.15193
G1 X99.726 Y118.486 E4.1757
G1 X99.976 Y117.815 E4.19951
G1 X100.299 Y117.177 E4.2233
G1 X100.535 Y116.802 E4.23803
G1 X101.736 Y115.024 E4.3094
G1 X102.168 Y114.454 E4.33319
G1 X102.662 Y113.937 E4.35697
M204 S5000
M205 X30 Y30
G0 F3600 X103.209 Y113.987
M204 S500
M205 X20 Y20
G1 F1800 X106.03 Y111.647 E4.47887
G1 X109.98 Y108.053 E4.65649
G1 X113.708 Y104.25 E4.83362
G1 X117.283 Y100.177 E5.01387
G1 X117.769 Y99.684 E5.0369
G1 X118.138 Y99.376 E5.05288
G1 X118.973 Y98.735 E5.08789
G1 X119.546 Y98.345 E5.11095
G1 X120.313 Y97.958 E5.13952
G1 X121.241 Y97.57 E5.17298
G1 X121.894 Y97.341 E5.19599
G1 X122.735 Y97.162 E5.22459
G1 X123.772 Y97.019 E5.25941
G1 X124.463 Y96.964 E5.28246
G1 X125.332 Y97.009 E5.3114
G1 X126.354 Y97.136 E5.34566
G1 X127.035 Y97.261 E5.36869
G1 X127.874 Y97.532 E5.39801
G1 X128.848 Y97.928 E5.43298
G1 X129.473 Y98.225 E5.456
G1 X130.213 Y98.705 E5.48533
G1 X131.044 Y99.335 E5.52002
G1 X131.571 Y99.784 E5.54305
G1 X132.16 Y100.438 E5.57232
G1 X132.807 Y101.272 E5.60743
G1 X133.199 Y101.843 E5.63046
G1 X133.523 Y102.455 E5.65349
G1 X133.774 Y103.101 E5.67655
G1 X133.949 Y103.771 E5.69958
G1 X134.037 Y104.363 E5.71948
G1 X134.796 Y112.086 E5.97759
G1 X134.825 Y112.677 E5.99727
G1 X134.816 Y127.228 E6.48124
G1 X134.776 Y127.919 E6.50426
G1 X134.656 Y128.601 E6.52729
G1 X134.458 Y129.265 E6.55034
G1 X134.185 Y129.901 E6.57336
G1 X133.921 Y130.377 E6.59146
G1 X132.924 Y131.991 E6.65456
G1 X132.679 Y132.356 E6.66918
G1 X130.677 Y135.122 E6.78275
G1 X130.062 Y135.845 E6.81432
G1 X128.076 Y137.833 E6.90778
G1 X127.559 Y138.293 E6.93079
G1 X126.992 Y138.692 E6.95385
G1 X126.384 Y139.022 E6.97686
G1 X125.741 Y139.28 E6.99991
G1 X125.073 Y139.462 E7.02293
G1 X124.388 Y139.566 E7.04598
G1 X123.834 Y139.592 E7.06443
G1 X107.834 Y139.6 E7.59659
G1 X107.143 Y139.56 E7.61961
G1 X106.46 Y139.441 E7.64267
G1 X105.796 Y139.245 E7.66569
G1 X105.16 Y138.972 E7.68871
G1 X104.558 Y138.629 E7.71176
G1 X104.001 Y138.218 E7.73478
G1 X103.609 Y137.864 E7.75235
G1 X102.085 Y136.355 E7.82368
G1 X101.994 Y136.262 E7.82801
G1 X101.523 Y135.775 E7.85054
G1 X101.071 Y135.25 E7.87359
G1 X100.683 Y134.677 E7.8966
G1 X100.363 Y134.063 E7.91963
G1 X100.116 Y133.416 E7.94266
G1 X99.976 Y132.891 E7.96074
G1 X98.976 Y128.339 E8.11575
G1 X98.866 Y127.656 E8.13876
G1 X98.836 Y127.028 E8.15967
G1 X98.842 Y125.557 E8.20859
G1 X98.885 Y124.865 E8.23165
G1 X98.949 Y124.452 E8.24555
G1 X99.945 Y119.255 E8.42155
G1 X100.115 Y118.583 E8.44461
G1 X100.36 Y117.936 E8.46762
G1 X100.679 Y117.321 E8.49066
G1 X100.866 Y117.026 E8.50228
G1 X102.067 Y115.248 E8.57364
G1 X102.487 Y114.697 E8.59668
G1 X103.209 Y113.987 E8.63036
M204 S5000
M205 X30 Y30
G0 F3600 X103.464 Y114.295
M204 S500
M205 X20 Y20
G1 F1800 X106.293 Y111.949 E8.7526
G1 X110.261 Y108.337 E8.93107
G1 X113.994 Y104.53 E9.10841
G1 X117.583 Y100.441 E9.28936
G1 X118.054 Y99.965 E9.31164
G1 X118.382 Y99.693 E9.32581
G1 X119.217 Y99.052 E9.36082
G1 X119.771 Y98.677 E9.38307
G1 X120.467 Y98.327 E9.40898
G1 X121.395 Y97.939 E9.44244
G1 X122.026 Y97.719 E9.46466
G1 X122.79 Y97.558 E9.49063
G1 X123.827 Y97.415 E9.52545
G1 X124.494 Y97.364 E9.5477
G1 X125.283 Y97.406 E9.57398
G1 X126.305 Y97.533 E9.60823
G1 X126.962 Y97.655 E9.63046
G1 X127.723 Y97.902 E9.65707
G1 X128.697 Y98.298 E9.69204
G1 X129.301 Y98.587 E9.71431
G1 X129.971 Y99.023 E9.74089
G1 X130.802 Y99.653 E9.77558
G1 X131.31 Y100.089 E9.79784
G1 X131.844 Y100.683 E9.82441
G1 X132.491 Y101.517 E9.85952
G1 X132.868 Y102.07 E9.88178
G1 X133.178 Y102.663 E9.90403
G1 X133.414 Y103.289 E9.92629
G1 X133.574 Y103.938 E9.94852
G1 X133.639 Y104.402 E9.9641
G1 X134.398 Y112.125 E10.22221
G1 X134.425 Y112.676 E10.24056
G1 X134.416 Y127.227 E10.72452
G1 X134.376 Y127.895 E10.74678
G1 X134.256 Y128.554 E10.76906
G1 X134.059 Y129.193 E10.7913
G1 X133.786 Y129.804 E10.81356
G1 X133.58 Y130.167 E10.82744
G1 X132.583 Y131.781 E10.89054
G1 X132.355 Y132.121 E10.90415
G1 X130.353 Y134.887 E11.01772
G1 X129.779 Y135.562 E11.04719
G1 X127.793 Y137.55 E11.14065
G1 X127.293 Y137.994 E11.16289
G1 X126.743 Y138.375 E11.18515
G1 X126.152 Y138.689 E11.20741
G1 X125.527 Y138.929 E11.22967
G1 X124.879 Y139.093 E11.25191
G1 X124.215 Y139.179 E11.27418
G1 X123.834 Y139.192 E11.28685
G1 X107.834 Y139.2 E11.81902
G1 X107.166 Y139.16 E11.84127
G1 X106.508 Y139.041 E11.86351
G1 X105.868 Y138.845 E11.88578
G1 X105.257 Y138.573 E11.90802
G1 X104.682 Y138.231 E11.93027
G1 X104.152 Y137.822 E11.95254
G1 X103.891 Y137.579 E11.9644
G1 X102.367 Y136.07 E12.03573
G1 X102.282 Y135.984 E12.03975
G1 X101.811 Y135.497 E12.06229
G1 X101.375 Y134.989 E12.08455
G1 X101.003 Y134.433 E12.1068
G1 X100.7 Y133.837 E12.12904
G1 X100.471 Y133.208 E12.15131
G1 X100.366 Y132.806 E12.16513
G1 X99.366 Y128.254 E12.32014
G1 X99.262 Y127.593 E12.34239
G1 X99.236 Y127.029 E12.36117
G1 X99.242 Y125.558 E12.4101
G1 X99.285 Y124.89 E12.43236
G1 X99.342 Y124.527 E12.44458
G1 X100.338 Y119.33 E12.62058
G1 X100.503 Y118.682 E12.64282
G1 X100.744 Y118.057 E12.6651
G1 X101.197 Y117.249 E12.69591
G1 X102.398 Y115.471 E12.76727
G1 X102.805 Y114.94 E12.78952
G1 X103.464 Y114.295 E12.82019
M204 S5000
M205 X30 Y30
G0 F3600 X103.72 Y114.603
M204 S500
M205 X20 Y20
G1 F1800 X106.547 Y112.258 E12.94236
G1 X110.543 Y108.622 E13.12205
G1 X114.289 Y104.801 E13.30002
G1 X117.884 Y100.705 E13.48129
G1 X118.338 Y100.248 E13.50271
G1 X118.626 Y100.01 E13.51514
G1 X119.461 Y99.369 E13.55015
G1 X119.995 Y99.009 E13.57157
G1 X120.621 Y98.696 E13.59485
G1 X121.549 Y98.308 E13.62831
G1 X122.158 Y98.097 E13.64974
G1 X122.845 Y97.955 E13.67307
G1 X123.882 Y97.812 E13.70789
G1 X124.525 Y97.763 E13.72934
G1 X125.233 Y97.803 E13.75293
G1 X126.255 Y97.93 E13.78718
G1 X126.889 Y98.049 E13.80863
G1 X127.572 Y98.273 E13.83254
G1 X128.546 Y98.669 E13.86751
G1 X129.127 Y98.948 E13.88895
G1 X129.729 Y99.342 E13.91288
G1 X130.56 Y99.972 E13.94756
G1 X131.049 Y100.393 E13.96902
G1 X131.528 Y100.929 E13.99293
G1 X132.175 Y101.763 E14.02804
G1 X132.537 Y102.296 E14.04947
G1 X132.832 Y102.869 E14.07091
G1 X133.052 Y103.475 E14.09235
G1 X133.197 Y104.103 E14.11379
G1 X133.241 Y104.441 E14.12512
G1 X134 Y112.164 E14.38323
G1 X134.025 Y112.676 E14.40028
G1 X134.016 Y127.227 E14.88425
G1 X133.976 Y127.871 E14.90571
G1 X133.856 Y128.504 E14.92713
G1 X133.659 Y129.118 E14.94858
G1 X133.24 Y129.957 E14.97977
G1 X132.243 Y131.571 E15.04287
G1 X132.031 Y131.887 E15.05553
G1 X130.029 Y134.653 E15.16909
G1 X129.496 Y135.279 E15.19644
G1 X127.51 Y137.267 E15.2899
G1 X127.027 Y137.694 E15.31134
G1 X126.495 Y138.058 E15.33278
G1 X125.922 Y138.353 E15.35422
G1 X125.316 Y138.575 E15.37569
G1 X124.688 Y138.721 E15.39713
G1 X123.834 Y138.792 E15.42563
G1 X107.834 Y138.8 E15.95779
G1 X107.19 Y138.76 E15.97926
G1 X106.557 Y138.641 E16.00068
G1 X105.943 Y138.445 E16.02211
G1 X105.358 Y138.174 E16.04356
G1 X104.811 Y137.833 E16.065
G1 X104.172 Y137.295 E16.09278
G1 X102.648 Y135.786 E16.16411
G1 X102.569 Y135.706 E16.16785
G1 X102.098 Y135.219 E16.19039
G1 X101.68 Y134.729 E16.21181
G1 X101.325 Y134.19 E16.23327
G1 X101.039 Y133.612 E16.25472
G1 X100.757 Y132.72 E16.28584
G1 X99.757 Y128.168 E16.44085
G1 X99.658 Y127.531 E16.46229
G1 X99.636 Y127.031 E16.47894
G1 X99.642 Y125.56 E16.52786
G1 X99.735 Y124.602 E16.55987
G1 X100.731 Y119.405 E16.73587
G1 X100.891 Y118.781 E16.7573
G1 X101.128 Y118.181 E16.77876
G1 X101.529 Y117.473 E16.80582
G1 X102.73 Y115.695 E16.87718
G1 X103.123 Y115.185 E16.8986
G1 X103.72 Y114.603 E16.92633
M204 S5000
M205 X30 Y30
G1 F2400 E11.92633
;MESH:Curiosity_Rover_Head6R.stl
G0 F3600 X121.328 Y103.635
G0 X122.494 Y104.344
G0 X126.132 Y104.044
G0 X126.171 Y103.953
M204 S500
M205 X20 Y20
;TYPE:WALL-INNER
G1 F2400 E16.92633
G1 F1800 X126.312 Y104.011 E16.9314
G1 X126.753 Y104.35 E16.9499
G1 X126.312 Y104.35 E16.95552
G1 X126.159 Y104.35 E16.96023
G1 X123.067 Y104.35 E17.06307
G1 X122.927 Y104.35 E17.06773
G1 X122.476 Y104.35 E17.08273
G1 X122.927 Y104.006 E17.09244
G1 X123.056 Y103.953 E17.09676
G1 X123.739 Y103.67 E17.12135
G1 X124.614 Y103.555 E17.1507
G1 X125.489 Y103.67 E17.18006
G1 X126.171 Y103.953 E17.20461
M204 S5000
M205 X30 Y30
G0 F3600 X126.132 Y104.044
G0 X121.885 Y104.49
G0 X121.807 Y104.428
M204 S500
M205 X20 Y20
;TYPE:WALL-OUTER
G1 F1800 X121.941 Y104.255 E17.21189
G1 X122.729 Y103.655 E17.24483
G1 X123.634 Y103.28 E17.27742
G1 X124.614 Y103.151 E17.31029
G1 X125.594 Y103.28 E17.34317
G1 X126.513 Y103.661 E17.37626
G1 X127.299 Y104.265 E17.40923
G1 X127.425 Y104.428 E17.41608
G1 X127.672 Y104.75 E17.42958
G1 X127.267 Y104.75 E17.437
G1 X127.266 Y104.75 E17.43704
G1 X121.965 Y104.75 E17.61335
G1 X121.964 Y104.75 E17.61338
G1 X121.557 Y104.75 E17.62692
G1 X121.807 Y104.428 E17.63439
M204 S5000
M205 X30 Y30
G0 F3600 X121.929 Y104.27
G0 X122.007 Y104.332
G0 X124.517 Y103.96
M204 S500
M205 X20 Y20
;TYPE:SKIN
G1 F1800 X124.614 Y103.947 E17.63764
G1 X124.71 Y103.96 E17.64087
G1 X124.517 Y103.96 E17.64729
M204 S5000
M205 X30 Y30
G0 F3600 X124.518 Y103.95
G1 F2400 E12.64729
G0 F3600 X126.735 Y104.344
G0 X126.735 Y106.57
G0 X127.408 Y107.28
G0 X127.478 Y107.35
M204 S500
M205 X20 Y20
;TYPE:WALL-INNER
G1 F2400 E17.64729
G1 F1800 X121.75 Y107.35 E17.8378
G1 X121.75 Y106.55 E17.86441
G1 X127.478 Y106.55 E18.05492
G1 X127.478 Y107.35 E18.08153
M204 S5000
M205 X30 Y30
G0 F3600 X127.878 Y107.75
M204 S500
M205 X20 Y20
;TYPE:WALL-OUTER
G1 F1800 X121.35 Y107.75 E18.29865
G1 X121.35 Y106.15 E18.35187
G1 X127.878 Y106.15 E18.56899
G1 X127.878 Y107.75 E18.62221
M204 S5000
M205 X30 Y30
G0 F3600 X127.678 Y107.75
G0 X127.088 Y106.96
M204 S500
M205 X20 Y20
;TYPE:SKIN
G1 F1800 X122.14 Y106.96 E18.78678
G1 X122.14 Y106.94 E18.78744
G1 X127.088 Y106.94 E18.95201
G1 X127.088 Y106.96 E18.95268
M204 S5000
M205 X30 Y30
G0 F3600 X127.078 Y106.95
G1 F2400 E13.95268
G0 F3600 X126.134 Y107.33
G0 X126.134 Y109.57
G0 X126.134 Y109.854
G0 X126.171 Y109.947
M204 S500
M205 X20 Y20
;TYPE:WALL-INNER
G1 F2400 E18.95268
G1 F1800 X125.489 Y110.23 E18.97724
G1 X124.614 Y110.345 E19.00659
G1 X123.739 Y110.23 E19.03594
G1 X123.057 Y109.947 E19.0605
G1 X122.916 Y109.889 E19.06557
G1 X122.475 Y109.55 E19.08407
G1 X122.916 Y109.55 E19.0897
G1 X123.069 Y109.55 E19.0944
G1 X126.159 Y109.55 E19.19718
G1 X126.312 Y109.55 E19.20227
G1 X126.753 Y109.55 E19.21694
G1 X126.312 Y109.889 E19.22639
G1 X126.171 Y109.947 E19.23108
M204 S5000
M205 X30 Y30
G0 F3600 X126.134 Y109.854
G0 X127.346 Y109.41
G0 X127.425 Y109.472
M204 S500
M205 X20 Y20
;TYPE:WALL-OUTER
G1 F1800 X127.299 Y109.635 E19.23793
G1 X126.513 Y110.239 E19.2709
G1 X125.594 Y110.62 E19.30399
G1 X124.614 Y110.749 E19.33686
G1 X123.634 Y110.62 E19.36974
G1 X122.715 Y110.239 E19.40283
G1 X121.929 Y109.635 E19.4358
G1 X121.803 Y109.472 E19.44265
G1 X121.556 Y109.15 E19.45615
G1 X121.961 Y109.15 E19.46357
G1 X121.962 Y109.15 E19.46361
G1 X127.266 Y109.15 E19.64002
G1 X127.267 Y109.15 E19.64005
G1 X127.672 Y109.15 E19.65352
G1 X127.425 Y109.472 E19.66096
M204 S5000
M205 X30 Y30
G0 F3600 X127.303 Y109.63
G0 X127.228 Y109.564
G0 X124.71 Y109.94
M204 S500
M205 X20 Y20
;TYPE:SKIN
G1 F1800 X124.614 Y109.953 E19.66418
G1 X124.518 Y109.94 E19.66741
G1 X124.71 Y109.94 E19.67379
M204 S5000
M205 X30 Y30
G0 F3600 X124.709 Y109.95
G1 F2400 E14.67379
G0 F3600 X123.747 Y110.212
G0 X123.747 Y112.944
G0 X123.757 Y112.914
G0 X123.743 Y112.951
G0 X122.268 Y116.764
G0 X122.198 Y116.694
M204 S500
M205 X20 Y20
;TYPE:WALL-INNER
G1 F2400 E19.67379
G1 F1800 X122.197 Y113.994 E19.76359
G1 X116.197 Y113.996 E19.96316
G1 X116.197 Y113.655 E19.9745
G1 X122.196 Y113.652 E20.14484
G1 X122.197 Y112.944 E20.16839
G1 X128.026 Y112.943 E20.36226
G1 X128.226 Y112.943 E20.36892
G1 X128.226 Y113.143 E20.37322
G1 X128.226 Y126.628 E20.82174
G1 X127.226 Y126.628 E20.855
G1 X127.226 Y128.246 E20.90881
G1 X125.226 Y128.246 E20.97533
G1 X125.226 Y131.362 E21.07897
G1 X123.578 Y133.01 E21.15649
G1 X108.074 Y133.01 E21.67215
G1 X106.426 Y131.362 E21.74967
G1 X106.426 Y126.45 E21.91304
G1 X105.426 Y126.45 E21.9463
G1 X105.426 Y126.21 E21.95428
G1 X106.426 Y126.21 E21.97424
G1 X106.426 Y120.566 E22.16196
G1 X106.853 Y119.931 E22.18741
G1 X107.018 Y119.685 E22.19726
G1 X107.183 Y119.931 E22.20302
G1 X107.611 Y120.566 E22.22849
G1 X107.611 Y122.755 E22.3013
G1 X112.478 Y122.755 E22.46318
G1 X112.478 Y126.21 E22.57809
G1 X119.198 Y126.21 E22.8016
G1 X119.199 Y121.945 E22.94345
G1 X122.199 Y121.944 E23.04323
G1 X122.198 Y117.036 E23.20647
G1 X116.198 Y117.035 E23.40603
G1 X116.198 Y116.694 E23.41738
G1 X122.198 Y116.694 E23.58775
M204 S5000
M205 X30 Y30
G0 F3600 X122.268 Y116.764
G0 X127.126 Y127.028
G0 X127.626 Y127.028
M204 S500
M205 X20 Y20
;TYPE:WALL-OUTER
G1 F1800 X127.626 Y128.646 E23.64157
G1 X125.626 Y128.646 E23.70809
G1 X125.626 Y131.528 E23.80394
G1 X123.744 Y133.41 E23.89246
G1 X107.908 Y133.41 E24.41917
G1 X106.026 Y131.528 E24.5077
G1 X106.026 Y126.85 E24.66329
G1 X105.026 Y126.85 E24.69655
G1 X105.026 Y125.81 E24.73114
G1 X106.026 Y125.81 E24.7644
G1 X106.026 Y120.444 E24.94287
G1 X106.853 Y119.215 E24.99214
G1 X107.018 Y118.969 E25.00199
G1 X107.183 Y119.215 E25.00775
G1 X108.011 Y120.444 E25.05704
