;FLAVOR:Marlin
;TIME:4919
;Filament used: 3.22557m
;Layer height: 0.2
;MINX:48.457
;MINY:66.177
;MINZ:0.2
;MAXX:171.544
;MAXY:153.809
;MAXZ:18.6
;Generated with Cura_SteamEngine 4.2.1
M140 S50
M105
M190 S50
M104 S200
M105
M109 S200
M82 ;absolute extrusion mode
M201 X500.00 Y500.00 Z100.00 E5000.00 ;Setup machine max acceleration
M203 X500.00 Y500.00 Z10.00 E50.00 ;Setup machine max feedrate
M204 P500.00 R1000.00 T500.00 ;Setup Print/Retract/Travel acceleration
M205 X8.00 Y8.00 Z0.40 E5.00 ;Setup Jerk
M220 S100 ;Reset Feedrate
M221 S100 ;Reset Flowrate

G28 ;Home

G92 E0 ;Reset Extruder
G1 Z2.0 F3000 ;Move Z Axis up
G1 X2.1 Y20 Z0.28 F5000.0 ;Move to start position
G1 X2.1 Y200.0 Z0.28 F1500.0 E15 ;Draw the first line
G1 X2.4 Y200.0 Z0.28 F5000.0 ;Move to side a little
G1 X2.4 Y20 Z0.28 F1500.0 E30 ;Draw the second line
G92 E0 ;Reset Extruder
G1 Z2.0 F3000 ;Move Z Axis up
M141 S28
G92 E0
G92 E0
G1 F2700 E-5
;LAYER_COUNT:93
;LAYER:0
M107
G0 F6000 X62.11 Y82.11 Z0.2
;TYPE:SKIRT
G1 F2700 E0
G1 F1200 X63.012 Y81.529 E0.03925
G1 X63.396 Y81.306 E0.0555
G1 X63.936 Y81.011 E0.07801
G1 X64.415 Y80.766 E0.0977
G1 X64.686 Y80.632 E0.10876
G1 X64.976 Y80.493 E0.12052
G1 X67.344 Y79.317 E0.21725
G1 X69.514 Y78.161 E0.30721
G1 X71.729 Y76.899 E0.40048
G1 X73.835 Y75.619 E0.49064
G1 X76.173 Y74.11 E0.59245
G1 X76.807 Y73.729 E0.61951
G1 X77.194 Y73.513 E0.63573
G1 X78.051 Y73.08 E0.67086
G1 X78.942 Y72.72 E0.70602
G1 X79.859 Y72.436 E0.74114
G1 X80.636 Y72.258 E0.7703
G1 X81.197 Y72.15 E0.7912
G1 X82.147 Y72.008 E0.82635
G1 X83.106 Y71.945 E0.86151
G1 X83.884 Y71.953 E0.88997
G1 X84.637 Y71.986 E0.91755
G1 X84.785 Y71.994 E0.92297
G1 X85.971 Y72.061 E0.96643
G1 X88.483 Y72.134 E1.05838
G1 X90.977 Y72.136 E1.14962
G1 X93.493 Y72.066 E1.24171
G1 X95.998 Y71.925 E1.3335
G1 X98.488 Y71.715 E1.42492
G1 X100.956 Y71.437 E1.51579
G1 X103.458 Y71.082 E1.60824
G1 X105.892 Y70.666 E1.69859
G1 X108.341 Y70.176 E1.78996
G1 X111.769 Y69.371 E1.91879
G1 X118.758 Y67.586 E2.1827
G1 X118.906 Y67.549 E2.18828
G1 X119.606 Y67.38 E2.21463
G1 X120.913 Y67.143 E2.26322
G1 X121.69 Y67.048 E2.29186
G1 X121.875 Y67.027 E2.29868
G1 X128.639 Y66.31 E2.54753
G1 X128.801 Y66.294 E2.55349
G1 X129.499 Y66.23 E2.57913
G1 X130.478 Y66.182 E2.61499
G1 X131.25 Y66.177 E2.64324
G1 X131.436 Y66.178 E2.65004
G1 X135.783 Y66.22 E2.80909
G1 X135.939 Y66.222 E2.8148
G1 X136.673 Y66.239 E2.84166
G1 X137.632 Y66.301 E2.87682
G1 X138.92 Y66.513 E2.92458
G1 X139.153 Y66.565 E2.93331
G1 X139.46 Y66.638 E2.94485
G1 X139.702 Y66.699 E2.95399
G1 X139.8 Y66.724 E2.95769
G1 X145.495 Y68.213 E3.17305
G1 X145.632 Y68.25 E3.17824
G1 X146.262 Y68.423 E3.20214
G1 X147.177 Y68.716 E3.23729
G1 X147.885 Y69.002 E3.26523
G1 X148.895 Y69.45 E3.30565
G1 X149.101 Y69.544 E3.31394
G1 X151.423 Y70.629 E3.40771
G1 X151.555 Y70.691 E3.41304
G1 X152.22 Y71.012 E3.44006
G1 X153.067 Y71.466 E3.47522
G1 X153.836 Y71.962 E3.5087
G1 X154.32 Y72.302 E3.53034
G1 X154.474 Y72.412 E3.53726
G1 X157.088 Y74.313 E3.65551
G1 X157.128 Y74.342 E3.65732
G1 X160.239 Y76.625 E3.7985
G1 X160.368 Y76.721 E3.80438
G1 X160.957 Y77.166 E3.83139
G1 X161.699 Y77.777 E3.86656
G1 X162.388 Y78.447 E3.90172
G1 X163.045 Y79.207 E3.93847
G1 X163.171 Y79.366 E3.9459
G1 X163.35 Y79.597 E3.95659
G1 X163.535 Y79.843 E3.96785
G1 X163.602 Y79.933 E3.97195
G1 X165.028 Y81.868 E4.0599
G1 X165.13 Y82.008 E4.06623
G1 X165.537 Y82.578 E4.09186
G1 X165.865 Y83.063 E4.11328
G1 X166.041 Y83.338 E4.12522
G1 X166.26 Y83.694 E4.14052
G1 X167.845 Y86.38 E4.25462
G1 X167.927 Y86.521 E4.26059
G1 X168.288 Y87.153 E4.28722
G1 X168.729 Y88.007 E4.32238
G1 X169.098 Y88.894 E4.35753
G1 X169.282 Y89.435 E4.37844
G1 X169.447 Y89.963 E4.39868
G1 X169.508 Y90.166 E4.40643
G1 X170.894 Y94.905 E4.58708
G1 X170.936 Y95.051 E4.59263
G1 X171.116 Y95.698 E4.6172
G1 X171.334 Y96.633 E4.65233
G1 X171.475 Y97.584 E4.6875
G1 X171.537 Y98.645 E4.72639
G1 X171.544 Y99.198 E4.74662
G1 X171.543 Y99.569 E4.76019
G1 X171.415 Y106.143 E5.00076
G1 X171.415 Y106.154 E5.00116
G1 X171.16 Y118.6 E5.45661
G1 X171.155 Y118.77 E5.46283
G1 X171.132 Y119.423 E5.48673
G1 X171.058 Y120.381 E5.52189
G1 X170.808 Y121.761 E5.5732
G1 X170.548 Y122.823 E5.6132
G1 X170.489 Y123.055 E5.62196
G1 X169.89 Y125.299 E5.70693
G1 X169.847 Y125.453 E5.71278
G1 X169.652 Y126.145 E5.73909
G1 X169.354 Y127.058 E5.77422
G1 X169.088 Y127.707 E5.79989
G1 X168.74 Y128.489 E5.8312
G1 X168.66 Y128.664 E5.83824
G1 X167.666 Y130.801 E5.92447
G1 X167.601 Y130.939 E5.93005
G1 X167.317 Y131.529 E5.95401
G1 X166.865 Y132.377 E5.98916
G1 X166.549 Y132.883 E6.01099
G1 X166.341 Y133.198 E6.0248
G1 X166.106 Y133.541 E6.04001
G1 X163.861 Y136.688 E6.18144
G1 X163.764 Y136.821 E6.18747
G1 X163.331 Y137.41 E6.21421
G1 X162.73 Y138.16 E6.24937
G1 X162.069 Y138.857 E6.28452
G1 X161.649 Y139.245 E6.30544
G1 X161.246 Y139.599 E6.32506
G1 X161.09 Y139.733 E6.33259
G1 X156.329 Y143.767 E6.56089
G1 X156.214 Y143.864 E6.5664
G1 X155.659 Y144.322 E6.59272
G1 X154.843 Y144.937 E6.63011
G1 X154.139 Y145.42 E6.66134
G1 X153.995 Y145.517 E6.66769
G1 X151.291 Y147.313 E6.78646
G1 X151.165 Y147.395 E6.79196
G1 X150.626 Y147.743 E6.81543
G1 X149.798 Y148.23 E6.85057
G1 X149.125 Y148.561 E6.87801
G1 X148.113 Y149.019 E6.91865
G1 X147.903 Y149.112 E6.92706
G1 X143.022 Y151.205 E7.12136
G1 X142.874 Y151.267 E7.12723
G1 X142.28 Y151.512 E7.15074
G1 X141.378 Y151.841 E7.18587
G1 X140.451 Y152.094 E7.22102
G1 X139.714 Y152.237 E7.24849
G1 X138.695 Y152.401 E7.28625
G1 X138.465 Y152.436 E7.29476
G1 X130.023 Y153.621 E7.60665
G1 X129.852 Y153.644 E7.61296
G1 X129.165 Y153.73 E7.63829
G1 X128.208 Y153.809 E7.67343
G1 X126.942 Y153.792 E7.71975
G1 X126.636 Y153.771 E7.73097
G1 X126.244 Y153.737 E7.74536
G1 X120.474 Y153.143 E7.95758
G1 X120.308 Y153.125 E7.96369
G1 X119.577 Y153.039 E7.99062
G1 X118.308 Y152.817 E8.03775
G1 X118.135 Y152.777 E8.04425
G1 X115.596 Y152.22 E8.13935
G1 X113.112 Y151.747 E8.23186
G1 X110.663 Y151.356 E8.3226
G1 X108.164 Y151.027 E8.41482
G1 X105.693 Y150.772 E8.5057
G1 X103.207 Y150.587 E8.5969
G1 X100.685 Y150.471 E8.68927
G1 X98.186 Y150.427 E8.78072
G1 X95.697 Y150.452 E8.87178
G1 X93.195 Y150.55 E8.96339
G1 X90.704 Y150.716 E9.05473
G1 X87.729 Y151.007 E9.16409
G1 X86.769 Y151.061 E9.19927
G1 X85.67 Y151.024 E9.2395
G1 X85.449 Y151.006 E9.24762
G1 X84.556 Y150.898 E9.28052
G1 X84.089 Y150.823 E9.29783
G1 X83.148 Y150.631 E9.33297
G1 X82.226 Y150.362 E9.3681
G1 X81.329 Y150.017 E9.40327
G1 X80.379 Y149.552 E9.44196
G1 X79.519 Y149.081 E9.47784
G1 X77.222 Y147.864 E9.57294
G1 X74.98 Y146.757 E9.66442
G1 X72.719 Y145.717 E9.75547
G1 X70.401 Y144.732 E9.84762
G1 X68.071 Y143.816 E9.93922
G1 X65.666 Y142.95 E10.03274
G1 X64.526 Y142.567 E10.07674
G1 X63.629 Y142.224 E10.11187
G1 X62.764 Y141.806 E10.14702
G1 X61.936 Y141.319 E10.18217
G1 X61.063 Y140.694 E10.22145
G1 X60.521 Y140.267 E10.24669
G1 X60.089 Y139.909 E10.26722
G1 X59.613 Y139.495 E10.2903
G1 X58.915 Y138.835 E10.32544
G1 X58.274 Y138.12 E10.36058
G1 X57.695 Y137.353 E10.39574
G1 X57.182 Y136.541 E10.43088
G1 X56.738 Y135.689 E10.46603
G1 X56.333 Y134.709 E10.50482
G1 X56.208 Y134.363 E10.51828
G1 X56.096 Y134.038 E10.53086
G1 X55.994 Y133.727 E10.54283
G1 X55.809 Y133.106 E10.56654
G1 X55.64 Y132.472 E10.59054
G1 X54.928 Y129.945 E10.6866
G1 X54.193 Y127.588 E10.77693
G1 X53.376 Y125.217 E10.86868
G1 X52.491 Y122.863 E10.96069
G1 X51.546 Y120.547 E11.0522
G1 X50.531 Y118.251 E11.14405
G1 X50.157 Y117.458 E11.17612
G1 X50.072 Y117.274 E11.18354
G1 X49.759 Y116.578 E11.21146
G1 X49.566 Y116.122 E11.22958
G1 X49.307 Y115.473 E11.25514
G1 X48.988 Y114.567 E11.29028
G1 X48.746 Y113.637 E11.32544
G1 X48.582 Y112.691 E11.36057
G1 X48.499 Y111.772 E11.39433
G1 X48.477 Y111.332 E11.41045
G1 X48.464 Y110.899 E11.42629
G1 X48.457 Y110.334 E11.44697
G1 X48.485 Y109.374 E11.48211
G1 X48.593 Y108.419 E11.51727
G1 X48.78 Y107.477 E11.5524
G1 X48.961 Y106.814 E11.57755
G1 X49.047 Y106.533 E11.5883
G1 X49.192 Y106.092 E11.60528
G1 X49.463 Y105.319 E11.63525
G1 X49.818 Y104.427 E11.67038
G1 X50.284 Y103.499 E11.70837
G1 X50.648 Y102.849 E11.73563
G1 X50.739 Y102.689 E11.74236
G1 X51.365 Y101.611 E11.78797
G1 X52.568 Y99.401 E11.88003
G1 X53.679 Y97.212 E11.96984
G1 X54.772 Y94.902 E12.06333
G1 X55.764 Y92.64 E12.1537
G1 X56.704 Y90.32 E12.24528
G1 X57.349 Y88.59 E12.31283
G1 X57.4 Y88.456 E12.31808
G1 X57.547 Y88.076 E12.33299
G1 X57.931 Y87.195 E12.36815
G1 X58.583 Y86.03 E12.41699
G1 X58.786 Y85.712 E12.43079
G1 X59.112 Y85.229 E12.45211
G1 X59.406 Y84.816 E12.47066
G1 X59.995 Y84.057 E12.50581
G1 X60.645 Y83.35 E12.54095
G1 X61.352 Y82.699 E12.57611
G1 X62.11 Y82.11 E12.61123
G0 F6000 X62.425 Y82.426
G1 F1200 X63.233 Y81.909 E12.64632
G1 X63.617 Y81.686 E12.66257
G1 X64.136 Y81.403 E12.6842
G1 X64.615 Y81.158 E12.70388
G1 X64.876 Y81.029 E12.71453
G1 X65.221 Y80.864 E12.72853
G1 X67.509 Y79.728 E12.82198
G1 X69.755 Y78.531 E12.9151
G1 X71.922 Y77.296 E13.00635
G1 X74.075 Y75.988 E13.09852
G1 X76.411 Y74.48 E13.20025
G1 X77.021 Y74.114 E13.22627
G1 X77.408 Y73.898 E13.24249
G1 X78.25 Y73.474 E13.27698
G1 X79.124 Y73.123 E13.31144
G1 X80.025 Y72.847 E13.34591
G1 X80.72 Y72.69 E13.37198
G1 X81.281 Y72.582 E13.39288
G1 X82.212 Y72.443 E13.42732
G1 X83.153 Y72.384 E13.46182
G1 X83.865 Y72.393 E13.48787
G1 X84.618 Y72.426 E13.51544
G1 X84.76 Y72.433 E13.52065
G1 X85.969 Y72.502 E13.56495
G1 X88.47 Y72.574 E13.65649
G1 X90.988 Y72.576 E13.74861
G1 X93.531 Y72.506 E13.84169
G1 X95.988 Y72.367 E13.93172
G1 X98.541 Y72.152 E14.02546
G1 X101.025 Y71.872 E14.11691
G1 X103.492 Y71.522 E14.20808
G1 X106.013 Y71.091 E14.30165
G1 X108.413 Y70.611 E14.39119
G1 X111.872 Y69.798 E14.52119
G1 X118.867 Y68.012 E14.78532
G1 X119.009 Y67.977 E14.79068
G1 X119.709 Y67.808 E14.81702
G1 X120.967 Y67.58 E14.8638
G1 X121.744 Y67.485 E14.89244
G1 X121.921 Y67.465 E14.89895
G1 X128.685 Y66.748 E15.14781
G1 X128.841 Y66.732 E15.15354
G1 X129.539 Y66.668 E15.17919
G1 X130.481 Y66.622 E15.21369
G1 X131.253 Y66.617 E15.24194
G1 X131.432 Y66.618 E15.24849
G1 X135.779 Y66.66 E15.40754
G1 X135.929 Y66.662 E15.41302
G1 X136.663 Y66.679 E15.43989
G1 X137.603 Y66.741 E15.47435
G1 X138.824 Y66.943 E15.51963
G1 X139.057 Y66.995 E15.52836
G1 X139.352 Y67.065 E15.53946
G1 X139.594 Y67.126 E15.54859
G1 X139.689 Y67.15 E15.55217
G1 X145.384 Y68.639 E15.76754
G1 X145.515 Y68.674 E15.7725
G1 X146.145 Y68.847 E15.7964
G1 X147.042 Y69.135 E15.83087
G1 X147.707 Y69.404 E15.85711
G1 X148.717 Y69.852 E15.89754
G1 X148.915 Y69.943 E15.90551
G1 X151.237 Y71.028 E15.99928
G1 X151.363 Y71.088 E16.00438
G1 X152.028 Y71.409 E16.0314
G1 X152.859 Y71.854 E16.06589
G1 X153.584 Y72.322 E16.09746
G1 X154.068 Y72.662 E16.1191
G1 X154.216 Y72.768 E16.12576
G1 X156.83 Y74.669 E16.24401
G1 X156.868 Y74.697 E16.24574
G1 X159.979 Y76.98 E16.38692
G1 X160.103 Y77.073 E16.39259
G1 X160.692 Y77.518 E16.4196
G1 X161.419 Y78.117 E16.45406
G1 X162.093 Y78.776 E16.48855
G1 X162.701 Y79.48 E16.52258
G1 X162.827 Y79.639 E16.53
G1 X162.998 Y79.861 E16.54025
G1 X163.183 Y80.107 E16.55152
G1 X163.248 Y80.194 E16.55549
G1 X164.674 Y82.129 E16.64343
G1 X164.772 Y82.264 E16.64953
G1 X165.179 Y82.834 E16.67516
G1 X165.494 Y83.301 E16.69577
G1 X165.67 Y83.576 E16.70771
G1 X165.881 Y83.918 E16.72241
G1 X167.466 Y86.604 E16.83652
G1 X167.544 Y86.74 E16.84225
G1 X167.905 Y87.372 E16.86888
G1 X168.338 Y88.209 E16.90336
G1 X168.697 Y89.079 E16.93779
G1 X168.862 Y89.566 E16.95661
G1 X169.027 Y90.094 E16.97685
G1 X169.086 Y90.289 E16.9843
G1 X170.472 Y95.028 E17.16494
G1 X170.512 Y95.169 E17.17031
G1 X170.692 Y95.816 E17.19488
G1 X170.906 Y96.733 E17.22933
G1 X171.041 Y97.666 E17.26382
G1 X171.097 Y98.651 E17.29991
G1 X171.104 Y99.204 E17.32015
G1 X171.103 Y99.56 E17.33317
G1 X170.975 Y106.134 E17.57374
G1 X170.975 Y106.145 E17.57414
G1 X170.72 Y118.591 E18.02958
G1 X170.715 Y118.755 E18.03559
G1 X170.692 Y119.408 E18.05949
G1 X170.619 Y120.347 E18.09395
G1 X170.381 Y121.657 E18.14266
G1 X170.121 Y122.719 E18.18267
G1 X170.063 Y122.942 E18.1911
G1 X169.464 Y125.186 E18.27607
G1 X169.424 Y125.334 E18.28168
G1 X169.229 Y126.026 E18.30798
G1 X168.935 Y126.921 E18.34245
G1 X168.686 Y127.528 E18.36645
G1 X168.338 Y128.31 E18.39777
G1 X168.262 Y128.478 E18.40451
G1 X167.268 Y130.615 E18.49074
G1 X167.205 Y130.748 E18.49613
G1 X166.921 Y131.338 E18.52008
G1 X166.476 Y132.169 E18.55457
G1 X166.182 Y132.64 E18.57488
G1 X165.974 Y132.955 E18.58869
G1 X165.747 Y133.285 E18.60335
G1 X163.502 Y136.432 E18.74478
G1 X163.409 Y136.561 E18.7506
G1 X162.976 Y137.15 E18.77734
G1 X162.387 Y137.884 E18.81177
G1 X161.737 Y138.566 E18.84624
G1 X161.359 Y138.914 E18.86504
G1 X160.956 Y139.268 E18.88467
G1 X160.806 Y139.398 E18.89193
G1 X156.045 Y143.432 E19.12023
G1 X155.934 Y143.524 E19.12551
G1 X155.379 Y143.982 E19.15184
G1 X154.594 Y144.574 E19.18781
G1 X153.89 Y145.057 E19.21904
G1 X153.751 Y145.15 E19.22516
G1 X151.047 Y146.946 E19.34392
G1 X150.927 Y147.025 E19.34918
G1 X150.388 Y147.373 E19.37265
G1 X149.575 Y147.85 E19.40714
G1 X148.944 Y148.161 E19.43288
G1 X147.932 Y148.619 E19.47352
G1 X147.73 Y148.708 E19.48159
G1 X142.849 Y150.801 E19.6759
G1 X142.706 Y150.86 E19.68156
G1 X142.112 Y151.105 E19.70506
G1 X141.227 Y151.427 E19.73952
G1 X140.317 Y151.673 E19.77401
G1 X139.644 Y151.803 E19.79909
G1 X138.625 Y151.967 E19.83685
G1 X138.404 Y152 E19.84502
G1 X129.962 Y153.185 E20.15691
G1 X129.798 Y153.207 E20.16296
G1 X129.111 Y153.293 E20.18829
G1 X128.172 Y153.37 E20.22276
G1 X126.972 Y153.353 E20.26667
G1 X126.666 Y153.332 E20.27789
G1 X126.289 Y153.3 E20.29174
G1 X120.519 Y152.706 E20.50395
G1 X120.359 Y152.688 E20.50984
G1 X119.628 Y152.602 E20.53677
G1 X118.408 Y152.389 E20.58208
G1 X118.184 Y152.337 E20.5905
G1 X115.665 Y151.784 E20.68485
G1 X113.197 Y151.315 E20.77676
G1 X110.748 Y150.924 E20.8675
G1 X108.234 Y150.592 E20.96027
G1 X105.7 Y150.331 E21.05347
G1 X103.226 Y150.147 E21.14424
G1 X100.712 Y150.031 E21.23631
G1 X98.19 Y149.987 E21.3286
G1 X95.711 Y150.012 E21.4193
G1 X93.149 Y150.112 E21.5131
G1 X90.663 Y150.278 E21.60426
G1 X87.686 Y150.569 E21.7137
G1 X86.745 Y150.621 E21.74818
G1 X85.706 Y150.585 E21.78621
G1 X85.485 Y150.567 E21.79432
G1 X84.626 Y150.464 E21.82598
G1 X84.159 Y150.389 E21.84328
G1 X83.236 Y150.2 E21.87775
G1 X82.332 Y149.934 E21.91223
G1 X81.454 Y149.592 E21.9467
G1 X80.59 Y149.166 E21.98194
G1 X79.71 Y148.684 E22.01865
G1 X77.44 Y147.482 E22.11263
G1 X75.147 Y146.349 E22.2062
G1 X72.906 Y145.319 E22.29644
G1 X70.552 Y144.318 E22.39002
G1 X68.242 Y143.41 E22.48083
G1 X65.802 Y142.532 E22.57571
G1 X64.667 Y142.15 E22.61952
G1 X63.787 Y141.812 E22.65401
G1 X62.94 Y141.401 E22.68845
G1 X62.13 Y140.92 E22.72292
G1 X61.335 Y140.348 E22.75875
G1 X60.793 Y139.921 E22.784
G1 X60.378 Y139.577 E22.80372
G1 X59.902 Y139.163 E22.8268
G1 X59.218 Y138.515 E22.86127
G1 X58.591 Y137.812 E22.89573
G1 X58.026 Y137.058 E22.93021
G1 X57.528 Y136.258 E22.96468
G1 X57.099 Y135.42 E22.99912
G1 X56.746 Y134.56 E23.03314
G1 X56.621 Y134.214 E23.0466
G1 X56.514 Y133.901 E23.0587
G1 X56.412 Y133.59 E23.07067
G1 X56.234 Y132.993 E23.09346
G1 X56.04 Y132.266 E23.12099
G1 X55.357 Y129.844 E23.21306
G1 X54.608 Y127.442 E23.30511
G1 X53.791 Y125.069 E23.39693
G1 X52.898 Y122.693 E23.4898
G1 X51.962 Y120.401 E23.58038
G1 X50.929 Y118.065 E23.67383
G1 X50.555 Y117.271 E23.70594
G1 X50.474 Y117.094 E23.71306
G1 X50.161 Y116.398 E23.74098
G1 X49.975 Y115.959 E23.75842
G1 X49.716 Y115.31 E23.78399
G1 X49.404 Y114.421 E23.81846
G1 X49.169 Y113.509 E23.85292
G1 X49.012 Y112.58 E23.88739
G1 X48.939 Y111.75 E23.91787
G1 X48.917 Y111.31 E23.93399
G1 X48.904 Y110.894 E23.94922
G1 X48.897 Y110.329 E23.96989
G1 X48.925 Y109.387 E24.00437
G1 X49.033 Y108.451 E24.03884
G1 X49.22 Y107.528 E24.07329
G1 X49.382 Y106.943 E24.0955
G1 X49.468 Y106.662 E24.10625
G1 X49.607 Y106.238 E24.12258
G1 X49.878 Y105.465 E24.15255
G1 X50.227 Y104.59 E24.18701
G1 X50.668 Y103.714 E24.22289
G1 X51.032 Y103.064 E24.25015
G1 X51.12 Y102.91 E24.25664
G1 X51.755 Y101.817 E24.30289
G1 X52.939 Y99.642 E24.39349
G1 X54.083 Y97.388 E24.48597
G1 X55.166 Y95.097 E24.57868
