;FLAVOR:Marlin
;TIME:9111
;Filament used: 12.922m
;Layer height: 0.3
;Generated with Cura_SteamEngine 4.0.0
M140 S60
M105
M190 S60
M104 S200
M105
M109 S200
M82 ;absolute extrusion mode
; Ender 3 Custom Start G-code
G28 ; Home all axes
G92 E0 ; Reset Extruder
G1 Z2.0 F3000 ; Move Z Axis up little to prevent scratching of Heat Bed
G1 X0.1 Y20 Z0.3 F5000.0 ; Move to start position
G1 X0.1 Y200.0 Z0.3 F1500.0 E15 ; Draw the first line
G1 X0.4 Y200.0 Z0.3 F5000.0 ; Move to side a little
G1 X0.4 Y20 Z0.3 F1500.0 E30 ; Draw the second line
G92 E0 ; Reset Extruder
G1 Z2.0 F3000 ; Move Z Axis up little to prevent scratching of Heat Bed
; End of custom start GCode
G92 E0
G1 F2400 E-5
;LAYER_COUNT:116
;LAYER:0
M107
M204 S5000
M205 X30 Y30
G0 F3600 X81.894 Y62.254 Z0.2
M204 S500
M205 X20 Y20
;TYPE:SKIRT
G1 F2400 E0
G1 F1800 X82.481 Y61.549 E0.03051
G1 X85.692 Y58.218 E0.1844
G1 X86.217 Y57.732 E0.20819
G1 X86.792 Y57.307 E0.23197
G1 X87.411 Y56.949 E0.25576
G1 X87.918 Y56.72 E0.27426
G1 X91.786 Y55.169 E0.41287
G1 X92.464 Y54.94 E0.43667
G1 X93.163 Y54.788 E0.46046
G1 X93.607 Y54.734 E0.47534
G1 X97.971 Y54.35 E0.62104
G1 X98.296 Y54.329 E0.63188
G1 X102.543 Y54.172 E0.77323
G1 X102.812 Y54.168 E0.78218
G1 X108.334 Y54.196 E0.96584
G1 X113.666 Y53.972 E1.14334
G1 X117.921 Y53.582 E1.28546
G1 X118.636 Y53.556 E1.30925
G1 X119.13 Y53.586 E1.32571
G1 X131.421 Y54.793 E1.73648
G1 X132.128 Y54.902 E1.76027
G1 X132.768 Y55.073 E1.78231
G1 X140.234 Y57.491 E2.04333
G1 X140.901 Y57.749 E2.06711
G1 X141.535 Y58.08 E2.0909
G1 X142.116 Y58.471 E2.11419
G1 X142.682 Y58.898 E2.13777
G1 X143.228 Y59.36 E2.16156
G1 X143.726 Y59.888 E2.1857
G1 X146.126 Y62.742 E2.30973
G1 X149.74 Y66.656 E2.48692
G1 X153.033 Y69.866 E2.63987
G1 X169.361 Y85.043 E3.38131
G1 X169.857 Y85.559 E3.40512
G1 X170.292 Y86.126 E3.42889
G1 X170.662 Y86.739 E3.4527
G1 X170.96 Y87.389 E3.47649
G1 X171.097 Y87.772 E3.49001
G1 X171.477 Y88.954 E3.53131
G1 X171.657 Y89.646 E3.55509
G1 X171.76 Y90.354 E3.57889
G1 X171.782 Y91.065 E3.60255
G1 X171.624 Y97.717 E3.82386
G1 X171.825 Y103.829 E4.02725
G1 X171.822 Y104.321 E4.04362
G1 X171.512 Y111.381 E4.27866
G1 X171.441 Y112.092 E4.30242
G1 X171.29 Y112.792 E4.32624
G1 X171.148 Y113.244 E4.342
G1 X170.648 Y114.651 E4.39166
G1 X168.527 Y121.364 E4.62582
G1 X167.263 Y126.507 E4.80197
G1 X166.74 Y129.101 E4.88998
G1 X166.096 Y132.794 E5.01466
G1 X165.934 Y133.491 E5.03846
G1 X165.695 Y134.165 E5.06225
G1 X165.502 Y134.583 E5.07756
G1 X160.079 Y145.305 E5.47719
G1 X159.721 Y145.924 E5.50098
G1 X159.257 Y146.546 E5.52679
G1 X153.178 Y153.741 E5.84007
G1 X152.686 Y154.261 E5.86388
G1 X151.987 Y154.834 E5.89395
G1 X145.477 Y159.443 E6.15924
G1 X144.996 Y159.753 E6.17827
G1 X143.498 Y160.624 E6.23591
G1 X143.131 Y160.822 E6.24978
G1 X103.169 Y180.694 E7.73419
G1 X102.511 Y180.976 E7.758
G1 X101.827 Y181.183 E7.78176
G1 X101.343 Y181.281 E7.79819
G1 X100.806 Y181.368 E7.81628
G1 X100.094 Y181.442 E7.84009
G1 X99.379 Y181.437 E7.86387
G1 X98.669 Y181.352 E7.88766
G1 X97.972 Y181.189 E7.91146
G1 X97.347 Y180.969 E7.9335
G1 X96.484 Y180.614 E7.96454
G1 X95.839 Y180.305 E7.98833
G1 X95.232 Y179.926 E8.01213
G1 X94.589 Y179.408 E8.03959
G1 X90.669 Y175.805 E8.21668
G1 X88.214 Y173.742 E8.32333
G1 X66.666 Y156.235 E9.24675
G1 X66.259 Y155.874 E9.26484
G1 X65.297 Y154.946 E9.3093
G1 X64.81 Y154.422 E9.33309
G1 X64.386 Y153.846 E9.35688
G1 X64.028 Y153.227 E9.38067
G1 X63.742 Y152.571 E9.40447
G1 X63.53 Y151.888 E9.42825
G1 X63.407 Y151.265 E9.44938
G1 X63.235 Y150.088 E9.48894
G1 X63.172 Y149.376 E9.51271
G1 X63.188 Y148.661 E9.5365
G1 X63.231 Y148.269 E9.54962
G1 X72.178 Y84.865 E11.67933
G1 X72.211 Y84.653 E11.68647
G1 X73.172 Y79.178 E11.87135
G1 X73.335 Y78.481 E11.89516
G1 X73.584 Y77.785 E11.91975
G1 X76.378 Y71.196 E12.15779
G1 X76.815 Y70.348 E12.18952
G1 X81.011 Y63.51 E12.45635
G1 X81.271 Y63.12 E12.47194
G1 X81.894 Y62.254 E12.50743
M204 S5000
M205 X30 Y30
G0 F3600 X82.218 Y62.487
M204 S500
M205 X20 Y20
G1 F1800 X82.769 Y61.827 E12.53602
G1 X85.98 Y58.496 E12.68991
G1 X86.489 Y58.026 E12.71295
G1 X87.048 Y57.618 E12.73597
G1 X87.651 Y57.276 E12.75902
G1 X88.067 Y57.091 E12.77417
G1 X91.935 Y55.54 E12.91277
G1 X92.592 Y55.32 E12.93582
G1 X93.269 Y55.177 E12.95883
G1 X93.642 Y55.132 E12.97133
G1 X98.006 Y54.748 E13.11704
G1 X98.31 Y54.729 E13.12717
G1 X102.557 Y54.572 E13.26852
G1 X102.81 Y54.568 E13.27693
G1 X108.328 Y54.596 E13.46047
G1 X113.7 Y54.37 E13.6393
G1 X117.958 Y53.98 E13.78151
G1 X118.65 Y53.957 E13.80454
G1 X119.091 Y53.984 E13.81924
G1 X131.382 Y55.191 E14.23
G1 X132.067 Y55.298 E14.25306
G1 X132.645 Y55.454 E14.27297
G1 X140.111 Y57.872 E14.53399
G1 X140.756 Y58.123 E14.55701
G1 X141.368 Y58.447 E14.58005
G1 X141.876 Y58.79 E14.60043
G1 X142.442 Y59.217 E14.62401
G1 X142.969 Y59.665 E14.64702
G1 X143.42 Y60.145 E14.66893
G1 X145.83 Y63.01 E14.79345
G1 X149.449 Y66.93 E14.97089
G1 X152.765 Y70.162 E15.1249
G1 X169.089 Y85.336 E15.86618
G1 X169.568 Y85.836 E15.88921
G1 X169.987 Y86.388 E15.91226
G1 X170.339 Y86.985 E15.93531
G1 X170.716 Y87.895 E15.96807
G1 X171.096 Y89.077 E16.00937
G1 X171.27 Y89.747 E16.03239
G1 X171.365 Y90.433 E16.05543
G1 X171.382 Y91.056 E16.07616
G1 X171.223 Y97.721 E16.2979
G1 X171.425 Y103.842 E16.50159
G1 X171.422 Y104.303 E16.51693
G1 X171.112 Y111.363 E16.75197
G1 X171.042 Y112.052 E16.775
G1 X170.893 Y112.728 E16.79803
G1 X170.771 Y113.11 E16.81137
G1 X170.265 Y114.532 E16.86157
G1 X168.144 Y121.245 E17.09572
G1 X166.872 Y126.424 E17.27309
G1 X166.347 Y129.031 E17.36154
G1 X165.702 Y132.725 E17.48627
G1 X165.544 Y133.4 E17.50932
G1 X165.309 Y134.051 E17.53234
G1 X165.145 Y134.402 E17.54523
G1 X159.722 Y145.124 E17.94486
G1 X159.374 Y145.723 E17.96791
G1 X158.951 Y146.288 E17.99138
G1 X152.872 Y153.483 E18.30467
G1 X152.395 Y153.986 E18.32772
G1 X151.756 Y154.508 E18.35517
G1 X145.246 Y159.117 E18.62046
G1 X144.795 Y159.407 E18.6383
G1 X143.297 Y160.278 E18.69593
G1 X142.953 Y160.463 E18.70892
G1 X102.991 Y180.335 E20.19333
G1 X102.354 Y180.607 E20.21636
G1 X101.69 Y180.804 E20.2394
G1 X101.279 Y180.886 E20.25334
G1 X100.742 Y180.973 E20.27143
G1 X100.053 Y181.044 E20.29447
G1 X99.36 Y181.035 E20.31752
G1 X98.673 Y180.947 E20.34056
G1 X98.001 Y180.78 E20.36359
G1 X97.499 Y180.599 E20.38134
G1 X96.636 Y180.244 E20.41238
G1 X96.012 Y179.944 E20.4354
G1 X95.427 Y179.574 E20.45843
G1 X94.859 Y179.113 E20.48276
G1 X90.938 Y175.51 E20.65987
G1 X88.444 Y173.414 E20.76822
G1 X66.919 Y155.925 E21.69067
G1 X66.536 Y155.586 E21.70768
G1 X65.574 Y154.658 E21.75214
G1 X65.105 Y154.149 E21.77516
G1 X64.696 Y153.59 E21.7982
G1 X64.356 Y152.987 E21.82122
G1 X64.086 Y152.349 E21.84426
G1 X63.893 Y151.684 E21.86729
G1 X63.803 Y151.208 E21.88341
G1 X63.631 Y150.031 E21.92297
G1 X63.571 Y149.341 E21.946
G1 X63.627 Y148.325 E21.97985
G1 X72.574 Y84.921 E24.10957
G1 X72.605 Y84.722 E24.11626
G1 X73.566 Y79.247 E24.30115
G1 X73.725 Y78.573 E24.32418
G1 X73.952 Y77.942 E24.34648
G1 X76.746 Y71.353 E24.58452
G1 X77.156 Y70.557 E24.6143
G1 X81.352 Y63.719 E24.88114
G1 X81.595 Y63.353 E24.89575
G1 X82.218 Y62.487 E24.93124
M204 S5000
M205 X30 Y30
G0 F3600 X82.543 Y62.721
M204 S500
M205 X20 Y20
G1 F1800 X83.057 Y62.104 E24.95795
G1 X86.268 Y58.773 E25.11183
G1 X86.761 Y58.32 E25.1341
G1 X87.303 Y57.929 E25.15633
G1 X87.889 Y57.606 E25.17858
G1 X88.216 Y57.462 E25.19047
G1 X92.084 Y55.911 E25.32907
G1 X92.719 Y55.7 E25.35133
G1 X93.677 Y55.531 E25.38368
G1 X98.041 Y55.147 E25.52939
G1 X98.325 Y55.129 E25.53886
G1 X102.572 Y54.972 E25.68021
G1 X102.808 Y54.968 E25.68806
G1 X108.342 Y54.996 E25.87212
G1 X113.713 Y54.77 E26.05092
G1 X117.994 Y54.378 E26.1939
G1 X118.663 Y54.357 E26.21617
G1 X119.052 Y54.382 E26.22913
G1 X131.343 Y55.589 E26.6399
G1 X132.004 Y55.694 E26.66216
G1 X132.521 Y55.834 E26.67997
G1 X139.987 Y58.252 E26.94099
G1 X140.61 Y58.496 E26.96325
G1 X141.2 Y58.813 E26.98552
G1 X141.635 Y59.109 E27.00302
G1 X142.201 Y59.536 E27.0266
G1 X142.71 Y59.971 E27.04887
G1 X143.114 Y60.403 E27.06855
G1 X145.514 Y63.256 E27.19255
G1 X149.178 Y67.225 E27.37221
G1 X152.475 Y70.438 E27.52532
G1 X168.817 Y85.629 E28.26743
G1 X169.279 Y86.113 E28.28968
G1 X169.68 Y86.649 E28.31194
G1 X170.014 Y87.228 E28.33418
G1 X170.335 Y88.017 E28.36251
G1 X170.715 Y89.199 E28.4038
G1 X170.882 Y89.847 E28.42606
G1 X170.97 Y90.51 E28.4483
G1 X170.982 Y91.046 E28.46614
G1 X170.823 Y97.725 E28.68834
G1 X171.025 Y103.856 E28.89237
G1 X171.023 Y104.286 E28.90667
G1 X170.713 Y111.346 E29.14172
G1 X170.643 Y112.011 E29.16396
G1 X170.394 Y112.976 E29.1971
G1 X169.889 Y114.395 E29.2472
G1 X167.756 Y121.147 E29.48271
G1 X166.485 Y126.324 E29.66001
G1 X165.954 Y128.955 E29.74929
G1 X165.308 Y132.657 E29.87427
G1 X165.154 Y133.308 E29.89652
G1 X164.788 Y134.221 E29.92924
G1 X159.365 Y144.943 E30.32887
G1 X159.028 Y145.521 E30.35113
G1 X158.646 Y146.03 E30.37229
G1 X152.567 Y153.225 E30.68558
G1 X152.105 Y153.709 E30.70783
G1 X151.525 Y154.181 E30.73271
G1 X145.015 Y158.79 E30.998
G1 X144.594 Y159.061 E31.01466
G1 X143.096 Y159.932 E31.07229
G1 X142.774 Y160.105 E31.08445
G1 X102.812 Y179.977 E32.56885
G1 X102.197 Y180.239 E32.59109
G1 X101.554 Y180.425 E32.61335
G1 X101.215 Y180.491 E32.62484
G1 X100.678 Y180.578 E32.64293
G1 X100.012 Y180.645 E32.66519
G1 X99.343 Y180.633 E32.68745
G1 X98.68 Y180.541 E32.70971
G1 X98.033 Y180.37 E32.73197
G1 X97.652 Y180.229 E32.74548
G1 X96.789 Y179.874 E32.77652
G1 X96.186 Y179.583 E32.79879
G1 X95.623 Y179.222 E32.82103
G1 X95.13 Y178.818 E32.84223
G1 X91.208 Y175.214 E33.01939
G1 X88.698 Y173.104 E33.12845
G1 X67.171 Y155.614 E34.05097
G1 X66.814 Y155.298 E34.06683
G1 X65.852 Y154.37 E34.11129
G1 X65.399 Y153.878 E34.13353
G1 X65.008 Y153.335 E34.15578
G1 X64.685 Y152.749 E34.17804
G1 X64.434 Y152.129 E34.20029
G1 X64.258 Y151.484 E34.22252
G1 X64.199 Y151.15 E34.2338
G1 X64.027 Y149.973 E34.27337
G1 X63.97 Y149.306 E34.29563
G1 X64.023 Y148.381 E34.32645
G1 X72.97 Y84.977 E36.45617
G1 X72.999 Y84.791 E36.46243
G1 X73.96 Y79.316 E36.64731
G1 X74.115 Y78.665 E36.66957
G1 X74.32 Y78.098 E36.68962
G1 X77.114 Y71.509 E36.92766
G1 X77.497 Y70.766 E36.95546
G1 X81.693 Y63.928 E37.2223
G1 X81.92 Y63.587 E37.23593
G1 X82.543 Y62.721 E37.27141
M204 S5000
M205 X30 Y30
G0 F3600 X82.868 Y62.954
M204 S500
M205 X20 Y20
G1 F1800 X83.345 Y62.382 E37.29618
G1 X86.556 Y59.051 E37.45006
G1 X87.032 Y58.616 E37.47151
G1 X87.557 Y58.242 E37.49295
G1 X88.365 Y57.834 E37.52306
G1 X92.233 Y56.283 E37.66166
G1 X92.845 Y56.08 E37.68311
G1 X93.712 Y55.929 E37.71238
G1 X98.076 Y55.545 E37.85809
G1 X98.34 Y55.529 E37.86689
G1 X102.587 Y55.372 E38.00824
G1 X102.806 Y55.368 E38.01552
G1 X108.357 Y55.396 E38.20015
G1 X113.747 Y55.169 E38.37958
G1 X118.031 Y54.777 E38.52267
G1 X118.675 Y54.758 E38.54409
G1 X119.013 Y54.78 E38.55536
G1 X131.304 Y55.987 E38.96613
G1 X131.941 Y56.09 E38.98759
G1 X132.398 Y56.215 E39.00335
G1 X139.864 Y58.633 E39.26437
G1 X140.464 Y58.869 E39.28581
G1 X141.03 Y59.178 E39.30726
G1 X141.394 Y59.429 E39.32196
G1 X141.96 Y59.856 E39.34555
G1 X142.449 Y60.275 E39.36696
G1 X142.808 Y60.66 E39.38447
G1 X145.227 Y63.536 E39.50946
G1 X148.887 Y67.5 E39.68891
G1 X152.206 Y70.735 E39.84306
G1 X168.544 Y85.922 E40.58498
G1 X168.988 Y86.39 E40.60643
G1 X169.371 Y86.908 E40.62786
G1 X169.687 Y87.47 E40.64931
G1 X169.954 Y88.139 E40.67326
G1 X170.334 Y89.321 E40.71456
G1 X170.493 Y89.946 E40.73601
G1 X170.574 Y90.586 E40.75746
G1 X170.583 Y91.037 E40.77247
G1 X170.423 Y97.746 E40.99567
G1 X170.625 Y103.869 E41.19944
G1 X170.623 Y104.268 E41.21271
G1 X170.313 Y111.328 E41.44775
G1 X170.245 Y111.969 E41.46919
G1 X170.017 Y112.842 E41.4992
G1 X169.507 Y114.275 E41.54979
G1 X167.373 Y121.029 E41.78538
G1 X166.088 Y126.263 E41.96463
G1 X165.566 Y128.849 E42.05237
G1 X164.914 Y132.588 E42.17861
G1 X164.764 Y133.215 E42.20005
G1 X164.431 Y134.041 E42.22967
G1 X159.008 Y144.763 E42.62931
G1 X158.682 Y145.319 E42.65075
G1 X158.34 Y145.772 E42.66962
G1 X152.261 Y152.967 E42.98291
G1 X151.815 Y153.433 E43.00436
G1 X151.294 Y153.855 E43.02666
G1 X144.784 Y158.464 E43.29196
G1 X144.393 Y158.715 E43.30741
G1 X142.895 Y159.586 E43.36505
G1 X142.596 Y159.747 E43.37634
G1 X102.634 Y179.619 E44.86075
G1 X102.04 Y179.87 E44.8822
G1 X101.151 Y180.096 E44.91271
G1 X100.614 Y180.183 E44.9308
G1 X99.972 Y180.247 E44.95226
G1 X99.328 Y180.23 E44.97369
G1 X98.69 Y180.134 E44.99514
G1 X97.804 Y179.859 E45.026
G1 X96.941 Y179.504 E45.05704
G1 X96.361 Y179.222 E45.07849
G1 X95.82 Y178.871 E45.09994
G1 X95.401 Y178.524 E45.11803
G1 X91.463 Y174.905 E45.29592
G1 X89.004 Y172.838 E45.40276
G1 X67.423 Y155.304 E46.3276
G1 X67.092 Y155.01 E46.34232
G1 X66.13 Y154.082 E46.38678
G1 X65.694 Y153.607 E46.40822
G1 X65.321 Y153.081 E46.42967
G1 X65.016 Y152.514 E46.45108
G1 X64.783 Y151.912 E46.47255
G1 X64.595 Y151.092 E46.50054
G1 X64.423 Y149.915 E46.5401
G1 X64.369 Y149.272 E46.56156
G1 X64.419 Y148.436 E46.58941
G1 X73.366 Y85.032 E48.71913
G1 X73.393 Y84.86 E48.72492
G1 X74.354 Y79.385 E48.90981
G1 X74.505 Y78.758 E48.93126
G1 X74.689 Y78.254 E48.9491
G1 X77.483 Y71.665 E49.18714
G1 X77.838 Y70.975 E49.21295
G1 X82.034 Y64.137 E49.47979
G1 X82.245 Y63.82 E49.49245
G1 X82.868 Y62.954 E49.52794
M204 S5000
M205 X30 Y30
G1 F2400 E44.52794
;MESH:hornet-cookie-cutter.stl
G0 F3600 X86.41 Y65.739
G0 X87.363 Y66.653
G0 X82.895 Y73.836
G0 X80.118 Y80.244
G0 X79.009 Y86.531
G0 X79.004 Y95.344
G0 X80.204 Y100.113
G0 X82.798 Y105.837
G0 X85.063 Y108.983
G0 X85.132 Y108.913
M204 S500
M205 X20 Y20
;TYPE:WALL-INNER
G1 F2400 E49.52794
G1 F1800 X91.645 Y113.815 E49.79906
G1 X93.566 Y114.936 E49.87304
G1 X97.678 Y116.507 E50.01944
G1 X97.843 Y116.965 E50.03563
G1 X97.598 Y117.755 E50.06315
G1 X87.508 Y125.588 E50.488
G1 X81.206 Y131.844 E50.78334
G1 X75.641 Y140.085 E51.11408
G1 X72.832 Y143.595 E51.26361
G1 X70.728 Y147.949 E51.42444
G1 X70.267 Y148.905 E51.45974
G1 X70.2 Y149.166 E51.46871
G1 X70.177 Y149.252 E51.47167
G1 X70.163 Y149.157
G1 X70.199 Y148.896 E51.47274
G1 X70.347 Y147.845 E51.49356
G1 X78.649 Y88.927 E53.47254
G1 X78.97 Y86.644 E53.54922
G1 X78.99 Y86.525 E53.55324
G1 X80.047 Y80.437 E53.75875
G1 X80.129 Y80.243 E53.76576
G1 X82.82 Y73.911 E53.99459
G1 X82.872 Y73.826 E53.99791
G1 X87.313 Y66.625 E54.2793
G1 X87.414 Y66.519 E54.28417
G1 X90.661 Y63.137 E54.4401
G1 X90.835 Y63.068 E54.44633
G1 X90.717 Y63.189 E54.44671
G1 X87.45 Y66.552 E54.47091
G1 X87.38 Y66.665 E54.47143
G1 X82.927 Y73.859 E54.52139
G1 X82.892 Y73.941 E54.52178
G1 X80.156 Y80.253 E54.55212
G1 X80.122 Y80.449 E54.55283
G1 X79.048 Y86.534 E54.58704
G1 X79.048 Y86.644 E54.58754
G1 X79.047 Y88.95 E54.63344
G1 X79.043 Y95.34 E54.84598
G1 X80.241 Y100.1 E55.00923
G1 X82.832 Y105.818 E55.21803
G1 X85.132 Y108.913 E55.34628
M204 S5000
M205 X30 Y30
G0 F3600 X85.063 Y108.983
G0 X70.607 Y149.03
G0 X70.474 Y149.55
G0 X70.311 Y150.178
G0 X71.175 Y150.78
G0 X71.183 Y150.681
M204 S500
M205 X20 Y20
G1 F1800 X71.47 Y150.659 E55.35585
G1 X84.096 Y149.655 E55.77712
G1 X93.525 Y147.355 E56.09993
G1 X101.823 Y144.347 E56.39349
G1 X105.612 Y141.981 E56.54207
G1 X105.986 Y142.043 E56.55468
G1 X106.569 Y142.521 E56.57975
G1 X106.657 Y143.005 E56.59611
G1 X106.349 Y144.193 E56.63693
G1 X101.722 Y155.017 E57.02845
G1 X99.44 Y163.537 E57.32182
G1 X98.829 Y172.898 E57.63383
G1 X98.813 Y173.15 E57.64223
G1 X98.833 Y173.236 E57.64516
G1 X98.909 Y173.552 E57.65597
G1 X98.731 Y173.262 E57.65779
G1 X98.535 Y173.103 E57.66374
G1 X71.299 Y150.993 E58.83053
G1 X71.076 Y150.812 E58.83752
G1 X71.035 Y150.779 E58.83927
G1 X70.844 Y150.592 E58.84816
G1 X71.068 Y150.65 E58.84917
G1 X71.183 Y150.681 E58.85139
M204 S5000
M205 X30 Y30
G0 F3600 X71.175 Y150.78
G0 X99.298 Y174.278
G0 X99.807 Y174.433
G0 X139.521 Y153.954
G0 X139.593 Y153.884
M204 S500
M205 X20 Y20
G1 F1800 X140.091 Y154.08 E58.86919
G1 X140.154 Y154.104 E58.87144
G1 X140.727 Y154.141 E58.89053
G1 X140.831 Y154.068 E58.89476
G1 X147.74 Y149.231 E59.17527
G1 X147.839 Y149.115 E59.18035
G1 X153.725 Y142.208 E59.48217
G1 X153.788 Y142.084 E59.4868
G1 X159.116 Y131.678 E59.87563
G1 X159.148 Y131.499 E59.88168
G1 X160.395 Y124.558 E60.11624
