;FLAVOR:Marlin
;TIME:5010
;Filament used: 4.37801m
;Layer height: 0.15
;Generated with Cura_SteamEngine 4.0.0
M140 S60
M105
M190 S60
M104 S200
M105
M109 S200
M82 ;absolute extrusion mode
; Ender 3 Custom Start G-code
G28 ; Home all axes
G92 E0 ; Reset Extruder
G1 Z2.0 F3000 ; Move Z Axis up little to prevent scratching of Heat Bed
G1 X0.1 Y20 Z0.3 F5000.0 ; Move to start position
G1 X0.1 Y200.0 Z0.3 F1500.0 E15 ; Draw the first line
G1 X0.4 Y200.0 Z0.3 F5000.0 ; Move to side a little
G1 X0.4 Y20 Z0.3 F1500.0 E30 ; Draw the second line
G92 E0 ; Reset Extruder
G1 Z2.0 F3000 ; Move Z Axis up little to prevent scratching of Heat Bed
; End of custom start GCode
G92 E0
G1 F2400 E-5
;LAYER_COUNT:104
;LAYER:0
M107
M204 S5000
M205 X30 Y30
G0 F3600 X78.257 Y83.094 Z0.2
M204 S500
M205 X20 Y20
;TYPE:SKIRT
G1 F2400 E0
G1 F1800 X79.081 Y82.41 E0.03562
G1 X116.782 Y56.1 E1.56471
G1 X117.391 Y55.724 E1.58851
G1 X118.038 Y55.418 E1.61232
G1 X118.714 Y55.186 E1.63609
G1 X119.413 Y55.032 E1.6599
G1 X120.017 Y54.962 E1.68012
G1 X123.342 Y54.739 E1.79096
G1 X124.057 Y54.731 E1.81474
G1 X124.769 Y54.803 E1.83854
G1 X125.468 Y54.954 E1.86233
G1 X126.146 Y55.182 E1.88612
G1 X126.794 Y55.484 E1.9099
G1 X127.404 Y55.857 E1.93368
G1 X127.97 Y56.296 E1.9575
G1 X128.482 Y56.794 E1.98126
G1 X128.929 Y57.338 E2.00468
G1 X156.01 Y94.232 E3.52687
G1 X156.328 Y94.708 E3.54591
G1 X157.713 Y96.999 E3.63495
G1 X158.048 Y97.631 E3.65874
G1 X158.34 Y98.385 E3.68563
G1 X159.159 Y100.982 E3.7762
G1 X159.368 Y101.858 E3.80616
G1 X159.876 Y104.916 E3.90926
G1 X159.92 Y105.225 E3.91964
G1 X160.72 Y112.094 E4.14965
G1 X160.759 Y112.613 E4.16696
G1 X160.82 Y114.379 E4.22573
G1 X160.816 Y114.918 E4.24366
G1 X160.73 Y116.645 E4.30117
G1 X160.702 Y117.008 E4.31328
G1 X159.87 Y124.786 E4.57345
G1 X159.805 Y125.239 E4.58868
G1 X158.952 Y129.979 E4.74886
G1 X158.881 Y130.32 E4.76045
G1 X158.45 Y132.14 E4.82265
G1 X158.298 Y132.676 E4.84118
G1 X157.383 Y135.44 E4.93802
G1 X157.12 Y136.106 E4.96184
G1 X156.785 Y136.738 E4.98563
G1 X156.561 Y137.083 E4.99931
G1 X128.628 Y177.243 E6.62636
G1 X128.187 Y177.807 E6.65018
G1 X127.687 Y178.318 E6.67396
G1 X127.132 Y178.769 E6.69774
G1 X126.531 Y179.156 E6.72152
G1 X125.89 Y179.474 E6.74532
G1 X125.217 Y179.718 E6.76913
G1 X124.522 Y179.885 E6.7929
G1 X123.821 Y179.973 E6.8164
G1 X120.239 Y180.224 E6.93583
G1 X119.899 Y180.239 E6.94715
G1 X117.802 Y180.274 E7.0169
G1 X117.087 Y180.246 E7.0407
G1 X116.38 Y180.138 E7.06449
G1 X115.689 Y179.953 E7.08828
G1 X115.124 Y179.736 E7.10841
G1 X113.827 Y179.167 E7.15552
G1 X113.106 Y178.795 E7.1825
G1 X77.277 Y157.306 E8.57208
G1 X76.685 Y156.904 E8.59588
G1 X76.142 Y156.439 E8.61966
G1 X75.654 Y155.916 E8.64345
G1 X75.227 Y155.342 E8.66725
G1 X74.867 Y154.724 E8.69103
G1 X74.578 Y154.069 E8.71485
G1 X74.365 Y153.387 E8.73861
G1 X74.228 Y152.685 E8.7624
G1 X74.17 Y151.733 E8.79412
G1 X74.885 Y96.985 E10.6152
G1 X74.939 Y96.231 E10.64035
G1 X75.913 Y88.852 E10.8879
G1 X76.034 Y88.201 E10.90992
G1 X76.52 Y86.169 E10.97941
G1 X76.725 Y85.484 E11.0032
G1 X77.005 Y84.826 E11.02698
G1 X77.357 Y84.203 E11.05078
G1 X77.776 Y83.624 E11.07455
G1 X78.257 Y83.094 E11.09836
M204 S5000
M205 X30 Y30
G0 F3600 X78.617 Y83.303
M204 S500
M205 X20 Y20
G1 F1800 X79.31 Y82.738 E11.1281
G1 X117.011 Y56.428 E12.65719
G1 X117.601 Y56.065 E12.68023
G1 X118.229 Y55.772 E12.70328
G1 X118.886 Y55.554 E12.7263
G1 X119.564 Y55.413 E12.74933
G1 X120.043 Y55.361 E12.76536
G1 X123.368 Y55.138 E12.8762
G1 X124.061 Y55.132 E12.89925
G1 X124.75 Y55.206 E12.92229
G1 X125.425 Y55.358 E12.94531
G1 X126.079 Y55.587 E12.96835
G1 X126.701 Y55.89 E12.99137
G1 X127.285 Y56.263 E13.01441
G1 X127.822 Y56.7 E13.03744
G1 X128.305 Y57.196 E13.06047
G1 X128.607 Y57.575 E13.07659
G1 X155.688 Y94.469 E14.59878
G1 X155.986 Y94.915 E14.61662
G1 X157.371 Y97.206 E14.70566
G1 X157.694 Y97.818 E14.72867
G1 X157.958 Y98.505 E14.75315
G1 X158.777 Y101.102 E14.84372
G1 X158.974 Y101.924 E14.87184
G1 X159.482 Y104.982 E14.97494
G1 X159.523 Y105.271 E14.98465
G1 X160.323 Y112.14 E15.21466
G1 X160.359 Y112.627 E15.2309
G1 X160.42 Y114.393 E15.28967
G1 X160.417 Y114.898 E15.30647
G1 X160.331 Y116.625 E15.36398
G1 X160.304 Y116.965 E15.37532
G1 X159.472 Y124.743 E15.6355
G1 X159.411 Y125.168 E15.64978
G1 X158.558 Y129.908 E15.80996
G1 X158.492 Y130.228 E15.82083
G1 X158.061 Y132.048 E15.88304
G1 X157.918 Y132.551 E15.90043
G1 X157.003 Y135.315 E15.99727
G1 X156.748 Y135.958 E16.02027
G1 X156.233 Y136.855 E16.05468
G1 X128.3 Y177.015 E17.68173
G1 X127.872 Y177.56 E17.70478
G1 X127.385 Y178.052 E17.72781
G1 X126.844 Y178.484 E17.75083
G1 X126.256 Y178.851 E17.77389
G1 X125.631 Y179.148 E17.7969
G1 X124.975 Y179.371 E17.81995
G1 X124.298 Y179.517 E17.84298
G1 X123.793 Y179.574 E17.85988
G1 X120.211 Y179.825 E17.97931
G1 X119.892 Y179.839 E17.98993
G1 X117.795 Y179.874 E18.05969
G1 X117.103 Y179.846 E18.08273
G1 X116.419 Y179.738 E18.10576
G1 X115.752 Y179.552 E18.12879
G1 X115.285 Y179.37 E18.14546
G1 X113.988 Y178.801 E18.19257
G1 X113.312 Y178.451 E18.21788
G1 X77.483 Y156.962 E19.60746
G1 X76.911 Y156.573 E19.63047
G1 X76.387 Y156.119 E19.65353
G1 X75.919 Y155.609 E19.67655
G1 X75.513 Y155.048 E19.69959
G1 X75.174 Y154.444 E19.72262
G1 X74.908 Y153.805 E19.74564
G1 X74.716 Y153.139 E19.7687
G1 X74.603 Y152.456 E19.79172
G1 X74.57 Y151.739 E19.81559
G1 X75.285 Y96.991 E21.63668
G1 X75.336 Y96.284 E21.66025
G1 X76.31 Y88.905 E21.90781
G1 X76.423 Y88.294 E21.92847
G1 X76.909 Y86.262 E21.99796
G1 X77.108 Y85.599 E22.02099
G1 X77.383 Y84.964 E22.044
G1 X77.729 Y84.364 E22.06704
G1 X78.142 Y83.808 E22.09008
G1 X78.617 Y83.303 E22.11314
M204 S5000
M205 X30 Y30
G0 F3600 X78.975 Y83.516
M204 S500
M205 X20 Y20
G1 F1800 X79.539 Y83.066 E22.13713
G1 X117.24 Y56.756 E23.66622
G1 X117.811 Y56.406 E23.6885
G1 X118.419 Y56.127 E23.71075
G1 X119.056 Y55.923 E23.733
G1 X119.713 Y55.796 E23.75525
G1 X120.07 Y55.761 E23.76718
G1 X123.395 Y55.538 E23.87802
G1 X124.064 Y55.533 E23.90027
G1 X124.729 Y55.608 E23.92253
G1 X125.38 Y55.761 E23.94477
G1 X126.008 Y55.992 E23.96703
G1 X126.605 Y56.295 E23.9893
G1 X127.16 Y56.668 E24.01154
G1 X127.668 Y57.104 E24.0338
G1 X128.284 Y57.811 E24.06499
G1 X155.365 Y94.705 E25.58718
G1 X155.643 Y95.122 E25.60385
G1 X157.028 Y97.413 E25.69289
G1 X157.34 Y98.005 E25.71515
G1 X157.577 Y98.626 E25.73726
G1 X158.396 Y101.223 E25.82783
G1 X158.579 Y101.989 E25.85402
G1 X159.087 Y105.047 E25.95713
G1 X159.125 Y105.317 E25.96619
G1 X159.925 Y112.186 E26.1962
G1 X159.96 Y112.641 E26.21138
G1 X160.021 Y114.407 E26.27015
G1 X160.017 Y114.879 E26.28585
G1 X159.931 Y116.606 E26.34336
G1 X159.906 Y116.923 E26.35394
G1 X159.074 Y124.701 E26.61411
G1 X159.017 Y125.097 E26.62742
G1 X158.164 Y129.837 E26.78761
G1 X158.102 Y130.135 E26.79773
G1 X157.671 Y131.955 E26.85994
G1 X157.538 Y132.425 E26.87618
G1 X156.623 Y135.189 E26.97302
G1 X156.375 Y135.81 E26.99526
G1 X155.904 Y136.627 E27.02663
G1 X127.971 Y176.787 E28.65368
G1 X127.557 Y177.312 E28.67592
G1 X127.083 Y177.784 E28.69817
G1 X126.557 Y178.197 E28.72041
G1 X125.984 Y178.543 E28.74268
G1 X125.375 Y178.819 E28.76491
G1 X124.737 Y179.021 E28.78717
G1 X123.765 Y179.175 E28.8199
G1 X120.183 Y179.426 E28.93933
G1 X119.885 Y179.439 E28.94925
G1 X117.788 Y179.474 E29.01901
G1 X117.12 Y179.445 E29.04125
G1 X116.46 Y179.337 E29.06349
G1 X115.817 Y179.151 E29.08576
G1 X115.445 Y179.003 E29.09907
G1 X114.148 Y178.434 E29.14618
G1 X113.518 Y178.108 E29.16977
G1 X77.689 Y156.619 E30.55935
G1 X77.136 Y156.242 E30.58161
G1 X76.633 Y155.801 E30.60386
G1 X76.186 Y155.303 E30.62612
G1 X75.802 Y154.755 E30.64837
G1 X75.485 Y154.166 E30.67062
G1 X75.242 Y153.543 E30.69286
G1 X75.074 Y152.895 E30.71513
G1 X74.984 Y152.232 E30.73738
G1 X74.969 Y151.744 E30.75362
G1 X75.684 Y96.996 E32.5747
G1 X75.732 Y96.336 E32.59671
G1 X76.706 Y88.957 E32.84427
G1 X76.812 Y88.387 E32.86355
G1 X77.298 Y86.355 E32.93304
G1 X77.492 Y85.715 E32.95528
G1 X77.761 Y85.103 E32.97752
G1 X78.101 Y84.527 E32.99977
G1 X78.508 Y83.995 E33.02204
G1 X78.975 Y83.516 E33.04429
M204 S5000
M205 X30 Y30
G0 F3600 X79.332 Y83.734
M204 S500
M205 X20 Y20
G1 F1800 X79.768 Y83.394 E33.06268
G1 X117.469 Y57.084 E34.59178
G1 X118.02 Y56.748 E34.61324
G1 X118.607 Y56.483 E34.63466
G1 X119.223 Y56.294 E34.65609
G1 X120.097 Y56.16 E34.6855
G1 X123.422 Y55.937 E34.79634
G1 X124.067 Y55.933 E34.81779
G1 X124.707 Y56.01 E34.83923
G1 X125.332 Y56.165 E34.86065
G1 X125.934 Y56.397 E34.88211
G1 X126.503 Y56.701 E34.90356
G1 X127.029 Y57.073 E34.92499
G1 X127.505 Y57.507 E34.94642
G1 X127.962 Y58.048 E34.96997
G1 X155.043 Y94.942 E36.49216
G1 X155.301 Y95.329 E36.50763
G1 X156.686 Y97.62 E36.59667
G1 X156.985 Y98.191 E36.61811
G1 X157.195 Y98.746 E36.63785
G1 X158.014 Y101.343 E36.72842
G1 X158.185 Y102.055 E36.75277
G1 X158.693 Y105.113 E36.85588
G1 X158.728 Y105.363 E36.86427
G1 X159.528 Y112.232 E37.09428
G1 X159.56 Y112.654 E37.10836
G1 X159.621 Y114.42 E37.16713
G1 X159.618 Y114.859 E37.18173
G1 X159.532 Y116.586 E37.23924
G1 X159.509 Y116.88 E37.24905
G1 X158.677 Y124.658 E37.50922
G1 X158.624 Y125.026 E37.52159
G1 X157.771 Y129.766 E37.68177
G1 X157.713 Y130.043 E37.69119
G1 X157.282 Y131.863 E37.75339
G1 X157.159 Y132.299 E37.76846
G1 X156.244 Y135.063 E37.8653
G1 X156.003 Y135.661 E37.88674
G1 X155.576 Y136.398 E37.91507
G1 X127.643 Y176.558 E39.54213
G1 X127.243 Y177.064 E39.56358
G1 X126.783 Y177.516 E39.58503
G1 X126.271 Y177.907 E39.60646
G1 X125.714 Y178.233 E39.62792
G1 X125.122 Y178.486 E39.64934
G1 X124.502 Y178.665 E39.6708
G1 X123.737 Y178.776 E39.69651
G1 X120.155 Y179.027 E39.81594
G1 X119.879 Y179.039 E39.82513
G1 X117.782 Y179.074 E39.89489
G1 X117.138 Y179.045 E39.91633
G1 X116.502 Y178.936 E39.93779
G1 X115.606 Y178.637 E39.96921
G1 X114.309 Y178.068 E40.01631
G1 X113.723 Y177.765 E40.03825
G1 X77.894 Y156.276 E41.42783
G1 X77.363 Y155.911 E41.44926
G1 X76.881 Y155.483 E41.4707
G1 X76.456 Y154.999 E41.49213
G1 X76.094 Y154.465 E41.51358
G1 X75.801 Y153.891 E41.53502
G1 X75.581 Y153.285 E41.55646
G1 X75.437 Y152.657 E41.57789
G1 X75.369 Y151.749 E41.60818
G1 X76.084 Y97.001 E43.42926
G1 X76.129 Y96.389 E43.44967
G1 X77.103 Y89.01 E43.69722
G1 X77.201 Y88.48 E43.71515
G1 X77.687 Y86.448 E43.78464
G1 X77.875 Y85.832 E43.80606
G1 X78.139 Y85.244 E43.8275
G1 X78.473 Y84.692 E43.84896
G1 X78.872 Y84.186 E43.87039
G1 X79.332 Y83.734 E43.89184
M204 S5000
M205 X30 Y30
G1 F2400 E38.89184
;MESH:sunday.stl
G0 F3600 X82.549 Y86.973
G0 X83.284 Y88.024
G0 X88.816 Y91.899
G0 X88.915 Y91.888
M204 S500
M205 X20 Y20
;TYPE:WALL-INNER
G1 F2400 E43.89184
G1 F1800 X89.896 Y93.447 E43.9531
G1 X91.635 Y94.954 E44.02964
G1 X92.173 Y96.239 E44.07597
G1 X92.86 Y97.409 E44.1211
G1 X93.995 Y98.244 E44.16797
G1 X95.461 Y99.592 E44.23421
G1 X98.594 Y105.197 E44.44778
G1 X98.711 Y105.406 E44.45574
G1 X98.484 Y105.482 E44.46064
G1 X94.691 Y106.765 E44.59382
G1 X94.343 Y107.04 E44.60857
G1 X93.726 Y108.776 E44.66985
G1 X92.65 Y109.575 E44.71442
G1 X91.028 Y110.569 E44.77769
G1 X90.166 Y111.707 E44.82518
G1 X89.792 Y113.787 E44.89547
G1 X88.035 Y114.901 E44.96466
G1 X87.218 Y116.05 E45.01155
G1 X86.865 Y117.579 E45.06375
G1 X87.166 Y119.25 E45.12022
G1 X87.68 Y120.317 E45.15961
G1 X88.981 Y121.919 E45.22825
G1 X91.293 Y123.5 E45.32141
G1 X92.136 Y125.977 E45.40843
G1 X92.739 Y126.556 E45.43624
G1 X94.066 Y127.231 E45.48576
G1 X95.315 Y128.505 E45.5451
G1 X95.934 Y130.4 E45.6114
G1 X97.557 Y133.111 E45.71649
G1 X94.988 Y135.527 E45.83379
G1 X94.402 Y136.333 E45.86693
G1 X93.91 Y137.72 E45.91588
G1 X92.961 Y139.024 E45.96952
G1 X91.349 Y140.164 E46.03519
G1 X90.734 Y141.472 E46.08326
G1 X90.182 Y143.62 E46.15703
G1 X88.29 Y145.179 E46.23857
G1 X87.806 Y145.923 E46.26809
G1 X88.009 Y146.752 E46.29647
G1 X89.174 Y147.554 E46.34352
G1 X90.963 Y148.227 E46.40709
G1 X92.412 Y150.188 E46.48819
G1 X93.193 Y151.996 E46.55369
G1 X93.858 Y152.784 E46.58799
G1 X95.271 Y152.907 E46.63516
G1 X96.803 Y153.425 E46.68895
G1 X98.85 Y154.765 E46.77032
G1 X99.726 Y156.037 E46.82169
G1 X100.964 Y156.806 E46.87016
G1 X103.31 Y156.958 E46.94836
G1 X105.334 Y157.745 E47.02058
G1 X107.21 Y157.642 E47.08307
G1 X108.803 Y158.392 E47.14164
G1 X110.369 Y160.015 E47.21665
G1 X111.295 Y160.34 E47.24929
G1 X115.232 Y162.3 E47.39556
G1 X115.709 Y164.01 E47.45461
G1 X116.046 Y164.944 E47.48764
G1 X116.77 Y165.437 E47.51677
G1 X118.667 Y166.378 E47.5872
G1 X119.58 Y166.171 E47.61834
G1 X120.702 Y165.733 E47.6584
G1 X121.912 Y164.496 E47.71595
G1 X123.833 Y162.245 E47.81438
G1 X125.094 Y160.189 E47.8946
G1 X126.366 Y157.549 E47.99206
G1 X127.706 Y155.703 E48.06793
G1 X129.058 Y155.445 E48.11371
G1 X130.566 Y153.47 E48.19636
G1 X131.277 Y152.257 E48.24312
G1 X133.709 Y148.21 E48.40016
G1 X134.872 Y145.277 E48.5051
G1 X136.267 Y142.162 E48.61862
G1 X136.68 Y140.637 E48.67117
G1 X137.714 Y137.045 E48.79549
G1 X139.79 Y131.37 E48.99648
G1 X142.097 Y131.174 E49.07349
G1 X142.575 Y130.486 E49.10135
G1 X143.339 Y129.226 E49.15036
G1 X143.735 Y127.268 E49.2168
G1 X144.302 Y123.78 E49.33434
G1 X144.534 Y121.594 E49.40745
G1 X145.05 Y116.123 E49.59022
G1 X145.006 Y114.138 E49.65626
G1 X144.256 Y107.26 E49.88638
G1 X143.956 Y105.386 E49.9495
G1 X142.953 Y103.717 E50.01427
G1 X142.065 Y102.733 E50.05835
G1 X140.586 Y102.288 E50.10972
G1 X139.661 Y98.861 E50.22778
G1 X138.73 Y95.566 E50.34167
G1 X137.62 Y91.759 E50.47356
G1 X134.569 Y84.679 E50.72998
G1 X133.061 Y81.424 E50.84929
G1 X132.109 Y80.003 E50.90618
G1 X131.305 Y78.976 E50.94956
G1 X130.343 Y77.831 E50.9993
G1 X129.491 Y76.887 E51.0416
G1 X128.62 Y76.176 E51.07899
G1 X127.581 Y75.54 E51.11951
G1 X126.773 Y74.679 E51.15878
G1 X124.603 Y71.563 E51.28508
G1 X122.789 Y69.696 E51.37166
G1 X122.415 Y69.471 E51.38617
G1 X121.293 Y69.152 E51.42497
G1 X120.601 Y69.063 E51.44818
G1 X119.303 Y69.435 E51.49309
G1 X117.312 Y72.857 E51.62476
G1 X113.45 Y76.883 E51.81032
G1 X111.243 Y77.891 E51.89102
G1 X109.501 Y79.12 E51.96192
G1 X106.963 Y79.609 E52.04789
G1 X104.284 Y80.058 E52.13824
G1 X103.182 Y80.643 E52.17974
G1 X101.121 Y82.458 E52.27108
G1 X97.71 Y83.624 E52.39097
G1 X96.645 Y85.033 E52.44972
G1 X95.457 Y85.963 E52.4999
G1 X92.6 Y87.363 E52.60572
G1 X91.159 Y89.096 E52.68068
G1 X89.577 Y90.074 E52.74254
G1 X89.324 Y90.736 E52.76611
G1 X88.915 Y91.888 E52.80677
M204 S5000
M205 X30 Y30
G0 F3600 X88.816 Y91.899
G0 X89.547 Y90.049
G0 X92.576 Y87.332
G0 X97.687 Y83.592
G0 X119.279 Y69.404
G0 X120.598 Y69.024
G0 X121.301 Y69.113
G0 X122.43 Y69.435
G0 X122.813 Y69.665
G0 X124.633 Y71.538
G0 X130.373 Y77.805
G0 X132.141 Y79.98
G0 X133.095 Y81.405
G0 X143.993 Y105.373
G0 X150.956 Y132.202
G0 X151.051 Y132.232
M204 S500
M205 X20 Y20
G1 F1800 X150.762 Y133.188 E52.83999
G1 X123.043 Y173.033 E54.45438
G1 X120.435 Y173.226 E54.54136
G1 X117.806 Y173.282 E54.62882
G1 X116.796 Y172.849 E54.66537
G1 X81.164 Y151.485 E56.04719
G1 X81.875 Y97.08 E57.85686
G1 X82.787 Y90.052 E58.09257
G1 X83.268 Y88.013 E58.16225
G1 X120.664 Y61.916 E59.67897
G1 X123.497 Y61.735 E59.77339
G1 X150.412 Y98.418 E61.28666
G1 X151.692 Y100.543 E61.36917
G1 X152.421 Y102.77 E61.4471
G1 X152.855 Y105.075 E61.52511
G1 X153.784 Y112.979 E61.78981
G1 X153.84 Y115.294 E61.86683
G1 X153.201 Y121.58 E62.07698
G1 X152.912 Y124.093 E62.16112
G1 X152.207 Y128.104 E62.29657
G1 X151.657 Y130.496 E62.3782
G1 X151.051 Y132.232 E62.43936
M204 S5000
M205 X30 Y30
G0 F3600 X151.431 Y132.356
M204 S500
M205 X20 Y20
;TYPE:WALL-OUTER
G1 F1800 X151.127 Y133.362 E62.47431
G1 X123.262 Y173.418 E64.09724
G1 X120.455 Y173.626 E64.19085
G1 X117.727 Y173.684 E64.28161
G1 X116.616 Y173.208 E64.32181
G1 X80.761 Y151.71 E65.71228
G1 X81.475 Y97.05 E67.53044
G1 X82.392 Y89.985 E67.76739
G1 X82.914 Y87.772 E67.84302
G1 X120.526 Y61.524 E69.3685
G1 X123.691 Y61.322 E69.47398
G1 X150.742 Y98.191 E70.99491
G1 X152.057 Y100.374 E71.07968
G1 X152.809 Y102.672 E71.1601
G1 X153.25 Y105.013 E71.23933
G1 X154.184 Y112.955 E71.5053
G1 X154.241 Y115.309 E71.58362
G1 X153.598 Y121.626 E71.79481
G1 X153.306 Y124.162 E71.87971
G1 X152.597 Y128.194 E72.01587
G1 X152.042 Y130.608 E72.09826
G1 X151.431 Y132.356 E72.15985
M204 S5000
