;FLAVOR:Marlin
;TIME:4374
;Filament used: 3.01672m
;Layer height: 0.2
;MINX:60.287
;MINY:59.785
;MINZ:0.2
;MAXX:159.713
;MAXY:160.186
;MAXZ:16.6
;Generated with Cura_SteamEngine 4.2.1
M140 S50
M105
M190 S50
M104 S200
M105
M109 S200
M82 ;absolute extrusion mode
M201 X500.00 Y500.00 Z100.00 E5000.00 ;Setup machine max acceleration
M203 X500.00 Y500.00 Z10.00 E50.00 ;Setup machine max feedrate
M204 P500.00 R1000.00 T500.00 ;Setup Print/Retract/Travel acceleration
M205 X8.00 Y8.00 Z0.40 E5.00 ;Setup Jerk
M220 S100 ;Reset Feedrate
M221 S100 ;Reset Flowrate

G28 ;Home

G92 E0 ;Reset Extruder
G1 Z2.0 F3000 ;Move Z Axis up
G1 X2.1 Y20 Z0.28 F5000.0 ;Move to start position
G1 X2.1 Y200.0 Z0.28 F1500.0 E15 ;Draw the first line
G1 X2.4 Y200.0 Z0.28 F5000.0 ;Move to side a little
G1 X2.4 Y20 Z0.28 F1500.0 E30 ;Draw the second line
G92 E0 ;Reset Extruder
G1 Z2.0 F3000 ;Move Z Axis up
M141 S28
G92 E0
G92 E0
G1 F2700 E-5
;LAYER_COUNT:83
;LAYER:0
M107
G0 F6000 X67.241 Y66.435 Z0.2
;TYPE:SKIRT
G1 F2700 E0
G1 F1200 X67.71 Y65.96 E0.02442
G1 X68.413 Y65.305 E0.05958
G1 X69.168 Y64.711 E0.09472
G1 X69.97 Y64.182 E0.12987
G1 X70.812 Y63.721 E0.16499
G1 X71.485 Y63.415 E0.19204
G1 X72.126 Y63.148 E0.21745
G1 X72.275 Y63.087 E0.22334
G1 X73.187 Y62.722 E0.25928
G1 X73.317 Y62.671 E0.26439
G1 X73.941 Y62.43 E0.28886
G1 X74.851 Y62.121 E0.32402
G1 X75.783 Y61.89 E0.35915
G1 X76.732 Y61.736 E0.39432
G1 X77.625 Y61.665 E0.4271
G1 X78.257 Y61.639 E0.45024
G1 X78.541 Y61.631 E0.46063
G1 X95.367 Y61.354 E1.07632
G1 X97.642 Y61.291 E1.15958
G1 X134.133 Y59.85 E2.49569
G1 X134.338 Y59.844 E2.50319
G1 X136.14 Y59.805 E2.56913
G1 X136.354 Y59.802 E2.57697
G1 X141.773 Y59.785 E2.77523
G1 X141.938 Y59.786 E2.78126
G1 X142.652 Y59.794 E2.80739
G1 X143.612 Y59.844 E2.84256
G1 X144.563 Y59.975 E2.87768
G1 X145.501 Y60.184 E2.91284
G1 X146.418 Y60.47 E2.94798
G1 X146.983 Y60.69 E2.97017
G1 X147.477 Y60.897 E2.98976
G1 X147.68 Y60.984 E2.99784
G1 X149.346 Y61.72 E3.06448
G1 X149.472 Y61.776 E3.06952
G1 X150.121 Y62.072 E3.09562
G1 X150.977 Y62.507 E3.13075
G1 X151.795 Y63.012 E3.16592
G1 X152.568 Y63.582 E3.20106
G1 X153.593 Y64.515 E3.25177
G1 X153.83 Y64.758 E3.26419
G1 X154.058 Y64.998 E3.2763
G1 X155.29 Y66.336 E3.34284
G1 X155.397 Y66.453 E3.34864
G1 X155.887 Y67 E3.37551
G1 X156.497 Y67.742 E3.41065
G1 X157.044 Y68.532 E3.44581
G1 X157.523 Y69.364 E3.48093
G1 X157.932 Y70.234 E3.5161
G1 X158.266 Y71.134 E3.55123
G1 X158.438 Y71.712 E3.57329
G1 X158.583 Y72.253 E3.59378
G1 X158.637 Y72.466 E3.60182
G1 X159.203 Y74.751 E3.68795
G1 X159.241 Y74.906 E3.69379
G1 X159.407 Y75.618 E3.72053
G1 X159.586 Y76.562 E3.75569
G1 X159.685 Y77.517 E3.79081
G1 X159.708 Y78.146 E3.81384
G1 X159.713 Y78.772 E3.83675
G1 X159.713 Y78.962 E3.8437
G1 X159.691 Y81.563 E3.93886
G1 X159.688 Y81.74 E3.94534
G1 X159.67 Y82.495 E3.97297
G1 X159.638 Y83.124 E3.99601
G1 X159.62 Y83.353 E4.00441
G1 X159.594 Y83.63 E4.01459
G1 X159.569 Y83.873 E4.02353
G1 X159.558 Y83.98 E4.02747
G1 X159.175 Y87.39 E4.15301
G1 X159.156 Y87.55 E4.1589
G1 X158.922 Y89.399 E4.22709
G1 X158.632 Y91.977 E4.32201
G1 X158.425 Y94.465 E4.41335
G1 X158.288 Y96.919 E4.50327
G1 X158.219 Y99.464 E4.59641
G1 X158.223 Y101.958 E4.68766
G1 X158.297 Y104.46 E4.77924
G1 X158.442 Y106.973 E4.87133
G1 X158.561 Y108.392 E4.92343
G1 X158.6 Y109.536 E4.96531
G1 X158.581 Y110.744 E5.00951
G1 X158.563 Y111.227 E5.02719
G1 X158.525 Y111.886 E5.05134
G1 X158.485 Y112.386 E5.0697
G1 X158.224 Y114.965 E5.16453
G1 X158.039 Y117.48 E5.2568
G1 X157.927 Y119.968 E5.34792
G1 X157.886 Y122.439 E5.43833
G1 X157.915 Y124.954 E5.53035
G1 X158.016 Y127.478 E5.62277
G1 X158.184 Y129.931 E5.71273
G1 X158.552 Y133.53 E5.84509
G1 X158.59 Y133.999 E5.8623
G1 X158.65 Y134.978 E5.89819
G1 X158.661 Y135.183 E5.9057
G1 X158.815 Y138.728 E6.03552
G1 X158.821 Y138.881 E6.04112
G1 X158.843 Y139.611 E6.06784
G1 X158.808 Y140.924 E6.11589
G1 X158.783 Y141.222 E6.12683
G1 X158.748 Y141.574 E6.13978
G1 X158.288 Y145.579 E6.28727
G1 X158.267 Y145.745 E6.29339
G1 X158.179 Y146.424 E6.31844
G1 X158.016 Y147.371 E6.3536
G1 X157.79 Y148.25 E6.3868
G1 X157.702 Y148.544 E6.39803
G1 X157.516 Y149.114 E6.41996
G1 X157.309 Y149.694 E6.4425
G1 X156.948 Y150.584 E6.47763
G1 X156.515 Y151.442 E6.5128
G1 X156.132 Y152.078 E6.53996
G1 X155.858 Y152.502 E6.55843
G1 X155.304 Y153.287 E6.59358
G1 X154.686 Y154.022 E6.62871
G1 X154.009 Y154.704 E6.66387
G1 X153.278 Y155.327 E6.69901
G1 X152.823 Y155.665 E6.71975
G1 X152.064 Y156.201 E6.75374
G1 X151.696 Y156.451 E6.77002
G1 X150.916 Y156.958 E6.80406
G1 X150.772 Y157.05 E6.81031
G1 X150.16 Y157.435 E6.83676
G1 X149.326 Y157.912 E6.87191
G1 X148.456 Y158.318 E6.90704
G1 X147.167 Y158.768 E6.95699
G1 X146.297 Y159.015 E6.99008
G1 X146.093 Y159.071 E6.99781
G1 X143.97 Y159.632 E7.07815
G1 X143.835 Y159.667 E7.08326
G1 X143.115 Y159.848 E7.11042
G1 X142.175 Y160.043 E7.14554
G1 X141.221 Y160.159 E7.1807
G1 X139.829 Y160.186 E7.23164
G1 X139.001 Y160.152 E7.26196
G1 X138.813 Y160.143 E7.26884
G1 X128.894 Y159.574 E7.63234
G1 X127.362 Y159.499 E7.68845
G1 X105.837 Y158.629 E8.47661
G1 X105.788 Y158.626 E8.47841
G1 X81.753 Y157.552 E9.35864
G1 X81.525 Y157.54 E9.36699
G1 X79.556 Y157.413 E9.43918
G1 X79.324 Y157.396 E9.44769
G1 X75.997 Y157.114 E9.56985
G1 X75.853 Y157.101 E9.57514
G1 X75.155 Y157.033 E9.60079
G1 X74.204 Y156.9 E9.63593
G1 X73.267 Y156.688 E9.67107
G1 X72.225 Y156.353 E9.71112
G1 X71.355 Y156.027 E9.74511
G1 X71.014 Y155.893 E9.75851
G1 X70.416 Y155.647 E9.78217
G1 X69.543 Y155.245 E9.81734
G1 X68.707 Y154.772 E9.85248
G1 X67.914 Y154.231 E9.8876
G1 X67.154 Y153.613 E9.92344
G1 X66.602 Y153.124 E9.95042
G1 X66.34 Y152.885 E9.96339
G1 X65.769 Y152.347 E9.99209
G1 X65.098 Y151.66 E10.02723
G1 X64.487 Y150.919 E10.06237
G1 X64.088 Y150.36 E10.08749
G1 X63.667 Y149.73 E10.11522
G1 X63.549 Y149.549 E10.12312
G1 X63.227 Y149.047 E10.14494
G1 X63.139 Y148.907 E10.15099
G1 X62.786 Y148.339 E10.17546
G1 X62.313 Y147.503 E10.2106
G1 X61.911 Y146.63 E10.24576
G1 X61.476 Y145.365 E10.29471
G1 X61.26 Y144.595 E10.32396
G1 X61.212 Y144.419 E10.33064
G1 X60.837 Y142.996 E10.38448
G1 X60.798 Y142.842 E10.39029
G1 X60.632 Y142.175 E10.41544
G1 X60.439 Y141.234 E10.45058
G1 X60.325 Y140.28 E10.48573
G1 X60.29 Y139.459 E10.5158
G1 X60.287 Y138.97 E10.53369
G1 X60.288 Y138.721 E10.5428
G1 X60.425 Y129.818 E10.86856
G1 X60.429 Y129.662 E10.87427
G1 X60.45 Y128.937 E10.90081
G1 X60.518 Y127.979 E10.93595
G1 X60.635 Y127.186 E10.96527
G1 X61.132 Y124.482 E11.06586
G1 X61.515 Y122.015 E11.1572
G1 X61.828 Y119.533 E11.24873
G1 X62.071 Y117.044 E11.34022
G1 X62.245 Y114.537 E11.43216
G1 X62.346 Y112.061 E11.52283
G1 X62.378 Y109.563 E11.61423
G1 X62.337 Y107.03 E11.70691
G1 X62.228 Y104.542 E11.79802
G1 X62.048 Y102.053 E11.88932
G1 X61.796 Y99.553 E11.98125
G1 X61.474 Y97.073 E12.07275
G1 X61.058 Y94.456 E12.1697
G1 X60.892 Y93.501 E12.20516
G1 X60.767 Y92.549 E12.24029
G1 X60.721 Y91.552 E12.2768
G1 X60.72 Y91.191 E12.29001
G1 X60.724 Y90.84 E12.30285
G1 X60.931 Y83.355 E12.57681
G1 X60.937 Y83.205 E12.5823
G1 X60.964 Y82.541 E12.60661
G1 X61.05 Y81.523 E12.64399
G1 X61.155 Y80.715 E12.6738
G1 X61.18 Y80.535 E12.68045
G1 X61.445 Y78.72 E12.74756
G1 X61.471 Y78.551 E12.75381
G1 X61.568 Y77.949 E12.77612
G1 X61.76 Y77.008 E12.81126
G1 X61.979 Y76.24 E12.84048
G1 X62.081 Y75.924 E12.85263
G1 X62.26 Y75.41 E12.87254
G1 X63.504 Y72.099 E13.00194
G1 X63.559 Y71.956 E13.00755
G1 X63.819 Y71.291 E13.03367
G1 X64.206 Y70.412 E13.06881
G1 X64.665 Y69.567 E13.10399
G1 X65.192 Y68.764 E13.13913
G1 X66.091 Y67.662 E13.19116
G1 X66.783 Y66.913 E13.22847
G1 X66.956 Y66.73 E13.23769
G1 X67.15 Y66.529 E13.24791
G1 X67.241 Y66.435 E13.25269
G0 F6000 X67.554 Y66.744
G1 F1200 X68.023 Y66.269 E13.27712
G1 X68.713 Y65.627 E13.3116
G1 X69.455 Y65.047 E13.34605
G1 X70.243 Y64.531 E13.38051
G1 X71.072 Y64.083 E13.41499
G1 X71.654 Y63.821 E13.43834
G1 X72.295 Y63.554 E13.46375
G1 X72.439 Y63.496 E13.46943
G1 X73.351 Y63.131 E13.50536
G1 X73.476 Y63.081 E13.51029
G1 X74.1 Y62.84 E13.53476
G1 X74.992 Y62.539 E13.56921
G1 X75.907 Y62.314 E13.60368
G1 X76.838 Y62.167 E13.63816
G1 X77.643 Y62.104 E13.66771
G1 X78.275 Y62.078 E13.69085
G1 X78.548 Y62.071 E13.70084
G1 X95.379 Y61.794 E14.3167
G1 X97.671 Y61.73 E14.40059
G1 X134.15 Y60.29 E15.73626
G1 X134.348 Y60.284 E15.7435
G1 X136.15 Y60.245 E15.80945
G1 X136.355 Y60.242 E15.81695
G1 X141.774 Y60.225 E16.01521
G1 X141.933 Y60.226 E16.02103
G1 X142.647 Y60.234 E16.04715
G1 X143.588 Y60.284 E16.08163
G1 X144.521 Y60.414 E16.11609
G1 X145.44 Y60.623 E16.15057
G1 X146.338 Y60.909 E16.18505
G1 X146.813 Y61.095 E16.20372
G1 X147.307 Y61.302 E16.22331
G1 X147.503 Y61.387 E16.23113
G1 X149.169 Y62.123 E16.29777
G1 X149.289 Y62.177 E16.30258
G1 X149.938 Y62.473 E16.32868
G1 X150.778 Y62.9 E16.36315
G1 X151.579 Y63.396 E16.39762
G1 X152.334 Y63.959 E16.43208
G1 X153.278 Y64.822 E16.47887
G1 X153.515 Y65.065 E16.49129
G1 X153.735 Y65.296 E16.50296
G1 X154.967 Y66.634 E16.56951
G1 X155.069 Y66.747 E16.57508
G1 X155.559 Y67.294 E16.60194
G1 X156.157 Y68.022 E16.63641
G1 X156.691 Y68.797 E16.67085
G1 X157.158 Y69.616 E16.70534
G1 X157.554 Y70.471 E16.73981
G1 X157.875 Y71.356 E16.77425
G1 X158.013 Y71.826 E16.79218
G1 X158.158 Y72.367 E16.81267
G1 X158.21 Y72.572 E16.82041
G1 X158.776 Y74.857 E16.90653
G1 X158.812 Y75.006 E16.91214
G1 X158.978 Y75.718 E16.93889
G1 X159.153 Y76.643 E16.97333
G1 X159.249 Y77.581 E17.00783
G1 X159.268 Y78.149 E17.02862
G1 X159.273 Y78.775 E17.05152
G1 X159.273 Y78.958 E17.05822
G1 X159.251 Y81.559 E17.15338
G1 X159.248 Y81.73 E17.15964
G1 X159.23 Y82.485 E17.18727
G1 X159.199 Y83.09 E17.20943
G1 X159.181 Y83.319 E17.21784
G1 X159.157 Y83.585 E17.22761
G1 X159.132 Y83.828 E17.23655
G1 X159.121 Y83.931 E17.24034
G1 X158.738 Y87.341 E17.36588
G1 X158.719 Y87.495 E17.37156
G1 X158.494 Y89.271 E17.43705
G1 X158.195 Y91.928 E17.53488
G1 X157.986 Y94.436 E17.62695
G1 X157.847 Y96.946 E17.71892
G1 X157.779 Y99.453 E17.81068
G1 X157.783 Y101.972 E17.90284
G1 X157.857 Y104.462 E17.99398
G1 X158.005 Y107.037 E18.08834
G1 X158.122 Y108.429 E18.13945
G1 X158.16 Y109.53 E18.17976
G1 X158.141 Y110.738 E18.22396
G1 X158.124 Y111.202 E18.24095
G1 X158.086 Y111.861 E18.2651
G1 X158.047 Y112.341 E18.28272
G1 X157.785 Y114.924 E18.3777
G1 X157.602 Y117.426 E18.46949
G1 X157.487 Y119.976 E18.56288
G1 X157.446 Y122.439 E18.653
G1 X157.475 Y124.978 E18.7459
G1 X157.576 Y127.49 E18.83788
G1 X157.746 Y129.977 E18.92908
G1 X158.114 Y133.575 E19.0614
G1 X158.151 Y134.026 E19.07796
G1 X158.211 Y135.005 E19.11384
G1 X158.222 Y135.202 E19.12106
G1 X158.376 Y138.747 E19.25088
G1 X158.381 Y138.895 E19.2563
G1 X158.403 Y139.625 E19.28302
G1 X158.369 Y140.887 E19.32921
G1 X158.344 Y141.185 E19.34015
G1 X158.311 Y141.524 E19.35261
G1 X157.851 Y145.529 E19.5001
G1 X157.831 Y145.689 E19.506
G1 X157.743 Y146.368 E19.53105
G1 X157.582 Y147.296 E19.56551
G1 X157.369 Y148.124 E19.59679
G1 X157.281 Y148.418 E19.60802
G1 X157.101 Y148.966 E19.62912
G1 X156.894 Y149.546 E19.65165
G1 X156.54 Y150.419 E19.68612
G1 X156.113 Y151.259 E19.72059
G1 X155.763 Y151.84 E19.74541
G1 X155.489 Y152.264 E19.76388
G1 X154.944 Y153.032 E19.79833
G1 X154.337 Y153.752 E19.83279
G1 X153.67 Y154.418 E19.86727
G1 X152.949 Y155.025 E19.90175
G1 X152.569 Y155.306 E19.91904
G1 X151.81 Y155.842 E19.95304
G1 X151.456 Y156.082 E19.96869
G1 X150.676 Y156.589 E20.00272
G1 X150.538 Y156.677 E20.00871
G1 X149.926 Y157.062 E20.03516
G1 X149.108 Y157.53 E20.06964
G1 X148.253 Y157.926 E20.10412
G1 X147.047 Y158.345 E20.15083
G1 X146.177 Y158.592 E20.18391
G1 X145.981 Y158.646 E20.19135
G1 X143.858 Y159.207 E20.27169
G1 X143.728 Y159.24 E20.2766
G1 X143.008 Y159.421 E20.30376
G1 X142.086 Y159.612 E20.33821
G1 X141.15 Y159.724 E20.3727
G1 X139.847 Y159.747 E20.42038
G1 X139.019 Y159.713 E20.45069
G1 X138.838 Y159.704 E20.45732
G1 X128.943 Y159.136 E20.81994
G1 X127.298 Y159.056 E20.8802
G1 X105.855 Y158.189 E21.66535
G1 X105.807 Y158.187 E21.66711
G1 X81.772 Y157.113 E22.54734
G1 X81.554 Y157.101 E22.55533
G1 X79.585 Y156.974 E22.62751
G1 X79.362 Y156.957 E22.6357
G1 X76.035 Y156.675 E22.75785
G1 X75.896 Y156.663 E22.76296
G1 X75.198 Y156.595 E22.78862
G1 X74.265 Y156.464 E22.82309
G1 X73.346 Y156.254 E22.85758
G1 X72.379 Y155.941 E22.89476
G1 X71.509 Y155.615 E22.92875
G1 X71.181 Y155.486 E22.94165
G1 X70.583 Y155.24 E22.9653
G1 X69.728 Y154.845 E22.99976
G1 X68.909 Y154.379 E23.03424
G1 X68.133 Y153.845 E23.0687
G1 X67.446 Y153.284 E23.10115
G1 X66.894 Y152.795 E23.12813
G1 X66.642 Y152.565 E23.14061
G1 X66.071 Y152.027 E23.16932
G1 X65.413 Y151.352 E23.20381
G1 X64.815 Y150.624 E23.23827
G1 X64.454 Y150.115 E23.2611
G1 X64.033 Y149.485 E23.28883
G1 X63.919 Y149.311 E23.29644
G1 X63.597 Y148.809 E23.31826
G1 X63.512 Y148.675 E23.32406
G1 X63.159 Y148.107 E23.34853
G1 X62.696 Y147.287 E23.38298
G1 X62.305 Y146.43 E23.41745
G1 X61.9 Y145.246 E23.46323
G1 X61.684 Y144.476 E23.49249
G1 X61.637 Y144.307 E23.4989
G1 X61.262 Y142.884 E23.55274
G1 X61.225 Y142.736 E23.55833
G1 X61.059 Y142.069 E23.58347
G1 X60.87 Y141.146 E23.61794
G1 X60.76 Y140.21 E23.65242
G1 X60.73 Y139.456 E23.68003
G1 X60.727 Y138.967 E23.69792
G1 X60.728 Y138.728 E23.70667
G1 X60.865 Y129.825 E24.03243
G1 X60.869 Y129.675 E24.03792
G1 X60.89 Y128.95 E24.06446
G1 X60.957 Y128.01 E24.09893
G1 X61.068 Y127.266 E24.12646
G1 X61.559 Y124.593 E24.22589
G1 X61.951 Y122.071 E24.31927
G1 X62.268 Y119.559 E24.4119
G1 X62.51 Y117.081 E24.50299
G1 X62.683 Y114.587 E24.59446
G1 X62.786 Y112.049 E24.68739
G1 X62.818 Y109.562 E24.77838
G1 X62.777 Y107.004 E24.87198
G1 X62.668 Y104.525 E24.96277
G1 X62.487 Y102.013 E25.05491
G1 X62.235 Y99.52 E25.14659
G1 X61.91 Y97.019 E25.23886
G1 X61.482 Y94.32 E25.33884
G1 X61.326 Y93.426 E25.37204
G1 X61.204 Y92.491 E25.40654
G1 X61.161 Y91.551 E25.44096
G1 X61.16 Y91.19 E25.45417
G1 X61.164 Y90.852 E25.46654
G1 X61.371 Y83.367 E25.74049
G1 X61.376 Y83.223 E25.74576
G1 X61.403 Y82.559 E25.77008
G1 X61.487 Y81.58 E25.80602
G1 X61.592 Y80.772 E25.83584
G1 X61.615 Y80.598 E25.84226
G1 X61.88 Y78.783 E25.90936
G1 X61.905 Y78.621 E25.91536
G1 X62.002 Y78.019 E25.93767
G1 X62.192 Y77.096 E25.97215
G1 X62.398 Y76.375 E25.99958
G1 X62.5 Y76.059 E26.01173
G1 X62.672 Y75.565 E26.03087
G1 X63.916 Y72.254 E26.16027
G1 X63.969 Y72.116 E26.16568
G1 X64.229 Y71.451 E26.1918
G1 X64.609 Y70.589 E26.22627
G1 X65.061 Y69.762 E26.26075
G1 X65.581 Y68.977 E26.2952
G1 X66.414 Y67.96 E26.3433
G1 X67.106 Y67.211 E26.38061
G1 X67.272 Y67.035 E26.38946
G1 X67.466 Y66.834 E26.39968
G1 X67.554 Y66.744 E26.40428
G0 F6000 X67.867 Y67.053
G1 F1200 X68.336 Y66.578 E26.4287
G1 X69.013 Y65.95 E26.46249
G1 X69.741 Y65.383 E26.49625
G1 X70.516 Y64.88 E26.53005
G1 X71.331 Y64.447 E26.56382
G1 X71.823 Y64.228 E26.58352
G1 X72.464 Y63.961 E26.60892
G1 X72.602 Y63.904 E26.61439
G1 X73.514 Y63.539 E26.65033
G1 X73.634 Y63.492 E26.65504
G1 X74.258 Y63.251 E26.67952
G1 X75.133 Y62.956 E26.7133
G1 X76.03 Y62.738 E26.74707
G1 X76.943 Y62.598 E26.78087
G1 X77.661 Y62.544 E26.80721
G1 X78.293 Y62.518 E26.83035
G1 X78.556 Y62.51 E26.83998
G1 X95.478 Y62.232 E27.45917
G1 X97.614 Y62.172 E27.53735
G1 X134.167 Y60.729 E28.87573
G1 X134.357 Y60.723 E28.88268
G1 X136.159 Y60.684 E28.94862
G1 X136.357 Y60.682 E28.95587
G1 X141.776 Y60.665 E29.15413
G1 X141.928 Y60.666 E29.15969
G1 X142.642 Y60.674 E29.18581
G1 X143.564 Y60.724 E29.2196
G1 X144.478 Y60.854 E29.25337
G1 X145.378 Y61.062 E29.28717
G1 X146.643 Y61.501 E29.33616
G1 X147.137 Y61.708 E29.35575
G1 X147.325 Y61.789 E29.36324
G1 X148.991 Y62.525 E29.42988
G1 X149.107 Y62.577 E29.43453
G1 X149.756 Y62.873 E29.46063
G1 X150.578 Y63.292 E29.49438
G1 X151.361 Y63.781 E29.52816
G1 X152.099 Y64.336 E29.56194
G1 X152.963 Y65.129 E29.60485
G1 X153.2 Y65.372 E29.61727
G1 X153.411 Y65.594 E29.62847
G1 X154.643 Y66.932 E29.69501
G1 X154.741 Y67.04 E29.70035
G1 X155.231 Y67.587 E29.72722
G1 X155.817 Y68.301 E29.76101
G1 X156.338 Y69.063 E29.79478
G1 X156.792 Y69.867 E29.82857
G1 X157.175 Y70.707 E29.86234
G1 X157.588 Y71.94 E29.90992
G1 X157.733 Y72.481 E29.93041
