;FLAVOR:Marlin
;TIME:5055
;Filament used: 4.01344m
;Layer height: 0.15
;Generated with Cura_SteamEngine 4.0.0
M140 S60
M105
M190 S60
M104 S200
M105
M109 S200
M82 ;absolute extrusion mode
; Ender 3 Custom Start G-code
G28 ; Home all axes
G92 E0 ; Reset Extruder
G1 Z2.0 F3000 ; Move Z Axis up little to prevent scratching of Heat Bed
G1 X0.1 Y20 Z0.3 F5000.0 ; Move to start position
G1 X0.1 Y200.0 Z0.3 F1500.0 E15 ; Draw the first line
G1 X0.4 Y200.0 Z0.3 F5000.0 ; Move to side a little
G1 X0.4 Y20 Z0.3 F1500.0 E30 ; Draw the second line
G92 E0 ; Reset Extruder
G1 Z2.0 F3000 ; Move Z Axis up little to prevent scratching of Heat Bed
; End of custom start GCode
G92 E0
G1 F2400 E-5
;LAYER_COUNT:127
;LAYER:0
M107
M204 S5000
M205 X30 Y30
G0 F3600 X110.106 Y56.091 Z0.2
M204 S500
M205 X20 Y20
;TYPE:SKIRT
G1 F2400 E0
G1 F1800 X110.473 Y55.392 E0.02626
G1 X110.909 Y54.733 E0.05254
G1 X111.41 Y54.122 E0.07882
G1 X111.969 Y53.565 E0.10507
G1 X112.582 Y53.067 E0.13134
G1 X113.243 Y52.634 E0.15762
G1 X113.943 Y52.27 E0.18386
G1 X114.677 Y51.979 E0.21012
G1 X115.437 Y51.763 E0.2364
G1 X116.214 Y51.625 E0.26265
G1 X117.186 Y51.564 E0.29504
G1 X117.819 Y51.564 E0.31609
G1 X118.608 Y51.604 E0.34237
G1 X119.388 Y51.723 E0.36861
G1 X120.153 Y51.921 E0.39489
G1 X120.893 Y52.195 E0.42114
G1 X121.602 Y52.543 E0.44741
G1 X122.273 Y52.961 E0.4737
G1 X122.897 Y53.444 E0.49995
G1 X123.47 Y53.987 E0.5262
G1 X123.985 Y54.586 E0.55248
G1 X124.436 Y55.234 E0.57874
G1 X124.82 Y55.925 E0.60503
G1 X125.132 Y56.65 E0.63128
G1 X125.369 Y57.403 E0.65754
G1 X125.473 Y57.862 E0.67319
G1 X125.803 Y59.544 E0.7302
G1 X125.904 Y60.241 E0.75363
G1 X125.965 Y60.491 E0.76218
G1 X126.073 Y61.273 E0.78844
G1 X126.077 Y61.375 E0.79184
G1 X126.112 Y61.531 E0.79715
G1 X126.187 Y62.139 E0.81753
G1 X126.209 Y62.225 E0.82048
G1 X126.324 Y63.006 E0.84674
G1 X126.326 Y63.098 E0.8498
G1 X126.359 Y63.236 E0.85452
G1 X126.465 Y64.018 E0.88076
G1 X126.465 Y64.03 E0.88116
G1 X126.481 Y64.094 E0.88336
G1 X126.593 Y64.875 E0.9096
G1 X126.596 Y64.948 E0.91203
G1 X126.611 Y65.009 E0.91412
G1 X126.72 Y65.791 E0.94038
G1 X126.72 Y65.825 E0.94151
G1 X126.73 Y65.863 E0.94282
G1 X126.843 Y66.645 E0.9691
G1 X126.846 Y66.722 E0.97166
G1 X126.952 Y67.356 E0.99304
G1 X126.967 Y67.599 E1.00114
G1 X127.068 Y68.165 E1.02026
G1 X127.092 Y68.486 E1.03097
G1 X127.198 Y69.101 E1.05172
G1 X127.212 Y69.307 E1.05859
G1 X127.341 Y70.054 E1.0838
G1 X127.344 Y70.099 E1.0853
G1 X127.356 Y70.135 E1.08657
G1 X127.565 Y70.896 E1.11281
G1 X127.697 Y71.675 E1.13909
G1 X127.749 Y72.463 E1.16536
G1 X127.728 Y73.046 E1.18476
G1 X127.885 Y73.49 E1.20043
G1 X128.014 Y73.981 E1.21731
G1 X128.129 Y74.486 E1.23454
G1 X128.265 Y75.264 E1.26081
G1 X128.307 Y75.85 E1.28035
G1 X128.416 Y76.453 E1.30073
G1 X128.463 Y77.054 E1.32078
G1 X128.626 Y78.094 E1.35579
G1 X128.718 Y79.178 E1.39197
G1 X128.745 Y79.968 E1.41826
G1 X128.739 Y80.062 E1.4214
G1 X128.818 Y80.592 E1.43922
G1 X128.895 Y81.378 E1.46549
G1 X128.893 Y82.168 E1.49176
G1 X128.786 Y83.097 E1.52287
G1 X128.731 Y83.41 E1.53344
G1 X128.555 Y84.18 E1.55971
G1 X128.303 Y84.928 E1.58596
G1 X127.975 Y85.647 E1.61224
G1 X127.577 Y86.329 E1.63851
G1 X127.112 Y86.967 E1.66477
G1 X126.585 Y87.555 E1.69103
G1 X126.001 Y88.086 E1.71728
G1 X125.453 Y88.491 E1.73995
G1 X125.519 Y88.789 E1.7501
G1 X125.706 Y89.312 E1.76857
G1 X125.935 Y90.067 E1.79481
G1 X126.085 Y90.843 E1.8211
G1 X126.135 Y91.282 E1.83579
G1 X126.178 Y91.79 E1.85275
G1 X126.901 Y91.79 E1.8768
G1 X127.687 Y91.87 E1.90308
G1 X128.46 Y92.028 E1.92932
G1 X129.214 Y92.264 E1.9556
G1 X129.94 Y92.575 E1.98186
G1 X130.63 Y92.958 E2.00811
G1 X131.279 Y93.409 E2.0344
G1 X131.878 Y93.923 E2.06065
G1 X132.423 Y94.495 E2.08693
G1 X132.742 Y94.892 E2.10387
G1 X153.122 Y121.989 E3.23157
G1 X153.594 Y122 E3.24728
G1 X154.377 Y122.1 E3.27353
G1 X155.147 Y122.278 E3.29982
G1 X155.894 Y122.534 E3.32608
G1 X156.612 Y122.863 E3.35235
G1 X157.292 Y123.263 E3.37859
G1 X157.929 Y123.73 E3.40486
G1 X158.515 Y124.26 E3.43114
G1 X159.177 Y125.011 E3.46444
G1 X167.379 Y135.633 E3.91079
G1 X167.829 Y136.282 E3.93706
G1 X168.212 Y136.972 E3.96331
G1 X168.522 Y137.698 E3.98956
G1 X168.758 Y138.452 E4.01584
G1 X168.916 Y139.226 E4.04211
G1 X169.005 Y140.4 E4.08127
G1 X169.005 Y149.93 E4.39824
G1 X168.965 Y150.719 E4.42452
G1 X168.846 Y151.499 E4.45076
G1 X168.648 Y152.264 E4.47704
G1 X168.374 Y153.004 E4.50329
G1 X168.026 Y153.713 E4.52956
G1 X167.608 Y154.384 E4.55585
G1 X167.125 Y155.008 E4.5821
G1 X166.296 Y155.84 E4.62116
G1 X166.029 Y156.07 E4.63288
G1 X165.405 Y156.554 E4.65915
G1 X164.736 Y156.973 E4.6854
G1 X164.027 Y157.322 E4.71169
G1 X163.287 Y157.598 E4.73796
G1 X162.523 Y157.797 E4.76421
G1 X161.743 Y157.918 E4.79047
G1 X160.954 Y157.96 E4.81675
G1 X159.788 Y157.875 E4.85563
G1 X148.279 Y156.16 E5.24265
G1 X147.65 Y156.039 E5.26395
G1 X147.089 Y155.908 E5.28311
G1 X133.392 Y153.799 E5.74405
G1 X133.363 Y154.379 E5.76336
G1 X133.244 Y155.159 E5.7896
G1 X133.046 Y155.924 E5.81589
G1 X132.772 Y156.664 E5.84213
G1 X132.424 Y157.373 E5.8684
G1 X132.006 Y158.044 E5.89469
G1 X131.523 Y158.668 E5.92094
G1 X131.498 Y158.695 E5.92216
G1 X136.934 Y165.42 E6.20977
G1 X137.332 Y165.688 E6.22573
G1 X137.94 Y166.192 E6.252
G1 X138.548 Y166.815 E6.28095
G1 X139.615 Y168.04 E6.33499
G1 X140.103 Y168.661 E6.36125
G1 X140.525 Y169.328 E6.38751
G1 X140.878 Y170.034 E6.41376
G1 X141.158 Y170.773 E6.44004
G1 X141.361 Y171.536 E6.4663
G1 X141.487 Y172.316 E6.49258
G1 X141.533 Y173.163 E6.5208
G1 X141.533 Y176.901 E6.64512
G1 X141.493 Y177.69 E6.6714
G1 X141.374 Y178.47 E6.69764
G1 X141.176 Y179.235 E6.72392
G1 X140.902 Y179.975 E6.75017
G1 X140.554 Y180.684 E6.77644
G1 X140.136 Y181.355 E6.80273
G1 X139.653 Y181.979 E6.82898
G1 X139.11 Y182.552 E6.85523
G1 X138.511 Y183.067 E6.88151
G1 X137.863 Y183.518 E6.90777
G1 X137.172 Y183.902 E6.93406
G1 X136.447 Y184.214 E6.96031
G1 X135.694 Y184.451 E6.98657
G1 X134.92 Y184.61 E7.01285
G1 X134.135 Y184.691 E7.0391
G1 X133.345 Y184.691 E7.06537
G1 X132.887 Y184.655 E7.08065
G1 X130.826 Y184.43 E7.14961
G1 X130.046 Y184.305 E7.17588
G1 X129.283 Y184.101 E7.20215
G1 X128.945 Y183.973 E7.21417
G1 X121.031 Y183.188 E7.47868
G1 X117.55 Y182.913 E7.59482
G1 X106.3 Y183.928 E7.97052
G1 X106.049 Y184.036 E7.97961
G1 X105.296 Y184.273 E8.00586
G1 X104.522 Y184.432 E8.03214
G1 X104.004 Y184.494 E8.0495
G1 X101.937 Y184.672 E8.1185
G1 X101.148 Y184.7 E8.14476
G1 X100.36 Y184.648 E8.17102
G1 X99.581 Y184.516 E8.1973
G1 X98.82 Y184.307 E8.22355
G1 X98.084 Y184.021 E8.24981
G1 X97.38 Y183.663 E8.27608
G1 X96.716 Y183.235 E8.30236
G1 X96.099 Y182.743 E8.32861
G1 X95.535 Y182.19 E8.35488
G1 X95.03 Y181.583 E8.38114
G1 X94.588 Y180.928 E8.40742
G1 X94.215 Y180.232 E8.43368
G1 X93.915 Y179.502 E8.45993
G1 X93.689 Y178.745 E8.48621
G1 X93.542 Y177.97 E8.51245
G1 X93.468 Y176.903 E8.54802
G1 X93.467 Y173.172 E8.67211
G1 X93.507 Y172.383 E8.69839
G1 X93.626 Y171.603 E8.72463
G1 X93.824 Y170.838 E8.75092
G1 X94.098 Y170.098 E8.77716
G1 X94.445 Y169.388 E8.80345
G1 X94.862 Y168.718 E8.82969
G1 X95.385 Y168.048 E8.85796
G1 X96.457 Y166.817 E8.91226
G1 X97.005 Y166.248 E8.93853
G1 X97.608 Y165.738 E8.9648
G1 X97.998 Y165.47 E8.98054
G1 X103.499 Y158.68 E9.27119
G1 X103.353 Y158.519 E9.27842
G1 X102.886 Y157.883 E9.30466
G1 X102.485 Y157.203 E9.33092
G1 X102.155 Y156.485 E9.3572
G1 X101.9 Y155.738 E9.38345
G1 X101.721 Y154.969 E9.40971
G1 X101.621 Y154.185 E9.436
G1 X101.606 Y153.799 E9.44885
G1 X88.167 Y155.867 E9.90109
G1 X87.805 Y155.97 E9.91361
G1 X87.201 Y156.085 E9.93406
G1 X75.23 Y157.881 E10.33667
G1 X74.444 Y157.958 E10.36294
G1 X73.655 Y157.956 E10.38918
G1 X72.869 Y157.874 E10.41547
G1 X72.096 Y157.712 E10.44174
G1 X71.343 Y157.474 E10.468
G1 X70.619 Y157.16 E10.49425
G1 X69.929 Y156.775 E10.52053
G1 X69.013 Y156.103 E10.55831
G1 X68.735 Y155.866 E10.57047
G1 X68.16 Y155.324 E10.59675
G1 X67.644 Y154.726 E10.62302
G1 X67.191 Y154.08 E10.64926
G1 X66.805 Y153.391 E10.67553
G1 X66.491 Y152.666 E10.70181
G1 X66.251 Y151.914 E10.72806
G1 X66.09 Y151.141 E10.75432
G1 X66.007 Y150.355 E10.78061
G1 X65.995 Y149.891 E10.79605
G1 X66.043 Y140.222 E11.11764
G1 X66.087 Y139.434 E11.14389
G1 X66.21 Y138.654 E11.17016
G1 X66.412 Y137.89 E11.19644
G1 X66.69 Y137.151 E11.2227
G1 X67.041 Y136.444 E11.24895
G1 X67.686 Y135.472 E11.28775
G1 X75.841 Y124.989 E11.7295
G1 X76.357 Y124.391 E11.75577
G1 X76.931 Y123.848 E11.78205
G1 X77.556 Y123.366 E11.8083
G1 X78.228 Y122.95 E11.83459
G1 X78.937 Y122.604 E11.86083
G1 X79.678 Y122.331 E11.88709
G1 X80.443 Y122.135 E11.91336
G1 X81.224 Y122.016 E11.93963
G1 X81.886 Y121.984 E11.96168
G1 X102.262 Y94.891 E13.0892
G1 X102.768 Y94.284 E13.11548
G1 X103.333 Y93.732 E13.14175
G1 X103.951 Y93.24 E13.16802
G1 X104.615 Y92.813 E13.19428
G1 X105.319 Y92.455 E13.22055
G1 X106.055 Y92.171 E13.24679
G1 X106.817 Y91.962 E13.27307
G1 X107.596 Y91.831 E13.29934
G1 X108.384 Y91.78 E13.32561
G1 X108.818 Y91.795 E13.34005
G1 X108.85 Y91.409 E13.35293
G1 X108.955 Y90.627 E13.37918
G1 X109.065 Y90.126 E13.39624
G1 X109.56 Y88.181 E13.46299
G1 X108.955 Y87.682 E13.48907
G1 X108.4 Y87.12 E13.51534
G1 X107.904 Y86.505 E13.54162
G1 X107.473 Y85.844 E13.56787
G1 X107.111 Y85.142 E13.59414
G1 X106.822 Y84.407 E13.62041
G1 X106.609 Y83.647 E13.64666
G1 X106.474 Y82.868 E13.67295
G1 X106.418 Y82.081 E13.6992
G1 X106.442 Y81.291 E13.72548
G1 X106.536 Y80.559 E13.75003
G1 X106.716 Y79.543 E13.78435
G1 X106.726 Y78.847 E13.8075
G1 X106.816 Y78.063 E13.83375
G1 X106.821 Y78.042 E13.83446
G1 X106.866 Y77.38 E13.85653
G1 X106.912 Y77.146 E13.86447
G1 X106.911 Y77.128 E13.86506
G1 X106.967 Y76.34 E13.89134
G1 X107.021 Y76.064 E13.90069
G1 X107.02 Y76.015 E13.90232
G1 X107.083 Y75.227 E13.92862
G1 X107.129 Y74.998 E13.93639
G1 X107.191 Y74.29 E13.96002
G1 X107.282 Y73.815 E13.97611
G1 X107.305 Y73.605 E13.98314
G1 X107.277 Y72.816 E14.00939
G1 X107.289 Y72.027 E14.03564
G1 X107.381 Y71.242 E14.06193
G1 X107.653 Y70.134 E14.09987
G1 X107.663 Y70.103 E14.10096
G1 X107.76 Y69.458 E14.12265
G1 X107.77 Y69.275 E14.12875
G1 X107.894 Y68.495 E14.15502
G1 X107.899 Y68.475 E14.1557
G1 X107.907 Y68.34 E14.1602
G1 X108.023 Y67.615 E14.18462
G1 X108.031 Y67.466 E14.18958
G1 X108.152 Y66.686 E14.21584
G1 X108.163 Y66.643 E14.21731
G1 X108.169 Y66.535 E14.22091
G1 X108.284 Y65.791 E14.24595
G1 X108.292 Y65.635 E14.25114
G1 X108.413 Y64.855 E14.2774
G1 X108.436 Y64.767 E14.28042
G1 X108.453 Y64.542 E14.28793
G1 X108.49 Y64.334 E14.29495
G1 X108.49 Y64.32 E14.29542
G1 X108.574 Y63.535 E14.32168
G1 X108.673 Y63.102 E14.33645
G1 X108.73 Y62.565 E14.35441
G1 X108.798 Y62.267 E14.36458
G1 X108.882 Y61.556 E14.38839
G1 X108.937 Y61.319 E14.39648
G1 X108.99 Y60.889 E14.41089
G1 X108.989 Y60.738 E14.41592
G1 X109.065 Y59.952 E14.44218
G1 X109.187 Y59.308 E14.46398
G1 X109.592 Y57.582 E14.52295
G1 X109.811 Y56.823 E14.54922
G1 X110.106 Y56.091 E14.57547
M204 S5000
M205 X30 Y30
G0 F3600 X110.486 Y56.222
M204 S500
M205 X20 Y20
G1 F1800 X110.848 Y55.544 E14.60103
G1 X111.279 Y54.907 E14.62661
G1 X111.774 Y54.318 E14.6522
G1 X112.327 Y53.783 E14.6778
G1 X112.932 Y53.309 E14.70336
G1 X113.584 Y52.9 E14.72896
G1 X114.274 Y52.561 E14.75453
G1 X114.996 Y52.295 E14.78012
G1 X115.741 Y52.106 E14.80568
G1 X116.503 Y51.996 E14.83129
G1 X117.186 Y51.964 E14.85403
G1 X117.819 Y51.964 E14.87509
G1 X118.587 Y52.004 E14.90066
G1 X119.347 Y52.123 E14.92625
G1 X120.09 Y52.321 E14.95182
G1 X120.809 Y52.595 E14.97742
G1 X121.495 Y52.942 E15.00299
G1 X122.142 Y53.358 E15.02857
G1 X122.742 Y53.839 E15.05415
G1 X123.289 Y54.38 E15.07973
G1 X123.777 Y54.975 E15.10533
G1 X124.2 Y55.617 E15.1309
G1 X124.555 Y56.3 E15.1565
G1 X124.836 Y57.015 E15.18205
G1 X125.081 Y57.939 E15.21385
G1 X125.411 Y59.621 E15.27086
G1 X125.509 Y60.314 E15.29414
G1 X125.575 Y60.586 E15.30345
G1 X125.678 Y61.348 E15.32902
G1 X125.681 Y61.439 E15.33205
G1 X125.722 Y61.62 E15.33822
G1 X125.793 Y62.215 E15.35815
G1 X125.82 Y62.323 E15.36185
G1 X125.929 Y63.084 E15.38742
G1 X125.93 Y63.164 E15.39008
G1 X125.97 Y63.329 E15.39573
G1 X126.07 Y64.092 E15.42133
G1 X126.07 Y64.101 E15.42163
G1 X126.092 Y64.19 E15.42467
G1 X126.198 Y64.952 E15.45026
G1 X126.199 Y65.008 E15.45213
G1 X126.222 Y65.104 E15.45541
G1 X126.325 Y65.867 E15.48102
G1 X126.325 Y65.897 E15.48201
G1 X126.341 Y65.96 E15.48418
G1 X126.448 Y66.721 E15.50974
G1 X126.45 Y66.773 E15.51147
G1 X126.559 Y67.442 E15.53401
G1 X126.571 Y67.652 E15.54101
G1 X126.676 Y68.255 E15.56137
G1 X126.694 Y68.528 E15.57047
G1 X126.806 Y69.188 E15.59273
G1 X126.817 Y69.37 E15.5988
G1 X126.821 Y69.383 E15.59925
G1 X126.949 Y70.142 E15.62485
G1 X126.952 Y70.188 E15.62638
G1 X126.976 Y70.261 E15.62894
G1 X127.179 Y71.002 E15.65449
G1 X127.304 Y71.761 E15.68008
G1 X127.35 Y72.529 E15.70567
G1 X127.324 Y73.101 E15.72471
G1 X127.508 Y73.623 E15.74312
G1 X127.624 Y74.07 E15.75848
G1 X127.739 Y74.575 E15.7757
G1 X127.871 Y75.333 E15.8013
G1 X127.909 Y75.896 E15.82006
G1 X128.022 Y76.524 E15.84129
G1 X128.063 Y77.082 E15.8599
G1 X128.063 Y77.083 E15.85993
G1 X128.227 Y78.128 E15.89511
G1 X128.319 Y79.212 E15.93129
G1 X128.345 Y79.981 E15.95689
G1 X128.336 Y80.076 E15.96006
G1 X128.422 Y80.651 E15.9794
G1 X128.497 Y81.417 E16.005
G1 X128.491 Y82.186 E16.03057
G1 X128.392 Y83.028 E16.05877
G1 X128.337 Y83.341 E16.06934
G1 X128.165 Y84.09 E16.0949
G1 X127.916 Y84.818 E16.12049
G1 X127.592 Y85.516 E16.14609
G1 X127.198 Y86.176 E16.17165
G1 X126.738 Y86.792 E16.19722
G1 X126.216 Y87.357 E16.22281
G1 X125.638 Y87.865 E16.2484
G1 X125.011 Y88.31 E16.27398
G1 X125.005 Y88.314 E16.27421
G1 X125.131 Y88.891 E16.29386
G1 X125.33 Y89.446 E16.31347
G1 X125.551 Y90.183 E16.33906
G1 X125.737 Y91.316 E16.37725
G1 X125.814 Y92.219 E16.40739
G1 X126.431 Y92.18 E16.42795
G1 X127.2 Y92.212 E16.45355
G1 X127.961 Y92.324 E16.47914
G1 X128.706 Y92.514 E16.50471
G1 X129.428 Y92.78 E16.5303
G1 X130.118 Y93.12 E16.55588
G1 X130.769 Y93.53 E16.58147
G1 X131.374 Y94.005 E16.60706
G1 X131.926 Y94.54 E16.63262
G1 X132.422 Y95.132 E16.65831
G1 X152.916 Y122.381 E17.79234
G1 X153.624 Y122.404 E17.8159
G1 X154.386 Y122.508 E17.84148
G1 X155.133 Y122.691 E17.86706
G1 X155.857 Y122.95 E17.89263
G1 X156.55 Y123.284 E17.91822
G1 X157.205 Y123.687 E17.9438
G1 X157.815 Y124.156 E17.96939
G1 X158.372 Y124.686 E17.99496
G1 X158.86 Y125.255 E18.01989
G1 X167.062 Y135.877 E18.46625
G1 X167.5 Y136.51 E18.49185
G1 X167.87 Y137.184 E18.51742
G1 X168.168 Y137.893 E18.543
G1 X168.39 Y138.63 E18.5686
G1 X168.535 Y139.385 E18.59417
G1 X168.605 Y140.4 E18.62801
G1 X168.605 Y149.93 E18.94498
G1 X168.565 Y150.698 E18.97056
G1 X168.446 Y151.458 E18.99615
G1 X168.248 Y152.201 E19.02172
G1 X167.974 Y152.92 E19.04731
G1 X167.627 Y153.606 E19.07288
G1 X167.211 Y154.253 E19.09847
G1 X166.73 Y154.853 E19.12404
G1 X166.035 Y155.537 E19.15648
G1 X165.768 Y155.767 E19.1682
G1 X165.16 Y156.238 E19.19378
G1 X164.506 Y156.643 E19.21936
G1 X163.814 Y156.978 E19.24493
G1 X163.09 Y157.24 E19.27054
G1 X162.344 Y157.425 E19.29611
G1 X161.582 Y157.532 E19.3217
G1 X160.814 Y157.559 E19.34726
G1 X159.847 Y157.479 E19.37953
G1 X148.338 Y155.764 E19.76655
G1 X147.741 Y155.65 E19.78676
G1 X147.163 Y155.515 E19.8065
G1 X133.003 Y153.335 E20.28302
G1 X133.003 Y153.59 E20.2915
G1 X132.963 Y154.358 E20.31708
G1 X132.844 Y155.118 E20.34266
G1 X132.646 Y155.861 E20.36824
G1 X132.372 Y156.58 E20.39383
G1 X132.025 Y157.266 E20.4194
G1 X131.609 Y157.913 E20.44498
G1 X131.128 Y158.513 E20.47056
G1 X130.971 Y158.68 E20.47818
G1 X136.648 Y165.703 E20.77854
G1 X137.252 Y166.13 E20.80314
G1 X137.83 Y166.638 E20.82874
G1 X138.246 Y167.078 E20.84888
G1 X139.313 Y168.303 E20.90291
G1 X139.787 Y168.908 E20.92847
G1 X140.196 Y169.56 E20.95407
G1 X140.535 Y170.25 E20.97964
G1 X140.801 Y170.972 E21.00523
G1 X140.99 Y171.717 E21.0308
G1 X141.101 Y172.478 E21.05637
G1 X141.133 Y173.163 E21.07918
G1 X141.133 Y176.901 E21.20351
G1 X141.093 Y177.669 E21.22909
G1 X140.974 Y178.429 E21.25467
G1 X140.776 Y179.172 E21.28025
G1 X140.502 Y179.891 E21.30584
G1 X140.155 Y180.577 E21.33141
G1 X139.739 Y181.224 E21.35699
G1 X139.258 Y181.824 E21.38257
