;FLAVOR:Marlin
;TIME:1959
;Filament used: 0.880317m
;Layer height: 0.2
;MINX:94.936
;MINY:94.945
;MINZ:0.2
;MAXX:125.064
;MAXY:125.06
;MAXZ:32.4
;Generated with Cura_SteamEngine 4.2.1
M140 S50
M105
M190 S50
M104 S200
M105
M109 S200
M82 ;absolute extrusion mode
M201 X500.00 Y500.00 Z100.00 E5000.00 ;Setup machine max acceleration
M203 X500.00 Y500.00 Z10.00 E50.00 ;Setup machine max feedrate
M204 P500.00 R1000.00 T500.00 ;Setup Print/Retract/Travel acceleration
M205 X8.00 Y8.00 Z0.40 E5.00 ;Setup Jerk
M220 S100 ;Reset Feedrate
M221 S100 ;Reset Flowrate

G28 ;Home

G92 E0 ;Reset Extruder
G1 Z2.0 F3000 ;Move Z Axis up
G1 X2.1 Y20 Z0.28 F5000.0 ;Move to start position
G1 X2.1 Y200.0 Z0.28 F1500.0 E15 ;Draw the first line
G1 X2.4 Y200.0 Z0.28 F5000.0 ;Move to side a little
G1 X2.4 Y20 Z0.28 F1500.0 E30 ;Draw the second line
G92 E0 ;Reset Extruder
G1 Z2.0 F3000 ;Move Z Axis up
M141 S28
G92 E0
G92 E0
G1 F2700 E-5
;LAYER_COUNT:162
;LAYER:0
M107
G0 F6000 X99.334 Y99.366 Z0.2
;TYPE:SKIRT
G1 F2700 E0
G1 F1200 X100.214 Y98.545 E0.04403
G1 X100.401 Y98.388 E0.05297
G1 X101.106 Y97.841 E0.08561
G1 X101.338 Y97.675 E0.09605
G1 X102.09 Y97.18 E0.12899
G1 X102.37 Y97.011 E0.14095
G1 X103.212 Y96.549 E0.17609
G1 X103.807 Y96.276 E0.20004
G1 X104.269 Y96.079 E0.21842
G1 X105.326 Y95.688 E0.25965
G1 X105.748 Y95.555 E0.27584
G1 X107.008 Y95.234 E0.32341
G1 X107.249 Y95.187 E0.33239
G1 X108.102 Y95.054 E0.36398
G1 X108.364 Y95.023 E0.37363
G1 X109.322 Y94.95 E0.40878
G1 X109.936 Y94.945 E0.43124
G1 X110.577 Y94.957 E0.4547
G1 X111.933 Y95.063 E0.50446
G1 X112.202 Y95.1 E0.5144
G1 X113.229 Y95.289 E0.5526
G1 X113.601 Y95.375 E0.56657
G1 X114.527 Y95.63 E0.60171
G1 X115.016 Y95.799 E0.62064
G1 X115.458 Y95.963 E0.63789
G1 X116.344 Y96.334 E0.67303
G1 X116.994 Y96.664 E0.6997
G1 X117.488 Y96.935 E0.72032
G1 X118.515 Y97.571 E0.76451
G1 X118.688 Y97.691 E0.77221
G1 X119.331 Y98.171 E0.80157
G1 X119.523 Y98.325 E0.81058
G1 X120.159 Y98.874 E0.84131
G1 X120.357 Y99.058 E0.8512
G1 X121.115 Y99.832 E0.89084
G1 X121.353 Y100.099 E0.90393
G1 X121.971 Y100.854 E0.93962
G1 X122.157 Y101.102 E0.95096
G1 X122.756 Y101.983 E0.98994
G1 X122.882 Y102.188 E0.99874
G1 X123.311 Y102.948 E1.03067
G1 X123.484 Y103.284 E1.0445
G1 X123.923 Y104.243 E1.08309
G1 X124.001 Y104.436 E1.0907
G1 X124.281 Y105.205 E1.12065
G1 X124.383 Y105.52 E1.13276
G1 X124.735 Y106.891 E1.18455
G1 X124.836 Y107.415 E1.20407
G1 X124.979 Y108.365 E1.23922
G1 X125.022 Y108.868 E1.25769
G1 X125.043 Y109.199 E1.26982
G1 X125.064 Y110.16 E1.30499
G1 X125.037 Y110.746 E1.32645
G1 X124.991 Y111.395 E1.35026
G1 X124.883 Y112.349 E1.38538
G1 X124.782 Y112.909 E1.4062
G1 X124.728 Y113.171 E1.41599
G1 X124.533 Y113.973 E1.44618
G1 X124.458 Y114.239 E1.4563
G1 X124.161 Y115.147 E1.49125
G1 X124.084 Y115.353 E1.49929
G1 X123.775 Y116.099 E1.52884
G1 X123.641 Y116.393 E1.54066
G1 X123.206 Y117.25 E1.57582
G1 X122.851 Y117.842 E1.60107
G1 X122.485 Y118.412 E1.62586
G1 X121.932 Y119.198 E1.66102
G1 X121.236 Y120.024 E1.70054
G1 X120.828 Y120.464 E1.72249
G1 X119.805 Y121.439 E1.77419
G1 X119.62 Y121.595 E1.78305
G1 X118.861 Y122.183 E1.81817
G1 X118.335 Y122.535 E1.84133
G1 X117.737 Y122.912 E1.86719
G1 X116.904 Y123.39 E1.90233
G1 X116.407 Y123.633 E1.92257
G1 X116.181 Y123.737 E1.93167
G1 X115.077 Y124.178 E1.97517
G1 X114.754 Y124.288 E1.98765
G1 X114.338 Y124.421 E2.00363
G1 X114.087 Y124.496 E2.01321
G1 X112.992 Y124.766 E2.05448
G1 X112.751 Y124.813 E2.06346
G1 X111.325 Y124.999 E2.11607
G1 X110.825 Y125.033 E2.13441
G1 X109.991 Y125.06 E2.16494
G1 X109.766 Y125.059 E2.17317
G1 X108.743 Y125.009 E2.21064
G1 X108.422 Y124.979 E2.22244
G1 X107.606 Y124.873 E2.25254
G1 X107.365 Y124.833 E2.26148
G1 X106.34 Y124.615 E2.29982
G1 X106.091 Y124.55 E2.30924
G1 X105.369 Y124.336 E2.33679
G1 X105.095 Y124.245 E2.34735
G1 X104.036 Y123.834 E2.38891
G1 X103.724 Y123.695 E2.40141
G1 X102.813 Y123.24 E2.43866
G1 X102.536 Y123.086 E2.45026
G1 X101.742 Y122.602 E2.48428
G1 X101.529 Y122.46 E2.49364
G1 X100.754 Y121.896 E2.52871
G1 X100.521 Y121.711 E2.5396
G1 X99.84 Y121.125 E2.57247
G1 X99.641 Y120.94 E2.58241
G1 X98.885 Y120.169 E2.62191
G1 X98.646 Y119.901 E2.63505
G1 X98.037 Y119.158 E2.6702
G1 X97.698 Y118.682 E2.69158
G1 X97.356 Y118.176 E2.71392
G1 X96.702 Y117.082 E2.76056
G1 X96.599 Y116.886 E2.76866
G1 X96.165 Y115.964 E2.80594
G1 X96.041 Y115.667 E2.81771
G1 X95.753 Y114.904 E2.84755
G1 X95.687 Y114.708 E2.85512
G1 X95.475 Y114.004 E2.88202
G1 X95.409 Y113.757 E2.89137
G1 X95.179 Y112.7 E2.93095
G1 X95.115 Y112.321 E2.94501
G1 X94.976 Y111.108 E2.98968
G1 X94.955 Y110.767 E3.00218
G1 X94.936 Y109.807 E3.03731
G1 X94.965 Y109.202 E3.05947
G1 X95.013 Y108.557 E3.08313
G1 X95.124 Y107.602 E3.11831
G1 X95.224 Y107.056 E3.13862
G1 X95.277 Y106.802 E3.14811
G1 X95.473 Y106.005 E3.17814
G1 X95.55 Y105.734 E3.18844
G1 X95.851 Y104.822 E3.22358
G1 X96.054 Y104.319 E3.24343
G1 X96.292 Y103.767 E3.26542
G1 X96.709 Y102.901 E3.30058
G1 X96.979 Y102.422 E3.3207
G1 X97.127 Y102.174 E3.33127
G1 X97.493 Y101.6 E3.35617
G1 X97.614 Y101.422 E3.36405
G1 X98.164 Y100.68 E3.39784
G1 X98.328 Y100.476 E3.40742
G1 X99.022 Y99.689 E3.44581
G1 X99.334 Y99.366 E3.46224
G0 F6000 X99.65 Y99.671
G1 F1200 X100.497 Y98.882 E3.50459
G1 X100.684 Y98.725 E3.51352
G1 X101.362 Y98.199 E3.54491
G1 X101.594 Y98.033 E3.55535
G1 X102.317 Y97.557 E3.58702
G1 X102.597 Y97.388 E3.59899
G1 X103.424 Y96.936 E3.63347
G1 X103.979 Y96.681 E3.65581
G1 X104.441 Y96.484 E3.67419
G1 X105.458 Y96.107 E3.71387
G1 X105.88 Y95.974 E3.73006
G1 X107.092 Y95.666 E3.77581
G1 X107.333 Y95.619 E3.78479
G1 X108.154 Y95.491 E3.81519
G1 X108.416 Y95.46 E3.82485
G1 X109.355 Y95.389 E3.8593
G1 X109.928 Y95.385 E3.88026
G1 X110.569 Y95.397 E3.90372
G1 X111.874 Y95.499 E3.95161
G1 X112.143 Y95.536 E3.96154
G1 X113.13 Y95.717 E3.99826
G1 X113.502 Y95.803 E4.01223
G1 X114.41 Y96.054 E4.04669
G1 X114.863 Y96.211 E4.06423
G1 X115.305 Y96.375 E4.08148
G1 X116.174 Y96.74 E4.11596
G1 X116.783 Y97.05 E4.14097
G1 X117.277 Y97.321 E4.16158
G1 X118.264 Y97.932 E4.20405
G1 X118.437 Y98.052 E4.21175
G1 X119.056 Y98.514 E4.24001
G1 X119.248 Y98.668 E4.24902
G1 X119.859 Y99.196 E4.27856
G1 X120.057 Y99.38 E4.28845
G1 X120.787 Y100.125 E4.32661
G1 X121.025 Y100.392 E4.3397
G1 X121.619 Y101.118 E4.37402
G1 X121.805 Y101.366 E4.38536
G1 X122.382 Y102.214 E4.42288
G1 X122.508 Y102.419 E4.43169
G1 X122.92 Y103.15 E4.46239
G1 X123.093 Y103.486 E4.47621
G1 X123.515 Y104.408 E4.51331
G1 X123.593 Y104.601 E4.52093
G1 X123.862 Y105.341 E4.54974
G1 X123.964 Y105.656 E4.56185
G1 X124.303 Y106.974 E4.61164
G1 X124.404 Y107.498 E4.63116
G1 X124.583 Y108.896 E4.68273
G1 X124.604 Y109.227 E4.69486
G1 X124.623 Y110.169 E4.72933
G1 X124.598 Y110.715 E4.74933
G1 X124.552 Y111.364 E4.77314
G1 X124.446 Y112.3 E4.8076
G1 X124.351 Y112.82 E4.82694
G1 X124.297 Y113.082 E4.83673
G1 X124.109 Y113.853 E4.86576
G1 X124.034 Y114.119 E4.87587
G1 X123.748 Y114.993 E4.90952
G1 X123.671 Y115.199 E4.91756
G1 X123.374 Y115.917 E4.94599
G1 X123.24 Y116.211 E4.95781
G1 X122.814 Y117.05 E4.99224
G1 X122.48 Y117.604 E5.0159
G1 X122.114 Y118.174 E5.04069
G1 X121.572 Y118.945 E5.07517
G1 X120.913 Y119.724 E5.1125
G1 X120.505 Y120.164 E5.13445
G1 X119.522 Y121.103 E5.18419
G1 X119.337 Y121.259 E5.19304
G1 X118.591 Y121.835 E5.22752
G1 X118.101 Y122.163 E5.2491
G1 X117.503 Y122.54 E5.27496
G1 X116.685 Y123.008 E5.30944
G1 X116.223 Y123.234 E5.32826
G1 X115.997 Y123.338 E5.33736
G1 X114.935 Y123.761 E5.37918
G1 X114.612 Y123.871 E5.39166
G1 X114.212 Y123.999 E5.40703
G1 X113.961 Y124.074 E5.41661
G1 X112.908 Y124.334 E5.4563
G1 X112.667 Y124.381 E5.46528
G1 X111.295 Y124.56 E5.5159
G1 X110.795 Y124.594 E5.53424
G1 X109.993 Y124.62 E5.56359
G1 X109.768 Y124.619 E5.57183
G1 X108.784 Y124.571 E5.60787
G1 X108.463 Y124.541 E5.61967
G1 X107.679 Y124.439 E5.64859
G1 X107.438 Y124.399 E5.65753
G1 X106.451 Y124.189 E5.69445
G1 X106.202 Y124.124 E5.70386
G1 X105.507 Y123.918 E5.73038
G1 X105.233 Y123.827 E5.74095
G1 X104.215 Y123.432 E5.7809
G1 X103.903 Y123.293 E5.79339
G1 X103.026 Y122.855 E5.82926
G1 X102.749 Y122.701 E5.84085
G1 X101.986 Y122.236 E5.87354
G1 X101.773 Y122.094 E5.88291
G1 X101.028 Y121.551 E5.91664
G1 X100.795 Y121.366 E5.92752
G1 X100.139 Y120.803 E5.95915
G1 X99.94 Y120.618 E5.96909
G1 X99.214 Y119.876 E6.00707
G1 X98.975 Y119.608 E6.02021
G1 X98.378 Y118.879 E6.05468
G1 X98.063 Y118.436 E6.07457
G1 X97.721 Y117.93 E6.09691
G1 X97.091 Y116.878 E6.14178
G1 X96.988 Y116.682 E6.14988
G1 X96.571 Y115.795 E6.18574
G1 X96.447 Y115.498 E6.19751
G1 X96.17 Y114.763 E6.22625
G1 X96.104 Y114.567 E6.23382
G1 X95.9 Y113.89 E6.25968
G1 X95.834 Y113.643 E6.26904
G1 X95.613 Y112.626 E6.30711
G1 X95.549 Y112.247 E6.32118
G1 X95.415 Y111.081 E6.36412
G1 X95.394 Y110.74 E6.37662
G1 X95.376 Y109.798 E6.41109
G1 X95.404 Y109.234 E6.43175
G1 X95.452 Y108.589 E6.45541
G1 X95.561 Y107.654 E6.48985
G1 X95.655 Y107.146 E6.50875
G1 X95.708 Y106.892 E6.51824
G1 X95.897 Y106.125 E6.54715
G1 X95.974 Y105.854 E6.55745
G1 X96.269 Y104.96 E6.5919
G1 X96.458 Y104.493 E6.61033
G1 X96.696 Y103.941 E6.63232
G1 X97.105 Y103.093 E6.66677
G1 X97.357 Y102.648 E6.68548
G1 X97.505 Y102.4 E6.69604
G1 X97.857 Y101.848 E6.71999
G1 X97.978 Y101.67 E6.72787
G1 X98.507 Y100.955 E6.76041
G1 X98.671 Y100.751 E6.76999
G1 X99.338 Y99.994 E6.8069
G1 X99.65 Y99.671 E6.82333
G0 F6000 X99.967 Y99.977
G1 F1200 X100.78 Y99.219 E6.864
G1 X100.967 Y99.062 E6.87293
G1 X101.618 Y98.557 E6.90307
G1 X101.85 Y98.391 E6.91351
G1 X102.545 Y97.934 E6.94394
G1 X102.825 Y97.765 E6.95591
G1 X103.635 Y97.322 E6.98968
G1 X104.152 Y97.085 E7.01049
G1 X104.614 Y96.888 E7.02887
G1 X105.591 Y96.527 E7.06697
G1 X106.013 Y96.394 E7.08316
G1 X107.177 Y96.098 E7.1271
G1 X107.418 Y96.051 E7.13609
G1 X108.205 Y95.928 E7.16523
G1 X108.467 Y95.897 E7.17488
G1 X109.388 Y95.828 E7.20867
G1 X109.92 Y95.825 E7.22814
G1 X110.561 Y95.837 E7.25159
G1 X111.814 Y95.934 E7.29757
G1 X112.083 Y95.971 E7.30751
G1 X113.031 Y96.146 E7.34278
G1 X113.403 Y96.232 E7.35675
G1 X114.71 Y96.624 E7.40667
G1 X115.152 Y96.788 E7.42392
G1 X116.003 Y97.146 E7.45769
G1 X116.571 Y97.436 E7.48103
G1 X117.065 Y97.707 E7.50164
G1 X118.014 Y98.294 E7.54247
G1 X118.187 Y98.414 E7.55017
G1 X118.781 Y98.857 E7.57728
G1 X118.973 Y99.011 E7.58629
G1 X119.56 Y99.518 E7.61466
G1 X119.758 Y99.702 E7.62455
G1 X120.459 Y100.418 E7.66121
G1 X120.697 Y100.685 E7.6743
G1 X121.267 Y101.382 E7.70724
G1 X121.453 Y101.63 E7.71858
G1 X122.007 Y102.444 E7.75461
G1 X122.133 Y102.649 E7.76341
G1 X122.529 Y103.351 E7.7929
G1 X122.702 Y103.687 E7.80672
G1 X123.107 Y104.573 E7.84237
G1 X123.185 Y104.766 E7.84998
G1 X123.444 Y105.476 E7.87763
G1 X123.546 Y105.791 E7.88975
G1 X123.871 Y107.057 E7.93757
G1 X123.972 Y107.581 E7.95709
G1 X124.144 Y108.924 E8.00663
G1 X124.165 Y109.255 E8.01876
G1 X124.183 Y110.178 E8.05254
G1 X124.159 Y110.684 E8.07107
G1 X124.113 Y111.333 E8.09487
G1 X124.008 Y112.25 E8.12864
G1 X123.921 Y112.731 E8.14653
G1 X123.867 Y112.993 E8.15631
G1 X123.686 Y113.734 E8.18422
G1 X123.611 Y114 E8.19433
G1 X123.336 Y114.839 E8.22663
G1 X123.259 Y115.045 E8.23468
G1 X122.974 Y115.734 E8.26196
G1 X122.84 Y116.028 E8.27378
G1 X122.421 Y116.851 E8.30757
G1 X122.11 Y117.367 E8.32961
G1 X121.744 Y117.937 E8.35439
G1 X121.212 Y118.691 E8.38816
G1 X120.591 Y119.425 E8.42333
G1 X120.183 Y119.865 E8.44528
G1 X119.238 Y120.766 E8.49305
G1 X119.053 Y120.922 E8.50191
G1 X118.322 Y121.486 E8.53569
G1 X117.866 Y121.791 E8.55576
G1 X117.268 Y122.168 E8.58162
G1 X116.466 Y122.626 E8.61541
G1 X116.039 Y122.834 E8.63279
G1 X115.813 Y122.938 E8.64189
G1 X114.794 Y123.345 E8.68204
G1 X114.471 Y123.455 E8.69452
G1 X114.086 Y123.578 E8.70931
G1 X113.835 Y123.653 E8.71889
G1 X112.823 Y123.902 E8.75702
G1 X112.582 Y123.949 E8.766
G1 X111.265 Y124.121 E8.8146
G1 X110.765 Y124.155 E8.83293
G1 X109.995 Y124.18 E8.86112
G1 X109.77 Y124.179 E8.86935
G1 X108.825 Y124.133 E8.90397
G1 X108.504 Y124.103 E8.91576
G1 X107.751 Y124.005 E8.94354
G1 X107.51 Y123.965 E8.95248
G1 X106.562 Y123.763 E8.98794
G1 X106.313 Y123.698 E8.99736
G1 X105.646 Y123.501 E9.0228
G1 X105.372 Y123.41 E9.03337
G1 X104.394 Y123.03 E9.07175
G1 X104.082 Y122.891 E9.08425
G1 X103.24 Y122.471 E9.11868
G1 X102.963 Y122.317 E9.13027
G1 X102.23 Y121.87 E9.16168
G1 X102.017 Y121.728 E9.17105
G1 X101.301 Y121.206 E9.20347
G1 X101.068 Y121.021 E9.21435
G1 X100.439 Y120.48 E9.2447
G1 X100.24 Y120.295 E9.25464
G1 X99.542 Y119.583 E9.29112
G1 X99.303 Y119.315 E9.30426
G1 X98.719 Y118.6 E9.33804
G1 X98.427 Y118.189 E9.35648
G1 X98.085 Y117.683 E9.37883
G1 X97.481 Y116.673 E9.42188
G1 X97.378 Y116.477 E9.42998
G1 X96.977 Y115.625 E9.46444
G1 X96.853 Y115.328 E9.47621
G1 X96.587 Y114.623 E9.50378
G1 X96.521 Y114.427 E9.51135
G1 X96.325 Y113.777 E9.53618
G1 X96.259 Y113.53 E9.54554
G1 X96.047 Y112.553 E9.58211
G1 X95.983 Y112.174 E9.59618
G1 X95.854 Y111.054 E9.63742
G1 X95.833 Y110.713 E9.64992
G1 X95.816 Y109.79 E9.6837
G1 X95.842 Y109.267 E9.70286
G1 X95.89 Y108.622 E9.72652
G1 X95.999 Y107.705 E9.76031
G1 X96.086 Y107.236 E9.77776
G1 X96.139 Y106.982 E9.78725
G1 X96.32 Y106.245 E9.81502
G1 X96.397 Y105.974 E9.82532
G1 X96.687 Y105.098 E9.85908
G1 X96.862 Y104.667 E9.8761
G1 X97.1 Y104.115 E9.89809
G1 X97.502 Y103.284 E9.93187
G1 X97.735 Y102.873 E9.94915
G1 X97.883 Y102.625 E9.95972
G1 X98.221 Y102.095 E9.98272
G1 X98.342 Y101.917 E9.99059
G1 X98.85 Y101.231 E10.02182
G1 X99.014 Y101.027 E10.0314
G1 X99.655 Y100.3 E10.06686
G1 X99.967 Y99.977 E10.08329
G0 F6000 X100.283 Y100.283
G1 F1200 X101.063 Y99.556 E10.1223
G1 X101.25 Y99.399 E10.13123
G1 X101.874 Y98.914 E10.16015
G1 X102.106 Y98.748 E10.17058
G1 X102.772 Y98.31 E10.19975
G1 X103.052 Y98.141 E10.21171
G1 X103.846 Y97.709 E10.24478
G1 X104.324 Y97.49 E10.26402
G1 X104.786 Y97.293 E10.2824
G1 X105.723 Y96.947 E10.31894
G1 X106.145 Y96.814 E10.33513
G1 X107.261 Y96.53 E10.37726
G1 X107.502 Y96.483 E10.38624
G1 X108.257 Y96.365 E10.4142
G1 X108.519 Y96.334 E10.42385
G1 X109.421 Y96.267 E10.45694
G1 X109.911 Y96.265 E10.47487
G1 X110.552 Y96.277 E10.49833
G1 X111.754 Y96.37 E10.54244
G1 X112.023 Y96.407 E10.55237
G1 X112.932 Y96.575 E10.58619
G1 X113.304 Y96.661 E10.60016
G1 X114.557 Y97.036 E10.64801
G1 X114.999 Y97.2 E10.66526
G1 X115.832 Y97.552 E10.69834
G1 X116.359 Y97.822 E10.72001
G1 X116.853 Y98.093 E10.74062
G1 X117.763 Y98.655 E10.77975
G1 X117.936 Y98.775 E10.78746
G1 X118.506 Y99.201 E10.81349
G1 X118.698 Y99.355 E10.8225
G1 X119.26 Y99.841 E10.84968
G1 X119.458 Y100.025 E10.85957
G1 X120.13 Y100.711 E10.8947
G1 X120.368 Y100.978 E10.90779
G1 X120.915 Y101.646 E10.93938
G1 X121.101 Y101.894 E10.95072
G1 X121.632 Y102.674 E10.98524
G1 X121.758 Y102.879 E10.99404
G1 X122.137 Y103.553 E11.02233
G1 X122.31 Y103.889 E11.03616
G1 X122.699 Y104.738 E11.07033
G1 X122.777 Y104.931 E11.07794
G1 X123.025 Y105.612 E11.10446
G1 X123.127 Y105.927 E11.11657
G1 X123.439 Y107.141 E11.16243
G1 X123.54 Y107.665 E11.18196
G1 X123.704 Y108.952 E11.22942
G1 X123.725 Y109.283 E11.24156
G1 X123.743 Y110.187 E11.27464
G1 X123.72 Y110.653 E11.29171
G1 X123.674 Y111.302 E11.31551
G1 X123.49 Y112.642 E11.365
G1 X123.436 Y112.904 E11.37479
G1 X123.262 Y113.614 E11.40153
G1 X123.187 Y113.88 E11.41164
G1 X122.924 Y114.685 E11.44263
G1 X122.847 Y114.891 E11.45067
G1 X122.574 Y115.552 E11.47684
G1 X122.44 Y115.846 E11.48866
G1 X122.029 Y116.651 E11.52173
G1 X121.74 Y117.129 E11.54216
G1 X121.374 Y117.699 E11.56694
G1 X120.852 Y118.437 E11.60002
G1 X120.268 Y119.126 E11.63306
G1 X119.86 Y119.566 E11.65502
G1 X118.954 Y120.43 E11.70082
G1 X118.769 Y120.586 E11.70967
G1 X118.053 Y121.138 E11.74275
G1 X117.631 Y121.418 E11.76128
G1 X117.033 Y121.795 E11.78714
G1 X115.855 Y122.434 E11.83617
G1 X115.629 Y122.538 E11.84527
G1 X114.652 Y122.928 E11.88376
G1 X114.329 Y123.038 E11.89625
G1 X113.96 Y123.156 E11.91042
G1 X113.709 Y123.231 E11.92
G1 X112.739 Y123.47 E11.95655
G1 X112.498 Y123.517 E11.96554
G1 X111.235 Y123.682 E12.01214
G1 X110.735 Y123.716 E12.03047
G1 X109.997 Y123.74 E12.05749
G1 X109.772 Y123.739 E12.06572
G1 X108.866 Y123.695 E12.09891
