;FLAVOR:Marlin
;TIME:4481
;Filament used: 2.69146m
;Layer height: 0.2
;MINX:68.988
;MINY:83.401
;MINZ:0.2
;MAXX:151.54
;MAXY:137.029
;MAXZ:12.6
;Generated with Cura_SteamEngine 4.2.1
M140 S50
M105
M190 S50
M104 S200
M105
M109 S200
M82 ;absolute extrusion mode
M201 X500.00 Y500.00 Z100.00 E5000.00 ;Setup machine max acceleration
M203 X500.00 Y500.00 Z10.00 E50.00 ;Setup machine max feedrate
M204 P500.00 R1000.00 T500.00 ;Setup Print/Retract/Travel acceleration
M205 X8.00 Y8.00 Z0.40 E5.00 ;Setup Jerk
M220 S100 ;Reset Feedrate
M221 S100 ;Reset Flowrate

G28 ;Home

G92 E0 ;Reset Extruder
G1 Z2.0 F3000 ;Move Z Axis up
G1 X2.1 Y20 Z0.28 F5000.0 ;Move to start position
G1 X2.1 Y200.0 Z0.28 F1500.0 E15 ;Draw the first line
G1 X2.4 Y200.0 Z0.28 F5000.0 ;Move to side a little
G1 X2.4 Y20 Z0.28 F1500.0 E30 ;Draw the second line
G92 E0 ;Reset Extruder
G1 Z2.0 F3000 ;Move Z Axis up
M141 S28
G92 E0
G92 E0
G1 F2700 E-5
;LAYER_COUNT:62
;LAYER:0
M107
G0 F6000 X73.209 Y86.415 Z0.2
;TYPE:SKIRT
G1 F2700 E0
G1 F1200 X73.968 Y85.825 E0.03517
G1 X74.773 Y85.301 E0.07031
G1 X75.618 Y84.846 E0.10543
G1 X76.499 Y84.462 E0.14059
G1 X77.409 Y84.153 E0.17575
G1 X78.341 Y83.921 E0.21089
G1 X79.289 Y83.767 E0.24602
G1 X80.455 Y83.687 E0.28878
G1 X81.012 Y83.677 E0.30917
G1 X81.219 Y83.675 E0.31674
G1 X82.692 Y83.675 E0.37063
G1 X82.855 Y83.676 E0.37659
G1 X83.561 Y83.686 E0.40243
G1 X83.887 Y83.695 E0.41436
G1 X84.708 Y83.73 E0.44442
G1 X87.222 Y83.801 E0.53644
G1 X89.752 Y83.801 E0.629
G1 X92.292 Y83.729 E0.72197
G1 X93.373 Y83.688 E0.76154
G1 X93.669 Y83.681 E0.77238
G1 X94.078 Y83.676 E0.78734
G1 X94.219 Y83.675 E0.7925
G1 X94.714 Y83.675 E0.81061
G1 X97.281 Y83.639 E0.90454
G1 X100.592 Y83.486 E1.0258
G1 X101.379 Y83.435 E1.05466
G1 X101.918 Y83.413 E1.07439
G1 X102.487 Y83.403 E1.09521
G1 X102.69 Y83.401 E1.10264
G1 X104.163 Y83.401 E1.15653
G1 X104.326 Y83.402 E1.1625
G1 X105.033 Y83.412 E1.18837
G1 X105.359 Y83.421 E1.2003
G1 X106.18 Y83.456 E1.23036
G1 X108.694 Y83.527 E1.32238
G1 X111.224 Y83.527 E1.41494
G1 X113.763 Y83.455 E1.50787
G1 X114.845 Y83.414 E1.54748
G1 X115.141 Y83.407 E1.55832
G1 X115.55 Y83.402 E1.57328
G1 X115.691 Y83.401 E1.57844
G1 X117.163 Y83.401 E1.63229
G1 X117.326 Y83.402 E1.63826
G1 X118.033 Y83.412 E1.66413
G1 X118.357 Y83.421 E1.67598
G1 X118.902 Y83.444 E1.69594
G1 X119.069 Y83.453 E1.70206
G1 X120.595 Y83.54 E1.75798
G1 X123.106 Y83.611 E1.84989
G1 X124.438 Y83.62 E1.89862
G1 X126.165 Y83.62 E1.9618
G1 X126.328 Y83.621 E1.96777
G1 X127.034 Y83.631 E1.9936
G1 X127.36 Y83.64 E2.00553
G1 X128.181 Y83.675 E2.0356
G1 X130.695 Y83.746 E2.12761
G1 X133.223 Y83.746 E2.2201
G1 X135.764 Y83.674 E2.3131
G1 X136.845 Y83.633 E2.35268
G1 X137.141 Y83.626 E2.36351
G1 X137.55 Y83.621 E2.37848
G1 X137.691 Y83.62 E2.38364
G1 X139.164 Y83.62 E2.43753
G1 X139.329 Y83.621 E2.44357
G1 X140.027 Y83.631 E2.46911
G1 X140.986 Y83.685 E2.50425
G1 X141.938 Y83.818 E2.53942
G1 X142.875 Y84.03 E2.57456
G1 X143.791 Y84.319 E2.6097
G1 X144.68 Y84.684 E2.64486
G1 X145.535 Y85.121 E2.67999
G1 X146.351 Y85.627 E2.71512
G1 X147.122 Y86.2 E2.75027
G1 X147.843 Y86.835 E2.78542
G1 X148.431 Y87.44 E2.81628
G1 X148.56 Y87.583 E2.82333
G1 X149.173 Y88.323 E2.85849
G1 X149.722 Y89.111 E2.89362
G1 X150.205 Y89.941 E2.92876
G1 X150.616 Y90.809 E2.9639
G1 X150.954 Y91.709 E2.99907
G1 X151.216 Y92.633 E3.03421
G1 X151.4 Y93.576 E3.06936
G1 X151.504 Y94.531 E3.1045
G1 X151.529 Y95.106 E3.12556
G1 X151.538 Y95.607 E3.14389
G1 X151.54 Y95.814 E3.15147
G1 X151.54 Y105.163 E3.49351
G1 X151.539 Y105.329 E3.49958
G1 X151.529 Y106.025 E3.52505
G1 X151.475 Y106.984 E3.56019
G1 X151.342 Y107.935 E3.59533
G1 X151.025 Y109.236 E3.64432
G1 X150.661 Y110.424 E3.68977
G1 X149.927 Y112.917 E3.78486
G1 X149.291 Y115.325 E3.87598
G1 X148.718 Y117.77 E3.96785
G1 X148.213 Y120.234 E4.05987
G1 X147.586 Y123.928 E4.19696
G1 X147.46 Y124.564 E4.22068
G1 X147.408 Y124.792 E4.22923
G1 X147.243 Y125.431 E4.25338
G1 X147.169 Y125.687 E4.26313
G1 X146.972 Y126.302 E4.28676
G1 X146.885 Y126.55 E4.29637
G1 X146.593 Y127.299 E4.32578
G1 X146.496 Y127.524 E4.33475
G1 X145.893 Y128.726 E4.38395
G1 X145.55 Y129.32 E4.40904
G1 X144.999 Y130.183 E4.4465
G1 X144.862 Y130.378 E4.45522
G1 X144.424 Y130.961 E4.4819
G1 X144.206 Y131.233 E4.49465
G1 X143.497 Y132.038 E4.5339
G1 X143.292 Y132.25 E4.54469
G1 X142.852 Y132.681 E4.56722
G1 X142.668 Y132.852 E4.57641
G1 X142.021 Y133.41 E4.60767
G1 X141.751 Y133.626 E4.62032
G1 X140.763 Y134.335 E4.66481
G1 X140.363 Y134.591 E4.68219
G1 X139.676 Y134.998 E4.7114
G1 X139.493 Y135.098 E4.71903
G1 X138.697 Y135.493 E4.75154
G1 X138.355 Y135.647 E4.76527
G1 X137.746 Y135.901 E4.78941
G1 X137.472 Y136.006 E4.80014
G1 X136.655 Y136.284 E4.83172
G1 X136.398 Y136.361 E4.84153
G1 X135.537 Y136.584 E4.87407
G1 X135.238 Y136.649 E4.88527
G1 X133.894 Y136.859 E4.93504
G1 X133.157 Y136.93 E4.96212
G1 X132.197 Y136.982 E4.9973
G1 X131.674 Y136.977 E5.01643
G1 X131.245 Y136.963 E5.03214
G1 X130.443 Y136.909 E5.06155
G1 X129.001 Y136.761 E5.11458
G1 X127.671 Y136.634 E5.16346
G1 X125.114 Y136.449 E5.25726
G1 X122.625 Y136.339 E5.34841
G1 X120.095 Y136.298 E5.44098
G1 X117.603 Y136.329 E5.53216
G1 X115.149 Y136.429 E5.62202
G1 X112.498 Y136.612 E5.71924
G1 X111.146 Y136.721 E5.76887
G1 X110.075 Y136.757 E5.80807
G1 X109.597 Y136.751 E5.82556
G1 X108.952 Y136.725 E5.84918
G1 X107.553 Y136.629 E5.90048
G1 X107.421 Y136.619 E5.90533
G1 X106.417 Y136.538 E5.94218
G1 X103.892 Y136.408 E6.03468
G1 X101.4 Y136.35 E6.12588
G1 X98.879 Y136.362 E6.21811
G1 X96.412 Y136.445 E6.30842
G1 X93.919 Y136.599 E6.39981
G1 X91.469 Y136.817 E6.4898
G1 X90.077 Y136.96 E6.54099
G1 X89.469 Y137.006 E6.5633
G1 X89.166 Y137.021 E6.5744
G1 X88.208 Y137.029 E6.60945
G1 X87.791 Y137.015 E6.62471
G1 X86.913 Y136.951 E6.65692
G1 X86.632 Y136.92 E6.66727
G1 X85.907 Y136.817 E6.69406
G1 X85.61 Y136.765 E6.70509
G1 X84.788 Y136.59 E6.73584
G1 X84.581 Y136.538 E6.74364
G1 X83.465 Y136.197 E6.78634
G1 X82.86 Y135.978 E6.80988
G1 X81.971 Y135.614 E6.84502
G1 X81.366 Y135.314 E6.86973
G1 X80.793 Y135.009 E6.89348
G1 X79.739 Y134.374 E6.9385
G1 X79.503 Y134.214 E6.94893
G1 X78.419 Y133.381 E6.99895
G1 X77.885 Y132.918 E7.02481
G1 X76.936 Y131.995 E7.07324
G1 X76.772 Y131.816 E7.08212
G1 X76.126 Y131.046 E7.11889
G1 X75.895 Y130.745 E7.13278
G1 X75.427 Y130.089 E7.16226
G1 X75.192 Y129.734 E7.17783
G1 X74.696 Y128.912 E7.21296
G1 X74.422 Y128.38 E7.23485
G1 X74.13 Y127.775 E7.25943
G1 X73.749 Y126.893 E7.29458
G1 X73.503 Y126.184 E7.32204
G1 X73.333 Y125.637 E7.34299
G1 X73.001 Y124.286 E7.39389
G1 X72.862 Y123.525 E7.4222
G1 X72.82 Y123.283 E7.43118
G1 X72.521 Y121.424 E7.50007
G1 X72.054 Y118.966 E7.59161
G1 X71.52 Y116.53 E7.68285
G1 X70.918 Y114.114 E7.77394
G1 X70.24 Y111.689 E7.86607
G1 X69.52 Y109.353 E7.9555
G1 X69.275 Y108.424 E7.99065
G1 X69.109 Y107.478 E8.02579
G1 X69.012 Y106.268 E8.0702
G1 X68.992 Y105.533 E8.0971
G1 X68.988 Y105.219 E8.10859
G1 X68.988 Y96.019 E8.44518
G1 X68.989 Y95.847 E8.45147
G1 X68.999 Y95.177 E8.47599
G1 X69.054 Y94.218 E8.51113
G1 X69.187 Y93.266 E8.5463
G1 X69.4 Y92.33 E8.58142
G1 X69.69 Y91.414 E8.61657
G1 X70.055 Y90.525 E8.65173
G1 X70.492 Y89.67 E8.68686
G1 X70.999 Y88.854 E8.72201
G1 X71.573 Y88.083 E8.75718
G1 X72.378 Y87.189 E8.80119
G1 X72.502 Y87.065 E8.80761
G1 X73.209 Y86.415 E8.84275
G0 F6000 X73.507 Y86.739
G1 F1200 X74.252 Y86.163 E8.8772
G1 X75.044 Y85.652 E8.91168
G1 X75.876 Y85.21 E8.94615
G1 X76.743 Y84.84 E8.98064
G1 X77.637 Y84.545 E9.01508
G1 X78.554 Y84.327 E9.04957
G1 X79.486 Y84.188 E9.08404
G1 X80.463 Y84.127 E9.11986
G1 X81.02 Y84.117 E9.14024
G1 X81.219 Y84.115 E9.14752
G1 X82.692 Y84.115 E9.20141
G1 X82.849 Y84.116 E9.20715
G1 X83.555 Y84.126 E9.23299
G1 X83.869 Y84.135 E9.24448
G1 X84.607 Y84.166 E9.2715
G1 X87.246 Y84.241 E9.36809
G1 X89.728 Y84.241 E9.4589
G1 X92.409 Y84.165 E9.55703
G1 X93.389 Y84.128 E9.59291
G1 X93.674 Y84.121 E9.60334
G1 X94.083 Y84.116 E9.6183
G1 X94.219 Y84.115 E9.62328
G1 X94.72 Y84.115 E9.64161
G1 X97.308 Y84.078 E9.7363
G1 X100.586 Y83.927 E9.85636
G1 X101.408 Y83.874 E9.8865
G1 X101.926 Y83.853 E9.90546
G1 X102.495 Y83.843 E9.92628
G1 X102.69 Y83.841 E9.93342
G1 X104.163 Y83.841 E9.98731
G1 X104.32 Y83.842 E9.99305
G1 X105.027 Y83.852 E10.01892
G1 X105.341 Y83.861 E10.03042
G1 X106.079 Y83.892 E10.05744
G1 X108.718 Y83.967 E10.15403
G1 X111.2 Y83.967 E10.24484
G1 X113.886 Y83.891 E10.34315
G1 X114.862 Y83.854 E10.37888
G1 X115.146 Y83.847 E10.38927
G1 X115.555 Y83.842 E10.40424
G1 X115.691 Y83.841 E10.40921
G1 X117.163 Y83.841 E10.46307
G1 X117.32 Y83.842 E10.46881
G1 X118.027 Y83.852 E10.49468
G1 X118.338 Y83.861 E10.50607
G1 X118.883 Y83.884 E10.52602
G1 X119.044 Y83.892 E10.53192
G1 X120.557 Y83.978 E10.58736
G1 X123.138 Y84.051 E10.68183
G1 X124.435 Y84.06 E10.72928
G1 X126.165 Y84.06 E10.79258
G1 X126.322 Y84.061 E10.79832
G1 X127.028 Y84.071 E10.82416
G1 X127.342 Y84.08 E10.83565
G1 X128.08 Y84.111 E10.86267
G1 X130.719 Y84.186 E10.95926
G1 X133.199 Y84.186 E11.05
G1 X135.881 Y84.11 E11.14816
G1 X136.861 Y84.073 E11.18404
G1 X137.146 Y84.066 E11.19447
G1 X137.555 Y84.061 E11.20943
G1 X137.691 Y84.06 E11.21441
G1 X139.164 Y84.06 E11.2683
G1 X139.323 Y84.061 E11.27412
G1 X140.021 Y84.071 E11.29966
G1 X140.962 Y84.125 E11.33414
G1 X141.894 Y84.258 E11.36859
G1 X142.812 Y84.469 E11.40305
G1 X143.709 Y84.758 E11.43753
G1 X144.578 Y85.122 E11.472
G1 X145.413 Y85.558 E11.50646
G1 X146.208 Y86.063 E11.54092
G1 X146.958 Y86.634 E11.57541
G1 X147.656 Y87.267 E11.60988
G1 X148.104 Y87.735 E11.63358
G1 X148.233 Y87.878 E11.64063
G1 X148.834 Y88.604 E11.67511
G1 X149.371 Y89.378 E11.70958
G1 X149.84 Y90.194 E11.74401
G1 X150.239 Y91.048 E11.7785
G1 X150.564 Y91.933 E11.81299
G1 X150.812 Y92.841 E11.84743
G1 X150.983 Y93.768 E11.88191
G1 X151.089 Y95.114 E11.93131
G1 X151.098 Y95.615 E11.94964
G1 X151.1 Y95.814 E11.95693
G1 X151.1 Y105.163 E12.29897
G1 X151.099 Y105.322 E12.30479
G1 X151.089 Y106.018 E12.33025
G1 X151.035 Y106.959 E12.36474
G1 X150.902 Y107.892 E12.39922
G1 X150.604 Y109.108 E12.44502
G1 X150.245 Y110.281 E12.4899
G1 X149.507 Y112.787 E12.58548
G1 X148.855 Y115.253 E12.6788
G1 X148.293 Y117.655 E12.76906
G1 X147.785 Y120.13 E12.86149
G1 X147.153 Y123.855 E12.99973
G1 X147.031 Y124.466 E13.02252
G1 X146.979 Y124.694 E13.03108
G1 X146.82 Y125.308 E13.05428
G1 X146.746 Y125.564 E13.06403
G1 X146.557 Y126.156 E13.08677
G1 X146.47 Y126.404 E13.09638
G1 X146.189 Y127.124 E13.12466
G1 X146.092 Y127.349 E13.13362
G1 X145.512 Y128.506 E13.18098
G1 X145.169 Y129.1 E13.20607
G1 X144.639 Y129.93 E13.2421
G1 X144.502 Y130.125 E13.25082
G1 X144.08 Y130.686 E13.2765
G1 X143.862 Y130.958 E13.28926
G1 X143.181 Y131.732 E13.32697
G1 X142.976 Y131.944 E13.33776
G1 X142.552 Y132.359 E13.35947
G1 X142.368 Y132.53 E13.36866
G1 X141.746 Y133.067 E13.39872
G1 X141.476 Y133.283 E13.41137
G1 X140.525 Y133.964 E13.45417
G1 X140.125 Y134.22 E13.47154
G1 X139.465 Y134.612 E13.49963
G1 X139.282 Y134.712 E13.50726
G1 X138.517 Y135.092 E13.53851
G1 X138.175 Y135.246 E13.55223
G1 X137.589 Y135.49 E13.57546
G1 X137.315 Y135.595 E13.58619
G1 X136.529 Y135.863 E13.61657
G1 X136.272 Y135.94 E13.62639
G1 X135.444 Y136.154 E13.65768
G1 X135.145 Y136.219 E13.66887
G1 X133.851 Y136.421 E13.71679
G1 X133.114 Y136.492 E13.74388
G1 X132.174 Y136.542 E13.77832
G1 X131.688 Y136.537 E13.7961
G1 X131.259 Y136.523 E13.8118
G1 X130.488 Y136.471 E13.84007
G1 X129.061 Y136.325 E13.89256
G1 X127.701 Y136.195 E13.94254
G1 X125.131 Y136.009 E14.03681
G1 X122.651 Y135.899 E14.12763
G1 X120.096 Y135.858 E14.22112
G1 X117.615 Y135.889 E14.3119
G1 X115.099 Y135.991 E14.40403
G1 X112.439 Y136.175 E14.50158
G1 X111.111 Y136.282 E14.55032
G1 X110.081 Y136.317 E14.58803
G1 X109.603 Y136.311 E14.60552
G1 X108.982 Y136.286 E14.62826
G1 X107.583 Y136.19 E14.67956
G1 X107.456 Y136.181 E14.68422
G1 X106.403 Y136.097 E14.72287
G1 X103.926 Y135.969 E14.81361
G1 X101.408 Y135.91 E14.90576
G1 X98.897 Y135.922 E14.99763
G1 X96.371 Y136.007 E15.0901
G1 X93.853 Y136.162 E15.1824
G1 X91.458 Y136.375 E15.27037
G1 X90.032 Y136.522 E15.32281
G1 X89.447 Y136.566 E15.34428
G1 X89.144 Y136.581 E15.35538
G1 X88.223 Y136.589 E15.38907
G1 X87.806 Y136.575 E15.40434
G1 X86.961 Y136.514 E15.43534
G1 X86.68 Y136.483 E15.44568
G1 X85.983 Y136.384 E15.47143
G1 X85.686 Y136.332 E15.48247
G1 X84.896 Y136.164 E15.51202
G1 X84.689 Y136.112 E15.51982
G1 X83.615 Y135.783 E15.56092
G1 X83.01 Y135.564 E15.58446
G1 X82.138 Y135.206 E15.61895
G1 X81.572 Y134.925 E15.64207
G1 X80.999 Y134.62 E15.66582
G1 X79.986 Y134.01 E15.70908
G1 X79.75 Y133.85 E15.71951
G1 X78.707 Y133.049 E15.76762
G1 X78.173 Y132.586 E15.79348
G1 X77.261 Y131.697 E15.84008
G1 X77.097 Y131.518 E15.84896
G1 X76.475 Y130.778 E15.88433
G1 X76.244 Y130.477 E15.89821
G1 X75.794 Y129.846 E15.92656
G1 X75.559 Y129.491 E15.94214
G1 X75.073 Y128.684 E15.97661
G1 X74.818 Y128.189 E15.99698
G1 X74.526 Y127.584 E16.02156
G1 X74.153 Y126.719 E16.05602
G1 X73.923 Y126.053 E16.0818
G1 X73.753 Y125.506 E16.10275
G1 X73.434 Y124.206 E16.15173
G1 X73.295 Y123.445 E16.18003
G1 X73.255 Y123.213 E16.18864
G1 X72.96 Y121.378 E16.25664
G1 X72.482 Y118.862 E16.35034
G1 X71.95 Y116.436 E16.44121
G1 X71.342 Y113.996 E16.53321
G1 X70.667 Y111.581 E16.62495
G1 X69.94 Y109.223 E16.71522
G1 X69.701 Y108.312 E16.74968
G1 X69.54 Y107.384 E16.78414
G1 X69.452 Y106.256 E16.82554
G1 X69.432 Y105.521 E16.85244
G1 X69.428 Y105.219 E16.86349
G1 X69.428 Y96.019 E17.20008
G1 X69.429 Y95.853 E17.20615
G1 X69.439 Y95.183 E17.23067
G1 X69.493 Y94.243 E17.26512
G1 X69.627 Y93.31 E17.2996
G1 X69.839 Y92.392 E17.33407
G1 X70.128 Y91.496 E17.36852
G1 X70.493 Y90.627 E17.403
G1 X70.929 Y89.792 E17.43746
G1 X71.435 Y88.997 E17.47194
G1 X72.006 Y88.248 E17.5064
G1 X72.689 Y87.5 E17.54346
G1 X72.813 Y87.376 E17.54987
G1 X73.507 Y86.739 E17.58434
G0 F6000 X73.805 Y87.063
G1 F1200 X74.537 Y86.501 E17.6181
G1 X75.315 Y86.003 E17.6519
G1 X76.133 Y85.575 E17.68567
G1 X76.985 Y85.219 E17.71946
G1 X77.864 Y84.939 E17.75321
G1 X78.765 Y84.735 E17.78701
G1 X79.679 Y84.61 E17.82076
G1 X80.471 Y84.567 E17.84978
G1 X81.028 Y84.557 E17.87016
G1 X81.219 Y84.555 E17.87715
G1 X82.692 Y84.555 E17.93104
G1 X82.843 Y84.556 E17.93656
G1 X83.549 Y84.566 E17.9624
G1 X83.85 Y84.575 E17.97341
G1 X84.574 Y84.606 E17.99993
G1 X87.234 Y84.681 E18.09728
G1 X89.741 Y84.681 E18.189
G1 X92.428 Y84.605 E18.28735
G1 X93.406 Y84.568 E18.32316
G1 X93.68 Y84.561 E18.33319
G1 X94.089 Y84.556 E18.34815
G1 X94.219 Y84.555 E18.35291
G1 X94.726 Y84.555 E18.37146
G1 X97.303 Y84.519 E18.46575
G1 X100.634 Y84.365 E18.58775
G1 X101.436 Y84.313 E18.61715
G1 X101.934 Y84.293 E18.63538
G1 X102.503 Y84.283 E18.65621
G1 X102.69 Y84.281 E18.66305
G1 X104.163 Y84.281 E18.71694
G1 X104.314 Y84.282 E18.72246
G1 X105.021 Y84.292 E18.74833
G1 X105.322 Y84.301 E18.75935
G1 X106.046 Y84.332 E18.78586
G1 X108.706 Y84.407 E18.88322
G1 X111.212 Y84.407 E18.97491
G1 X113.898 Y84.331 E19.07322
G1 X114.878 Y84.294 E19.1091
G1 X115.152 Y84.287 E19.11912
G1 X115.561 Y84.282 E19.13409
G1 X115.691 Y84.281 E19.13884
G1 X117.163 Y84.281 E19.1927
G1 X117.314 Y84.282 E19.19822
G1 X118.021 Y84.292 E19.22409
G1 X118.319 Y84.3 E19.235
G1 X118.864 Y84.323 E19.25496
G1 X119.019 Y84.331 E19.26063
G1 X120.554 Y84.418 E19.31688
G1 X123.123 Y84.491 E19.41091
G1 X124.432 Y84.5 E19.4588
G1 X126.165 Y84.5 E19.52221
G1 X126.316 Y84.501 E19.52773
G1 X127.022 Y84.511 E19.55357
G1 X127.323 Y84.52 E19.56458
G1 X128.047 Y84.551 E19.5911
G1 X130.707 Y84.626 E19.68845
G1 X133.212 Y84.626 E19.7801
G1 X135.9 Y84.55 E19.87848
G1 X136.878 Y84.513 E19.91429
G1 X137.152 Y84.506 E19.92432
G1 X137.561 Y84.501 E19.93928
G1 X137.691 Y84.5 E19.94404
G1 X139.164 Y84.5 E19.99793
G1 X139.317 Y84.501 E20.00353
G1 X140.015 Y84.511 E20.02907
G1 X140.936 Y84.564 E20.06282
G1 X141.85 Y84.697 E20.09661
G1 X142.749 Y84.908 E20.1304
G1 X143.626 Y85.197 E20.16418
G1 X144.475 Y85.56 E20.19796
G1 X145.289 Y85.995 E20.23173
G1 X146.063 Y86.499 E20.26552
G1 X146.79 Y87.068 E20.2993
G1 X147.777 Y88.03 E20.34972
G1 X147.906 Y88.173 E20.35677
G1 X148.494 Y88.884 E20.39053
