;FLAVOR:Marlin
;TIME:18503
;Filament used: 12.6292m
;Layer height: 0.2
;MINX:46.52
;MINY:43.085
;MINZ:0.2
;MAXX:151.046
;MAXY:184.259
;MAXZ:14.4
;Generated with Cura_SteamEngine 4.2.1
M140 S50
M105
M190 S50
M104 S200
M105
M109 S200
M82 ;absolute extrusion mode
M201 X500.00 Y500.00 Z100.00 E5000.00 ;Setup machine max acceleration
M203 X500.00 Y500.00 Z10.00 E50.00 ;Setup machine max feedrate
M204 P500.00 R1000.00 T500.00 ;Setup Print/Retract/Travel acceleration
M205 X8.00 Y8.00 Z0.40 E5.00 ;Setup Jerk
M220 S100 ;Reset Feedrate
M221 S100 ;Reset Flowrate

G28 ;Home

G92 E0 ;Reset Extruder
G1 Z2.0 F3000 ;Move Z Axis up
G1 X2.1 Y20 Z0.28 F5000.0 ;Move to start position
G1 X2.1 Y200.0 Z0.28 F1500.0 E15 ;Draw the first line
G1 X2.4 Y200.0 Z0.28 F5000.0 ;Move to side a little
G1 X2.4 Y20 Z0.28 F1500.0 E30 ;Draw the second line
G92 E0 ;Reset Extruder
G1 Z2.0 F3000 ;Move Z Axis up

M141 S28
G92 E0
G92 E0
G1 F2700 E-5
;LAYER_COUNT:72
;LAYER:0
M107
G0 F6000 X60.129 Y67.23 Z0.2
;TYPE:SUPPORT
G1 F2700 E0
G1 F1200 X60.387 Y67.23 E0.00944
G1 X60.516 Y67.101 E0.01611
G1 X60.987 Y67.571 E0.04046
G1 X61.188 Y67.571 E0.04781
G1 X61.188 Y67.718 E0.05319
G1 X61.189 Y80.375 E0.51626
G1 X60.987 Y80.375 E0.52365
G1 X60.51 Y80.853 E0.54836
G1 X60.386 Y80.729 E0.55477
G1 X60.128 Y80.729 E0.56421
G1 X60.129 Y67.23 E1.05809
G0 F6000 X60.569 Y67.775
G1 F1200 X60.748 Y67.954 E1.06735
G1 X60.749 Y79.99 E1.5077
G1 X60.568 Y80.172 E1.51709
G1 X60.569 Y67.775 E1.97065
G1 F2700 E-3.02935
G1 F600 Z0.4
G0 F6000 X52.494 Y88.381 Z0.4
G1 F600 Z0.2
G1 F2700 E1.97065
G1 F1200 X53.147 Y88.689 E1.99707
G1 X52.913 Y89.282 E2.02039
G1 X53.291 Y89.838 E2.04499
G1 X56.224 Y89.838 E2.15229
G1 X56.259 Y89.891 E2.15462
G1 X56.743 Y90.15 E2.1747
G1 X60.214 Y90.15 E2.30169
G1 X60.214 Y95.121 E2.48356
G1 X56.734 Y95.121 E2.61088
G1 X56.251 Y95.385 E2.63102
G1 X56.22 Y95.433 E2.63311
G1 X54.889 Y95.433 E2.68181
G1 X54.078 Y96.068 E2.71949
G1 X53.736 Y96.291 E2.73443
G1 X53.061 Y96.649 E2.76238
G1 X52.624 Y96.736 E2.77868
G1 X51.61 Y97.013 E2.81714
G1 X50.222 Y96.632 E2.8698
G1 X49.929 Y96.516 E2.88133
G1 X49.715 Y96.415 E2.88999
G1 X49.542 Y96.322 E2.89718
G1 X48.626 Y95.734 E2.937
G1 X47.733 Y94.467 E2.99371
G1 X47.615 Y94.036 E3.01006
G1 X47.282 Y93.206 E3.04278
G1 X47.257 Y92.825 E3.05675
G1 X47.554 Y91.444 E3.10843
G1 X47.575 Y91.371 E3.11121
G1 X47.788 Y90.805 E3.13333
G1 X48.443 Y90.152 E3.16717
G1 X48.735 Y89.831 E3.18305
G1 X49.684 Y88.875 E3.23233
G1 X50.237 Y88.575 E3.25535
G1 X51.404 Y88.395 E3.29855
G1 X51.784 Y88.298 E3.3129
G1 X52.118 Y88.393 E3.3256
G1 X52.494 Y88.381 E3.33937
G0 F6000 X52.402 Y88.824
G1 F1200 X52.586 Y88.911 E3.34681
G1 X52.418 Y89.337 E3.36357
G1 X53.058 Y90.278 E3.4052
G1 X56.05 Y90.278 E3.51467
G1 X56.633 Y90.59 E3.53886
G1 X59.774 Y90.59 E3.65378
G1 X59.774 Y94.681 E3.80345
G1 X56.622 Y94.681 E3.91877
G1 X56.05 Y94.993 E3.94261
G1 X54.737 Y94.993 E3.99065
G1 X53.828 Y95.705 E4.03289
G1 X53.512 Y95.911 E4.04669
G1 X52.913 Y96.229 E4.0715
G1 X52.523 Y96.307 E4.08605
G1 X51.61 Y96.557 E4.12069
G1 X50.364 Y96.215 E4.16796
G1 X50.108 Y96.114 E4.17803
G1 X49.914 Y96.022 E4.18588
G1 X49.762 Y95.94 E4.1922
G1 X48.936 Y95.41 E4.22811
G1 X48.136 Y94.276 E4.27888
G1 X48.033 Y93.896 E4.29329
G1 X47.716 Y93.108 E4.32436
G1 X47.7 Y92.857 E4.33356
G1 X47.993 Y91.509 E4.38403
G1 X48.166 Y91.05 E4.40198
G1 X48.761 Y90.456 E4.43274
G1 X49.047 Y90.141 E4.44831
G1 X49.949 Y89.232 E4.49516
G1 X50.38 Y88.998 E4.5131
G1 X51.492 Y88.827 E4.55426
G1 X51.778 Y88.754 E4.56506
G1 X52.064 Y88.835 E4.57594
G1 X52.402 Y88.824 E4.58831
G0 F6000 X52.8 Y90.055
G1 F1200 X52.8 Y96.162 E4.81174
G1 F2700 E-0.18826
G1 F600 Z0.4
G0 F6000 X50.6 Y96.188 Z0.4
G1 F600 Z0.2
G1 F2700 E4.81174
G1 F1200 X50.6 Y89.052 E5.07282
G1 F2700 E0.07282
G1 F600 Z0.4
G0 F6000 X49.112 Y90.2 Z0.4
G1 F600 Z0.2
G1 F2700 E5.07282
G1 F1200 X52.898 Y90.2 E5.21133
G1 F2700 E0.21133
G1 F600 Z0.4
G0 F6000 X55 Y90.366 Z0.4
G1 F600 Z0.2
G1 F2700 E5.21133
G1 F1200 X55 Y94.905 E5.3774
G1 F2700 E0.3774
G1 F600 Z0.4
G0 F6000 X56.586 Y94.6 Z0.4
G1 F600 Z0.2
G1 F2700 E5.3774
G1 F1200 X48.471 Y94.6 E5.6743
G0 F6000 X48.4 Y94.496
G1 F1200 X48.4 Y90.941 E5.80436
G1 F2700 E0.80436
G1 F600 Z0.4
G0 F6000 X47.889 Y92.4 Z0.4
G1 F600 Z0.2
G1 F2700 E5.80436
G1 F1200 X59.685 Y92.4 E6.23593
G1 F2700 E1.23593
G1 F600 Z0.4
G0 F6000 X59.4 Y90.678 Z0.4
G1 F600 Z0.2
G1 F2700 E6.23593
G1 F1200 X59.4 Y94.593 E6.37916
G1 F2700 E1.37916
G1 F600 Z0.4
G0 F6000 X57.2 Y94.593 Z0.4
G1 F600 Z0.2
G1 F2700 E6.37916
G1 F1200 X57.2 Y90.678 E6.5224
G1 F2700 E1.5224
G1 F600 Z0.4
G0 F6000 X80.545 Y108.399 Z0.4
G1 F600 Z0.2
G1 F2700 E6.5224
G1 F1200 X95.137 Y108.401 E7.05626
G1 X130.903 Y108.401 E8.3648
G1 X130.903 Y113.467 E8.55015
G1 X80.546 Y113.467 E10.39252
G1 X80.545 Y108.399 E10.57794
G0 F6000 X80.985 Y108.839
G1 F1200 X95.137 Y108.841 E11.0957
G1 X130.463 Y108.841 E12.38815
G1 X130.463 Y113.027 E12.5413
G1 X80.986 Y113.027 E14.35147
G1 X80.985 Y108.839 E14.50469
G0 F6000 X81.4 Y108.928
G1 F1200 X81.4 Y112.939 E14.65144
G0 F6000 X81.073 Y112.2
G1 F1200 X130.375 Y112.2 E16.45521
G0 F6000 X129.8 Y112.939
G1 F1200 X129.8 Y108.929 E16.60192
G0 F6000 X130.375 Y110
G1 F1200 X81.073 Y110 E18.40569
G1 F2700 E13.40569
G1 F600 Z0.4
G0 F6000 X83.6 Y108.928 Z0.4
G1 F600 Z0.2
G1 F2700 E18.40569
G1 F1200 X83.6 Y112.939 E18.55244
G1 F2700 E13.55244
G1 F600 Z0.4
G0 F6000 X85.8 Y112.939 Z0.4
G1 F600 Z0.2
G1 F2700 E18.55244
G1 F1200 X85.8 Y108.928 E18.69918
G1 F2700 E13.69918
G1 F600 Z0.4
G0 F6000 X88 Y108.928 Z0.4
G1 F600 Z0.2
G1 F2700 E18.69918
G1 F1200 X88 Y112.939 E18.84593
G1 F2700 E13.84593
G1 F600 Z0.4
G0 F6000 X90.2 Y112.939 Z0.4
G1 F600 Z0.2
G1 F2700 E18.84593
G1 F1200 X90.2 Y108.929 E18.99264
G1 F2700 E13.99264
G1 F600 Z0.4
G0 F6000 X92.4 Y108.929 Z0.4
G1 F600 Z0.2
G1 F2700 E18.99264
G1 F1200 X92.4 Y112.939 E19.13935
G1 F2700 E14.13935
G1 F600 Z0.4
G0 F6000 X94.6 Y112.939 Z0.4
G1 F600 Z0.2
G1 F2700 E19.13935
G1 F1200 X94.6 Y108.929 E19.28606
G1 F2700 E14.28606
G1 F600 Z0.4
G0 F6000 X96.8 Y108.929 Z0.4
G1 F600 Z0.2
G1 F2700 E19.28606
G1 F1200 X96.8 Y112.939 E19.43277
G1 F2700 E14.43277
G1 F600 Z0.4
G0 F6000 X99 Y112.939 Z0.4
G1 F600 Z0.2
G1 F2700 E19.43277
G1 F1200 X99 Y108.929 E19.57948
G1 F2700 E14.57948
G1 F600 Z0.4
G0 F6000 X101.2 Y108.929 Z0.4
G1 F600 Z0.2
G1 F2700 E19.57948
G1 F1200 X101.2 Y112.939 E19.72619
G1 F2700 E14.72619
G1 F600 Z0.4
G0 F6000 X103.4 Y112.939 Z0.4
G1 F600 Z0.2
G1 F2700 E19.72619
G1 F1200 X103.4 Y108.929 E19.8729
G1 F2700 E14.8729
G1 F600 Z0.4
G0 F6000 X105.6 Y108.929 Z0.4
G1 F600 Z0.2
G1 F2700 E19.8729
G1 F1200 X105.6 Y112.939 E20.01961
G1 F2700 E15.01961
G1 F600 Z0.4
G0 F6000 X107.8 Y112.939 Z0.4
G1 F600 Z0.2
G1 F2700 E20.01961
G1 F1200 X107.8 Y108.929 E20.16632
G1 F2700 E15.16632
G1 F600 Z0.4
G0 F6000 X110 Y108.929 Z0.4
G1 F600 Z0.2
G1 F2700 E20.16632
G1 F1200 X110 Y112.939 E20.31304
G1 F2700 E15.31304
G1 F600 Z0.4
G0 F6000 X112.2 Y112.939 Z0.4
G1 F600 Z0.2
G1 F2700 E20.31304
G1 F1200 X112.2 Y108.929 E20.45975
G1 F2700 E15.45975
G1 F600 Z0.4
G0 F6000 X114.4 Y108.929 Z0.4
G1 F600 Z0.2
G1 F2700 E20.45975
G1 F1200 X114.4 Y112.939 E20.60646
G1 F2700 E15.60646
G1 F600 Z0.4
G0 F6000 X116.6 Y112.939 Z0.4
G1 F600 Z0.2
G1 F2700 E20.60646
G1 F1200 X116.6 Y108.929 E20.75317
G1 F2700 E15.75317
G1 F600 Z0.4
G0 F6000 X118.8 Y108.929 Z0.4
G1 F600 Z0.2
G1 F2700 E20.75317
G1 F1200 X118.8 Y112.939 E20.89988
G1 F2700 E15.89988
G1 F600 Z0.4
G0 F6000 X121 Y112.939 Z0.4
G1 F600 Z0.2
G1 F2700 E20.89988
G1 F1200 X121 Y108.929 E21.04659
G1 F2700 E16.04659
G1 F600 Z0.4
G0 F6000 X123.2 Y108.929 Z0.4
G1 F600 Z0.2
G1 F2700 E21.04659
G1 F1200 X123.2 Y112.939 E21.1933
G1 F2700 E16.1933
G1 F600 Z0.4
G0 F6000 X125.4 Y112.939 Z0.4
G1 F600 Z0.2
G1 F2700 E21.1933
G1 F1200 X125.4 Y108.929 E21.34001
G1 F2700 E16.34001
G1 F600 Z0.4
G0 F6000 X127.6 Y108.929 Z0.4
G1 F600 Z0.2
G1 F2700 E21.34001
G1 F1200 X127.6 Y112.939 E21.48672
G1 F2700 E16.48672
G1 F600 Z0.4
G0 F6000 X118.762 Y161.003 Z0.4
G1 F600 Z0.2
G1 F2700 E21.48672
G1 F1200 X118.761 Y176.936 E22.06965
G1 X117.328 Y176.937 E22.12207
G1 X117.329 Y161.004 E22.705
G1 X118.762 Y161.003 E22.75743
G0 F6000 X118.322 Y161.443
G1 F1200 X118.321 Y176.496 E23.30816
G1 X117.768 Y176.497 E23.32839
G1 X117.769 Y161.444 E23.87912
G1 X118.322 Y161.443 E23.89936
G0 F6000 X118.232 Y162.8
G1 F1200 X117.856 Y162.8 E23.91311
G1 F2700 E18.91311
G1 F600 Z0.4
G0 F6000 X117.856 Y165 Z0.4
G1 F600 Z0.2
G1 F2700 E23.91311
G1 F1200 X118.232 Y165 E23.92687
G1 F2700 E18.92687
G1 F600 Z0.4
G0 F6000 X118.232 Y167.2 Z0.4
G1 F600 Z0.2
G1 F2700 E23.92687
G1 F1200 X117.856 Y167.2 E23.94063
G1 F2700 E18.94063
G1 F600 Z0.4
G0 F6000 X117.856 Y169.4 Z0.4
G1 F600 Z0.2
G1 F2700 E23.94063
G1 F1200 X118.232 Y169.4 E23.95438
G1 F2700 E18.95438
G1 F600 Z0.4
G0 F6000 X118.232 Y171.6 Z0.4
G1 F600 Z0.2
G1 F2700 E23.95438
G1 F1200 X117.856 Y171.6 E23.96814
G1 F2700 E18.96814
G1 F600 Z0.4
G0 F6000 X117.856 Y173.8 Z0.4
G1 F600 Z0.2
G1 F2700 E23.96814
G1 F1200 X118.232 Y173.8 E23.98189
G1 F2700 E18.98189
G1 F600 Z0.4
G0 F6000 X118.232 Y176 Z0.4
G1 F600 Z0.2
G1 F2700 E23.98189
G1 F1200 X117.856 Y176 E23.99565
G0 F6000 X116.53 Y175.774
;TYPE:SUPPORT-INTERFACE
G1 F1200 X116.523 Y174.22 E24.05251
G1 X116.529 Y162.164 E24.49359
G1 X116.526 Y160.204 E24.5653
G1 X119.563 Y160.201 E24.67641
G1 X119.561 Y161.034 E24.70689
G1 X119.568 Y162.017 E24.74285
G1 X119.567 Y172.981 E25.14398
G1 X119.562 Y175.397 E25.23237
G1 X119.563 Y177.739 E25.31806
G1 X116.526 Y177.74 E25.42917
G1 X116.53 Y175.774 E25.5011
G1 F2700 E20.5011
G1 F600 Z0.4
G0 F6000 X116.888 Y177.377 Z0.4
G1 F600 Z0.2
G1 F2700 E25.5011
G1 F1200 X119.201 Y177.376 E25.58572
G1 X119.202 Y160.563 E26.20085
G1 X116.889 Y160.564 E26.28547
G1 X116.888 Y177.377 E26.90059
G1 F2700 E21.90059
G1 F600 Z0.4
G0 F6000 X130.903 Y107.961 Z0.4
G1 F600 Z0.2
G1 F2700 E26.90059
G1 F1200 X95.137 Y107.961 E28.20913
G1 X80.545 Y107.959 E28.743
G1 X80.545 Y107.581 E28.75683
G1 X130.903 Y107.579 E30.59923
G1 X130.903 Y107.961 E30.61321
G1 F2700 E25.61321
G1 F600 Z0.4
;MESH:raspberry_case_bottom.stl
G0 F6000 X134.608 Y105.38 Z0.4
;TYPE:WALL-INNER
G1 F600 Z0.2
G1 F2700 E30.61321
G1 F1200 X64.741 Y105.381 E33.16937
G1 X64.74 Y105.381 E33.16941
G1 X64.514 Y105.381 E33.17768
G1 X64.522 Y105.155 E33.18298
G1 X64.572 Y103.747 E33.23452
G1 X63.372 Y103.665 E33.27853
G1 X62.414 Y103.665 E33.31358
G1 X62.414 Y82.575 E34.08518
G1 X66.04 Y82.575 E34.21784
G1 X66.04 Y65.371 E34.84727
G1 X62.414 Y65.371 E34.97993
G1 X62.41 Y45.971 E35.6897
G1 X62.487 Y45.665 E35.70125
G1 X62.659 Y45.464 E35.71093
G1 X62.729 Y45.426 E35.71384
G1 X62.983 Y45.389 E35.72323
G1 X63.047 Y45.37 E35.72567
G1 X148.154 Y45.369 E38.83941
G1 X148.453 Y45.431 E38.85058
G1 X148.593 Y45.53 E38.85686
G1 X148.677 Y45.638 E38.86186
G1 X148.761 Y45.983 E38.87485
G1 X148.762 Y104.752 E41.02498
G1 X148.668 Y105.152 E41.04002
G1 X148.659 Y105.166 E41.04063
G1 X148.452 Y105.319 E41.05004
G1 X148.155 Y105.381 E41.06114
G1 X134.608 Y105.38 E41.55678
G0 F6000 X134.608 Y105.82
G1 F1200 X64.099 Y105.82 E44.13643
G1 X64.073 Y105.82 E44.13738
G1 X62.996 Y105.821 E44.17678
G1 X62.906 Y105.796 E44.1802
G1 X62.516 Y105.709 E44.19482
G1 X62.298 Y105.568 E44.20432
G1 X62.238 Y105.431 E44.20979
G1 X62.298 Y105.431
G1 X62.516 Y105.431 E44.21334
G1 X62.906 Y105.431 E44.22375
G1 X62.996 Y105.431 E44.22657
G1 X64.072 Y105.432 E44.26137
G1 X64.072 Y105.406 E44.26232
G1 X64.117 Y104.157 E44.30805
G1 X63.357 Y104.105 E44.33592
G1 X61.974 Y104.105 E44.38652
G1 X61.974 Y82.135 E45.19031
G1 X65.6 Y82.135 E45.32298
G1 X65.6 Y65.811 E45.92021
G1 X61.974 Y65.811 E46.05287
G1 X61.97 Y45.933 E46.78013
G1 X61.977 Y45.888 E46.78179
G1 X62.085 Y45.459 E46.79798
G1 X62.378 Y45.115 E46.81451
G1 X62.59 Y45.002 E46.8233
G1 X62.888 Y44.958 E46.83432
G1 X62.982 Y44.93 E46.83791
G1 X148.199 Y44.929 E49.95567
G1 X148.631 Y45.018 E49.97181
G1 X148.901 Y45.209 E49.98391
G1 X149.083 Y45.442 E49.99473
G1 X149.201 Y45.929 E50.01306
G1 X149.202 Y104.818 E52.16758
G1 X149.193 Y104.843 E52.16855
G1 X149.077 Y105.336 E52.18708
G1 X148.98 Y105.475 E52.19328
G1 X148.635 Y105.731 E52.209
G1 X148.2 Y105.821 E52.22525
G1 X134.608 Y105.82 E52.72253
G0 F6000 X134.608 Y106.26
;TYPE:WALL-OUTER
G1 F1200 X62.935 Y106.261 E55.34477
G1 X62.799 Y106.223 E55.34994
G1 X62.339 Y106.121 E55.36718
G1 X62.311 Y106.1 E55.36846
G1 X61.949 Y105.867 E55.38421
G1 X61.933 Y105.834 E55.38555
G1 X61.7 Y105.298 E55.40693
G1 X61.567 Y104.991 E55.41917
G1 X61.901 Y104.991 E55.42629
G1 X61.902 Y104.991 E55.42633
G1 X63.647 Y104.992 E55.49017
G1 X63.66 Y104.629 E55.50346
G1 X63.662 Y104.567 E55.50573
G1 X63.342 Y104.545 E55.51746
G1 X63.28 Y104.545 E55.51973
G1 X61.534 Y104.545 E55.58361
G1 X61.534 Y81.695 E56.4196
G1 X65.16 Y81.695 E56.55226
G1 X65.16 Y66.251 E57.1173
G1 X61.534 Y66.251 E57.24996
G1 X61.53 Y45.897 E57.99464
G1 X61.545 Y45.801 E57.99819
G1 X61.679 Y45.267 E58.01833
G1 X61.693 Y45.241 E58.01942
G1 X62.043 Y44.826 E58.03928
G1 X62.118 Y44.754 E58.04308
G1 X62.45 Y44.578 E58.05683
G1 X62.793 Y44.527 E58.06952
G1 X62.918 Y44.49 E58.07429
G1 X148.245 Y44.489 E61.19607
G1 X148.809 Y44.606 E61.21715
G1 X149.217 Y44.893 E61.2354
G1 X149.241 Y44.929 E61.23698
G1 X149.489 Y45.246 E61.2517
G1 X149.616 Y45.781 E61.27182
G1 X149.637 Y45.84 E61.27411
G1 X149.641 Y45.876 E61.27544
G1 X149.642 Y104.871 E63.43384
G1 X149.637 Y104.907 E63.43517
G1 X149.616 Y104.967 E63.43749
G1 X149.487 Y105.512 E63.45798
G1 X149.352 Y105.717 E63.46696
G1 X149.282 Y105.8 E63.47094
G1 X148.82 Y106.142 E63.49197
G1 X148.245 Y106.261 E63.51345
G1 X134.608 Y106.26 E64.01237
G0 F6000 X134.608 Y104.95
;TYPE:SKIN
G1 F1200 X64.96 Y104.951 E66.56053
G1 X65.016 Y103.346 E66.61928
G1 X63.387 Y103.235 E66.67902
G1 X62.844 Y103.235 E66.69889
G1 X62.844 Y83.005 E67.43902
G1 X66.47 Y83.005 E67.57169
G1 X66.47 Y64.941 E68.23258
G1 X62.844 Y64.941 E68.36524
G1 X62.84 Y46.024 E69.05734
G1 X62.879 Y45.867 E69.06326
G1 X62.907 Y45.835 E69.06481
G1 X63.109 Y45.8 E69.07231
G1 X148.11 Y45.799 E72.18217
G1 X148.283 Y45.837 E72.18865
G1 X148.331 Y46.035 E72.19611
G1 X148.332 Y104.706 E74.34265
G1 X148.285 Y104.907 E74.35021
G1 X148.271 Y104.917 E74.35084
G1 X148.11 Y104.951 E74.35686
G1 X134.608 Y104.95 E74.85084
G1 F2700 E69.85084
G1 F600 Z0.4
G0 F6000 X148.025 Y45.975 Z0.4
G1 F600 Z0.2
G1 F2700 E74.85084
G1 F1200 X148.155 Y46.105 E74.85757
G0 F6000 X148.155 Y46.727
G1 F1200 X147.402 Y45.975 E74.8965
G0 F6000 X146.78 Y45.975
G1 F1200 X148.155 Y47.349 E74.96762
G0 F6000 X148.155 Y47.972
G1 F1200 X146.158 Y45.975 E75.07095
G0 F6000 X145.536 Y45.975
G1 F1200 X148.155 Y48.594 E75.20646
G0 F6000 X148.155 Y49.216
G1 F1200 X144.913 Y45.975 E75.37417
G0 F6000 X144.291 Y45.975
G1 F1200 X148.155 Y49.839 E75.5741
G0 F6000 X148.155 Y50.461
G1 F1200 X143.669 Y45.975 E75.80621
G0 F6000 X143.046 Y45.975
G1 F1200 X148.155 Y51.083 E76.07052
G0 F6000 X148.155 Y51.705
G1 F1200 X142.424 Y45.975 E76.36702
G0 F6000 X141.802 Y45.975
G1 F1200 X148.155 Y52.328 E76.69573
G0 F6000 X148.155 Y52.95
G1 F1200 X141.18 Y45.975 E77.05662
G0 F6000 X140.557 Y45.975
G1 F1200 X148.155 Y53.572 E77.44972
G0 F6000 X148.155 Y54.194
G1 F1200 X139.935 Y45.975 E77.875
G0 F6000 X139.313 Y45.975
G1 F1200 X148.155 Y54.817 E78.33249
G0 F6000 X148.155 Y55.439
G1 F1200 X138.691 Y45.975 E78.82217
G0 F6000 X138.068 Y45.975
G1 F1200 X148.155 Y56.061 E79.34405
G0 F6000 X148.155 Y56.683
G1 F1200 X137.446 Y45.975 E79.89811
G0 F6000 X136.824 Y45.975
G1 F1200 X148.155 Y57.306 E80.48439
G0 F6000 X148.155 Y57.928
G1 F1200 X136.202 Y45.975 E81.10284
G0 F6000 X135.579 Y45.975
G1 F1200 X148.155 Y58.55 E81.75351
G0 F6000 X148.155 Y59.172
G1 F1200 X134.957 Y45.975 E82.43635
G0 F6000 X134.335 Y45.975
G1 F1200 X148.155 Y59.795 E83.15141
G0 F6000 X148.155 Y60.417
G1 F1200 X133.713 Y45.975 E83.89865
G0 F6000 X133.09 Y45.975
G1 F1200 X148.155 Y61.039 E84.67809
G0 F6000 X148.155 Y61.661
G1 F1200 X132.468 Y45.975 E85.48972
G0 F6000 X131.846 Y45.975
G1 F1200 X148.155 Y62.284 E86.33356
G0 F6000 X148.155 Y62.906
G1 F1200 X131.224 Y45.975 E87.20958
G0 F6000 X130.601 Y45.975
G1 F1200 X148.155 Y63.528 E88.11781
G0 F6000 X148.155 Y64.15
