;FLAVOR:Marlin
;TIME:4417
;Filament used: 2.79765m
;Layer height: 0.2
;MINX:82.405
;MINY:61.125
;MINZ:0.2
;MAXX:136.985
;MAXY:161.988
;MAXZ:10
;Generated with Cura_SteamEngine 4.2.1
M140 S50
M105
M190 S50
M104 S200
M105
M109 S200
M82 ;absolute extrusion mode
M201 X500.00 Y500.00 Z100.00 E5000.00 ;Setup machine max acceleration
M203 X500.00 Y500.00 Z10.00 E50.00 ;Setup machine max feedrate
M204 P500.00 R1000.00 T500.00 ;Setup Print/Retract/Travel acceleration
M205 X8.00 Y8.00 Z0.40 E5.00 ;Setup Jerk
M220 S100 ;Reset Feedrate
M221 S100 ;Reset Flowrate

G28 ;Home

G92 E0 ;Reset Extruder
G1 Z2.0 F3000 ;Move Z Axis up
G1 X2.1 Y20 Z0.28 F5000.0 ;Move to start position
G1 X2.1 Y200.0 Z0.28 F1500.0 E15 ;Draw the first line
G1 X2.4 Y200.0 Z0.28 F5000.0 ;Move to side a little
G1 X2.4 Y20 Z0.28 F1500.0 E30 ;Draw the second line
G92 E0 ;Reset Extruder
G1 Z2.0 F3000 ;Move Z Axis up
M141 S28
G92 E0
G92 E0
G1 F2700 E-5
;LAYER_COUNT:50
;LAYER:0
M107
G0 F6000 X93.176 Y65.632 Z0.2
;TYPE:SKIRT
G1 F2700 E0
G1 F1200 X93.795 Y64.897 E0.03516
G1 X94.473 Y64.217 E0.07029
G1 X95.206 Y63.595 E0.10546
G1 X95.987 Y63.036 E0.1406
G1 X96.812 Y62.544 E0.17574
G1 X97.676 Y62.123 E0.21091
G1 X98.571 Y61.775 E0.24604
G1 X99.492 Y61.502 E0.28118
G1 X100.433 Y61.307 E0.31634
G1 X101.116 Y61.216 E0.34155
G1 X101.387 Y61.188 E0.35152
G1 X102.562 Y61.127 E0.39457
G1 X104.623 Y61.125 E0.46997
G1 X104.807 Y61.126 E0.4767
G1 X105.474 Y61.136 E0.50111
G1 X105.778 Y61.145 E0.51223
G1 X106.525 Y61.176 E0.53959
G1 X109.066 Y61.247 E0.63259
G1 X111.601 Y61.246 E0.72534
G1 X114.108 Y61.175 E0.81709
G1 X114.464 Y61.157 E0.83014
G1 X114.72 Y61.147 E0.83951
G1 X115.243 Y61.132 E0.85865
G1 X115.563 Y61.127 E0.87036
G1 X117.623 Y61.125 E0.94573
G1 X117.792 Y61.126 E0.95191
G1 X118.45 Y61.135 E0.97599
G1 X119.409 Y61.188 E1.01113
G1 X120.36 Y61.321 E1.04626
G1 X121.297 Y61.532 E1.0814
G1 X122.214 Y61.821 E1.11657
G1 X123.103 Y62.185 E1.15172
G1 X123.959 Y62.621 E1.18687
G1 X124.775 Y63.127 E1.22199
G1 X125.547 Y63.699 E1.25715
G1 X126.268 Y64.334 E1.2923
G1 X126.934 Y65.026 E1.32744
G1 X127.54 Y65.771 E1.36257
G1 X128.082 Y66.565 E1.39774
G1 X128.556 Y67.4 E1.43287
G1 X128.865 Y68.049 E1.45917
G1 X129.969 Y70.573 E1.55996
G1 X131.035 Y72.841 E1.65165
G1 X132.151 Y75.051 E1.74223
G1 X133.725 Y77.937 E1.8625
G1 X134.125 Y78.637 E1.89199
G1 X134.566 Y79.49 E1.92713
G1 X134.935 Y80.377 E1.96227
G1 X135.228 Y81.292 E1.99742
G1 X135.445 Y82.228 E2.03258
G1 X135.583 Y83.178 E2.0677
G1 X135.641 Y84.161 E2.10373
G1 X135.651 Y84.747 E2.12517
G1 X135.653 Y84.943 E2.13234
G1 X135.654 Y105.6 E2.8881
G1 X135.691 Y108.185 E2.98268
G1 X135.796 Y110.68 E3.07405
G1 X135.974 Y113.196 E3.16633
G1 X136.219 Y115.657 E3.25681
G1 X136.54 Y118.165 E3.34932
G1 X136.636 Y118.786 E3.37231
G1 X136.651 Y118.89 E3.37615
G1 X136.853 Y120.275 E3.42736
G1 X136.952 Y121.23 E3.46249
G1 X136.972 Y121.717 E3.48032
G1 X136.983 Y122.287 E3.50118
G1 X136.985 Y122.51 E3.50934
G1 X136.985 Y147.741 E4.43244
G1 X136.984 Y147.906 E4.43848
G1 X136.974 Y148.604 E4.46402
G1 X136.92 Y149.563 E4.49916
G1 X136.787 Y150.515 E4.53433
G1 X136.575 Y151.452 E4.56948
G1 X136.286 Y152.368 E4.60462
G1 X135.921 Y153.257 E4.63978
G1 X135.484 Y154.112 E4.67491
G1 X134.978 Y154.928 E4.71004
G1 X134.405 Y155.699 E4.74518
G1 X133.996 Y156.177 E4.7682
G1 X133.855 Y156.333 E4.77589
G1 X133.543 Y156.665 E4.79256
G1 X133.362 Y156.85 E4.80203
G1 X133.273 Y156.94 E4.80666
G1 X132.094 Y158.119 E4.86766
G1 X131.982 Y158.229 E4.87341
G1 X131.498 Y158.7 E4.89811
G1 X130.782 Y159.341 E4.93327
G1 X130.016 Y159.92 E4.9684
G1 X129.204 Y160.433 E5.00354
G1 X128.352 Y160.877 E5.03869
G1 X127.466 Y161.249 E5.07385
G1 X126.552 Y161.545 E5.109
G1 X125.617 Y161.765 E5.14414
G1 X124.667 Y161.906 E5.17928
G1 X123.816 Y161.964 E5.21049
G1 X123.249 Y161.982 E5.23124
G1 X122.883 Y161.988 E5.24463
G1 X96.652 Y161.988 E6.20433
G1 X96.487 Y161.987 E6.21036
G1 X95.789 Y161.977 E6.2359
G1 X94.83 Y161.923 E6.27104
G1 X93.878 Y161.79 E6.30621
G1 X92.941 Y161.578 E6.34136
G1 X92.025 Y161.289 E6.3765
G1 X91.136 Y160.924 E6.41166
G1 X90.281 Y160.487 E6.44679
G1 X89.465 Y159.981 E6.48192
G1 X88.694 Y159.408 E6.51706
G1 X88.216 Y158.999 E6.54008
G1 X88.06 Y158.858 E6.54777
G1 X87.723 Y158.541 E6.5647
G1 X87.528 Y158.35 E6.57469
G1 X87.443 Y158.266 E6.57906
G1 X86.266 Y157.089 E6.63996
G1 X86.155 Y156.977 E6.64573
G1 X85.686 Y156.495 E6.67033
G1 X85.046 Y155.779 E6.70547
G1 X84.467 Y155.012 E6.74063
G1 X83.953 Y154.2 E6.77579
G1 X83.51 Y153.348 E6.81092
G1 X83.138 Y152.462 E6.84608
G1 X82.842 Y151.549 E6.88119
G1 X82.622 Y150.614 E6.91633
G1 X82.481 Y149.663 E6.95151
G1 X82.42 Y148.694 E6.98703
G1 X82.408 Y148.133 E7.00756
G1 X82.405 Y147.886 E7.0166
G1 X82.405 Y122.655 E7.9397
G1 X82.406 Y122.489 E7.94577
G1 X82.416 Y121.792 E7.97128
G1 X82.47 Y120.833 E8.00642
G1 X82.672 Y119.538 E8.05437
G1 X83.006 Y117.98 E8.11267
G1 X83.5 Y115.485 E8.20572
G1 X83.92 Y112.998 E8.298
G1 X84.267 Y110.52 E8.38955
G1 X84.544 Y108.024 E8.48143
G1 X84.751 Y105.522 E8.57328
G1 X84.883 Y103.084 E8.6626
G1 X84.957 Y99.365 E8.79869
G1 X84.956 Y85.064 E9.32191
G1 X84.957 Y84.899 E9.32795
G1 X84.967 Y84.196 E9.35367
G1 X85.021 Y83.237 E9.38881
G1 X85.154 Y82.285 E9.42398
G1 X85.366 Y81.348 E9.45913
G1 X85.655 Y80.432 E9.49427
G1 X86.019 Y79.543 E9.52942
G1 X86.51 Y78.593 E9.56854
G1 X86.596 Y78.443 E9.57487
G1 X87.844 Y76.208 E9.66852
G1 X89.008 Y73.978 E9.76056
G1 X90.096 Y71.737 E9.8517
G1 X91.163 Y69.375 E9.94652
G1 X91.713 Y68.107 E9.99709
G1 X92.132 Y67.242 E10.03225
G1 X92.62 Y66.415 E10.06739
G1 X93.176 Y65.632 E10.10252
G0 F6000 X93.558 Y65.858
G1 F1200 X94.169 Y65.141 E10.13698
G1 X94.839 Y64.479 E10.17144
G1 X95.562 Y63.875 E10.20591
G1 X96.335 Y63.336 E10.24039
G1 X97.15 Y62.863 E10.27487
G1 X98.002 Y62.462 E10.30932
G1 X98.885 Y62.134 E10.34378
G1 X99.793 Y61.882 E10.37826
G1 X101.161 Y61.654 E10.429
G1 X101.432 Y61.626 E10.43896
G1 X102.562 Y61.567 E10.48036
G1 X104.623 Y61.565 E10.55577
G1 X104.8 Y61.566 E10.56224
G1 X105.467 Y61.576 E10.58665
G1 X105.76 Y61.585 E10.59737
G1 X106.421 Y61.612 E10.62158
G1 X109.09 Y61.687 E10.71926
G1 X111.577 Y61.686 E10.81025
G1 X114.143 Y61.613 E10.90417
G1 X114.486 Y61.596 E10.91673
G1 X114.733 Y61.587 E10.92578
G1 X115.256 Y61.572 E10.94492
G1 X115.563 Y61.567 E10.95615
G1 X117.623 Y61.565 E11.03152
G1 X117.786 Y61.566 E11.03748
G1 X118.444 Y61.575 E11.06156
G1 X119.384 Y61.628 E11.09601
G1 X120.317 Y61.76 E11.13048
G1 X121.235 Y61.971 E11.16494
G1 X122.132 Y62.26 E11.19942
G1 X123.002 Y62.623 E11.23391
G1 X123.837 Y63.058 E11.26836
G1 X124.633 Y63.563 E11.30285
G1 X125.382 Y64.134 E11.3373
G1 X126.081 Y64.766 E11.37178
G1 X126.724 Y65.455 E11.40626
G1 X127.305 Y66.196 E11.44071
G1 X127.822 Y66.983 E11.47516
G1 X128.462 Y68.226 E11.52631
G1 X129.562 Y70.741 E11.62674
G1 X130.645 Y73.044 E11.71985
G1 X131.76 Y75.252 E11.81035
G1 X133.339 Y78.147 E11.931
G1 X133.743 Y78.855 E11.96082
G1 X134.175 Y79.692 E11.99528
G1 X134.534 Y80.563 E12.02975
G1 X134.818 Y81.461 E12.06421
G1 X135.025 Y82.38 E12.09867
G1 X135.154 Y83.314 E12.13317
G1 X135.201 Y84.169 E12.1645
G1 X135.211 Y84.755 E12.18594
G1 X135.213 Y84.943 E12.19282
G1 X135.214 Y105.606 E12.9488
G1 X135.251 Y108.211 E13.04411
G1 X135.358 Y110.726 E13.13621
G1 X135.534 Y113.216 E13.22754
G1 X135.78 Y115.695 E13.31868
G1 X136.102 Y118.215 E13.41163
G1 X136.201 Y118.853 E13.43525
G1 X136.216 Y118.953 E13.43895
G1 X136.418 Y120.338 E13.49016
G1 X136.532 Y121.726 E13.54111
G1 X136.543 Y122.296 E13.56197
G1 X136.545 Y122.51 E13.5698
G1 X136.545 Y147.741 E14.4929
G1 X136.544 Y147.9 E14.49872
G1 X136.534 Y148.598 E14.52426
G1 X136.48 Y149.539 E14.55874
G1 X136.347 Y150.471 E14.59319
G1 X136.136 Y151.389 E14.62765
G1 X135.847 Y152.286 E14.66213
G1 X135.483 Y153.155 E14.6966
G1 X135.047 Y153.99 E14.73106
G1 X134.542 Y154.785 E14.76552
G1 X133.67 Y155.882 E14.81679
G1 X133.529 Y156.038 E14.82448
G1 X133.228 Y156.358 E14.84055
G1 X133.047 Y156.543 E14.85002
G1 X132.962 Y156.629 E14.85445
G1 X131.783 Y157.808 E14.91545
G1 X131.675 Y157.914 E14.92099
G1 X131.191 Y158.385 E14.94569
G1 X130.489 Y159.013 E14.98016
G1 X129.736 Y159.579 E15.01462
G1 X128.937 Y160.079 E15.0491
G1 X128.099 Y160.509 E15.08356
G1 X127.228 Y160.867 E15.11802
G1 X126.329 Y161.15 E15.1525
G1 X125.41 Y161.356 E15.18696
G1 X124.476 Y161.482 E15.22144
G1 X123.802 Y161.524 E15.24614
G1 X123.235 Y161.542 E15.2669
G1 X122.883 Y161.548 E15.27978
G1 X96.652 Y161.548 E16.23947
G1 X96.493 Y161.547 E16.24529
G1 X95.795 Y161.537 E16.27083
G1 X94.854 Y161.483 E16.30531
G1 X93.922 Y161.35 E16.33976
G1 X93.004 Y161.139 E16.37422
G1 X92.107 Y160.85 E16.4087
G1 X91.238 Y160.486 E16.44317
G1 X90.403 Y160.05 E16.47763
G1 X89.608 Y159.545 E16.51209
G1 X88.511 Y158.673 E16.56336
G1 X88.355 Y158.532 E16.57105
G1 X88.031 Y158.227 E16.58733
G1 X87.836 Y158.036 E16.59732
G1 X87.754 Y157.955 E16.60153
G1 X86.577 Y156.778 E16.66243
G1 X86.471 Y156.67 E16.66797
G1 X86.002 Y156.188 E16.69257
G1 X85.374 Y155.485 E16.72706
G1 X84.808 Y154.732 E16.76153
G1 X84.308 Y153.934 E16.79598
G1 X83.877 Y153.096 E16.83046
G1 X83.519 Y152.224 E16.86494
G1 X83.237 Y151.325 E16.89941
G1 X83.031 Y150.406 E16.93387
G1 X82.904 Y149.472 E16.96836
G1 X82.86 Y148.684 E16.99723
G1 X82.848 Y148.123 E17.01776
G1 X82.845 Y147.886 E17.02643
G1 X82.845 Y122.655 E17.94954
G1 X82.846 Y122.496 E17.95536
G1 X82.856 Y121.799 E17.98086
G1 X82.91 Y120.858 E18.01534
G1 X83.102 Y119.63 E18.06082
G1 X83.433 Y118.086 E18.11859
G1 X83.939 Y115.531 E18.21388
G1 X84.355 Y113.066 E18.30534
G1 X84.706 Y110.558 E18.398
G1 X84.984 Y108.05 E18.49032
G1 X85.187 Y105.586 E18.58077
G1 X85.323 Y103.086 E18.67237
G1 X85.397 Y99.374 E18.8082
G1 X85.396 Y85.064 E19.33175
G1 X85.397 Y84.905 E19.33757
G1 X85.407 Y84.202 E19.36329
G1 X85.46 Y83.262 E19.39774
G1 X85.593 Y82.329 E19.43222
G1 X85.805 Y81.411 E19.46669
G1 X86.094 Y80.514 E19.50117
G1 X86.457 Y79.645 E19.53562
G1 X86.891 Y78.813 E19.56995
G1 X86.967 Y78.681 E19.57553
G1 X88.247 Y76.387 E19.67164
G1 X89.394 Y74.19 E19.76231
G1 X90.493 Y71.928 E19.85432
G1 X91.574 Y69.535 E19.95039
G1 X92.117 Y68.282 E20.00035
G1 X92.528 Y67.434 E20.03483
G1 X93.009 Y66.624 E20.06929
G1 X93.558 Y65.858 E20.10377
G0 F6000 X93.938 Y66.085
G1 F1200 X94.542 Y65.386 E20.13757
G1 X95.203 Y64.742 E20.17134
G1 X95.918 Y64.158 E20.20511
G1 X96.681 Y63.638 E20.23889
G1 X97.485 Y63.185 E20.27266
G1 X98.326 Y62.804 E20.30644
G1 X99.197 Y62.497 E20.34022
G1 X100.091 Y62.267 E20.374
G1 X101.206 Y62.091 E20.4153
G1 X101.477 Y62.063 E20.42526
G1 X102.563 Y62.007 E20.46505
G1 X104.624 Y62.005 E20.54045
G1 X104.794 Y62.006 E20.54667
G1 X105.461 Y62.016 E20.57108
G1 X105.742 Y62.024 E20.58136
G1 X106.464 Y62.054 E20.6078
G1 X109.078 Y62.127 E20.70347
G1 X111.59 Y62.126 E20.79538
G1 X114.178 Y62.053 E20.8901
G1 X114.509 Y62.036 E20.90223
G1 X114.745 Y62.026 E20.91087
G1 X115.268 Y62.011 E20.93001
G1 X115.564 Y62.007 E20.94084
G1 X117.624 Y62.005 E21.01621
G1 X117.78 Y62.006 E21.02192
G1 X118.438 Y62.015 E21.04599
G1 X119.36 Y62.068 E21.07978
G1 X120.273 Y62.2 E21.11353
G1 X121.172 Y62.41 E21.14731
G1 X122.049 Y62.698 E21.18108
G1 X122.899 Y63.061 E21.2149
G1 X123.713 Y63.495 E21.24865
G1 X124.487 Y63.999 E21.28244
G1 X125.214 Y64.567 E21.31619
G1 X125.89 Y65.197 E21.35
G1 X126.508 Y65.882 E21.38375
G1 X127.065 Y66.619 E21.41755
G1 X127.556 Y67.401 E21.45133
G1 X128.058 Y68.402 E21.4923
G1 X129.16 Y70.922 E21.59293
G1 X130.247 Y73.232 E21.68633
G1 X131.367 Y75.451 E21.77727
G1 X132.943 Y78.34 E21.89768
G1 X133.361 Y79.073 E21.92855
G1 X133.783 Y79.894 E21.96232
G1 X134.133 Y80.748 E21.99609
G1 X134.408 Y81.63 E22.02989
G1 X134.605 Y82.531 E22.06363
G1 X134.724 Y83.447 E22.09743
G1 X134.761 Y84.176 E22.12413
G1 X134.771 Y84.762 E22.14557
G1 X134.773 Y84.943 E22.1522
G1 X134.774 Y105.612 E22.9084
G1 X134.811 Y108.236 E23.00441
G1 X134.917 Y110.74 E23.0961
G1 X135.095 Y113.24 E23.1878
G1 X135.346 Y115.768 E23.28074
G1 X135.67 Y118.303 E23.37424
G1 X135.766 Y118.921 E23.39712
G1 X135.78 Y119.017 E23.40067
G1 X135.982 Y120.402 E23.45188
G1 X136.092 Y121.734 E23.50078
G1 X136.103 Y122.304 E23.52164
G1 X136.105 Y122.51 E23.52917
G1 X136.105 Y147.741 E24.45228
G1 X136.104 Y147.894 E24.45788
G1 X136.094 Y148.592 E24.48342
G1 X136.041 Y149.513 E24.51717
G1 X135.908 Y150.427 E24.55096
G1 X135.697 Y151.326 E24.58475
G1 X135.408 Y152.203 E24.61853
G1 X135.045 Y153.052 E24.65231
G1 X134.61 Y153.866 E24.68608
G1 X134.106 Y154.64 E24.71987
G1 X133.343 Y155.587 E24.76436
G1 X133.202 Y155.743 E24.77206
G1 X132.914 Y156.05 E24.78746
G1 X132.733 Y156.235 E24.79693
G1 X132.651 Y156.318 E24.80119
G1 X131.472 Y157.497 E24.8622
G1 X131.368 Y157.599 E24.86753
G1 X130.884 Y158.07 E24.89224
G1 X130.196 Y158.684 E24.92597
G1 X129.456 Y159.237 E24.95977
G1 X128.671 Y159.724 E24.99357
G1 X127.848 Y160.141 E25.02732
G1 X126.991 Y160.485 E25.06111
G1 X126.108 Y160.753 E25.09487
G1 X125.204 Y160.945 E25.12868
G1 X124.288 Y161.057 E25.16244
G1 X123.788 Y161.085 E25.18077
G1 X123.221 Y161.103 E25.20152
G1 X122.883 Y161.108 E25.21389
G1 X96.652 Y161.108 E26.17358
G1 X96.499 Y161.107 E26.17918
G1 X95.801 Y161.097 E26.20472
G1 X94.88 Y161.044 E26.23847
G1 X93.966 Y160.911 E26.27226
G1 X93.067 Y160.7 E26.30605
G1 X92.19 Y160.411 E26.33983
G1 X91.341 Y160.048 E26.37361
G1 X90.527 Y159.613 E26.40738
G1 X89.753 Y159.109 E26.44117
G1 X88.806 Y158.346 E26.48566
G1 X88.65 Y158.205 E26.49336
G1 X88.339 Y157.912 E26.50899
G1 X88.144 Y157.721 E26.51898
G1 X88.065 Y157.644 E26.52301
G1 X86.888 Y156.467 E26.58391
G1 X86.786 Y156.363 E26.58924
G1 X86.317 Y155.881 E26.61385
G1 X85.702 Y155.192 E26.64763
G1 X85.15 Y154.453 E26.68138
G1 X84.663 Y153.668 E26.71518
G1 X84.246 Y152.844 E26.74897
G1 X83.902 Y151.987 E26.78275
G1 X83.633 Y151.104 E26.81652
G1 X83.442 Y150.201 E26.85029
G1 X83.33 Y149.284 E26.88409
G1 X83.299 Y148.675 E26.9064
G1 X83.287 Y148.114 E26.92693
G1 X83.285 Y147.886 E26.93527
G1 X83.285 Y122.655 E27.85838
G1 X83.286 Y122.502 E27.86398
G1 X83.296 Y121.805 E27.88948
G1 X83.349 Y120.883 E27.92327
G1 X83.532 Y119.722 E27.96627
G1 X83.869 Y118.15 E28.02509
G1 X84.37 Y115.617 E28.11956
G1 X84.791 Y113.127 E28.21195
G1 X85.14 Y110.635 E28.30401
G1 X85.419 Y108.12 E28.39659
G1 X85.629 Y105.575 E28.49002
G1 X85.762 Y103.119 E28.58
G1 X85.837 Y99.382 E28.71675
G1 X85.836 Y85.064 E29.2406
G1 X85.837 Y84.911 E29.24619
G1 X85.847 Y84.208 E29.27192
G1 X85.9 Y83.287 E29.30567
G1 X86.033 Y82.373 E29.33946
G1 X86.244 Y81.474 E29.37324
G1 X86.532 Y80.597 E29.40702
G1 X86.895 Y79.748 E29.4408
G1 X87.272 Y79.033 E29.47037
G1 X87.368 Y78.867 E29.47739
G1 X88.629 Y76.607 E29.57207
G1 X89.793 Y74.376 E29.66414
G1 X90.889 Y72.121 E29.75587
G1 X91.974 Y69.718 E29.85233
G1 X92.521 Y68.457 E29.90262
G1 X92.924 Y67.626 E29.93641
G1 X93.398 Y66.834 E29.97018
G1 X93.938 Y66.085 E30.00396
G0 F6000 X94.319 Y66.314
G1 F1200 X94.914 Y65.633 E30.03704
G1 X95.567 Y65.008 E30.07011
G1 X96.273 Y64.443 E30.1032
G1 X97.025 Y63.943 E30.13624
G1 X97.819 Y63.511 E30.16931
G1 X98.649 Y63.15 E30.20242
G1 X99.506 Y62.865 E30.23546
G1 X100.386 Y62.656 E30.26856
G1 X101.252 Y62.529 E30.30058
G1 X101.523 Y62.501 E30.31055
G1 X102.563 Y62.447 E30.34865
G1 X104.624 Y62.445 E30.42405
G1 X104.787 Y62.446 E30.43001
G1 X105.454 Y62.456 E30.45442
G1 X105.724 Y62.464 E30.4643
G1 X106.436 Y62.493 E30.49037
G1 X109.065 Y62.567 E30.5866
G1 X111.603 Y62.566 E30.67945
G1 X114.169 Y62.493 E30.77337
G1 X114.531 Y62.475 E30.78663
G1 X114.758 Y62.466 E30.79494
G1 X115.281 Y62.451 E30.81409
G1 X115.564 Y62.447 E30.82444
G1 X117.624 Y62.445 E30.89981
G1 X117.774 Y62.446 E30.9053
G1 X118.432 Y62.455 E30.92937
G1 X119.334 Y62.507 E30.96243
G1 X120.229 Y62.639 E30.99553
G1 X121.108 Y62.85 E31.0286
G1 X121.965 Y63.137 E31.06166
G1 X122.793 Y63.499 E31.09473
G1 X123.586 Y63.932 E31.12778
G1 X124.338 Y64.434 E31.16086
G1 X125.043 Y65.001 E31.19396
G1 X125.694 Y65.627 E31.22701
G1 X126.288 Y66.309 E31.26009
G1 X126.819 Y67.041 E31.29318
G1 X127.284 Y67.816 E31.32625
G1 X127.655 Y68.578 E31.35725
G1 X128.766 Y71.118 E31.45868
G1 X129.836 Y73.393 E31.55066
