;FLAVOR:Marlin
;TIME:2388
;Filament used: 3.43286m
;Layer height: 0.3
;Generated with Cura_SteamEngine 4.0.0
M140 S60
M105
M190 S60
M104 S200
M105
M109 S200
M82 ;absolute extrusion mode
; Ender 3 Custom Start G-code
G28 ; Home all axes
G92 E0 ; Reset Extruder
G1 Z2.0 F3000 ; Move Z Axis up little to prevent scratching of Heat Bed
G1 X0.1 Y20 Z0.3 F5000.0 ; Move to start position
G1 X0.1 Y200.0 Z0.3 F1500.0 E15 ; Draw the first line
G1 X0.4 Y200.0 Z0.3 F5000.0 ; Move to side a little
G1 X0.4 Y20 Z0.3 F1500.0 E30 ; Draw the second line
G92 E0 ; Reset Extruder
G1 Z2.0 F3000 ; Move Z Axis up little to prevent scratching of Heat Bed
; End of custom start GCode
G92 E0
G1 F2400 E-5
;LAYER_COUNT:68
;LAYER:0
M107
M204 S5000
M205 X30 Y30
G0 F3600 X65.53 Y80.997 Z0.2
M204 S500
M205 X20 Y20
;TYPE:SKIRT
G1 F2400 E0
G1 F1800 X66.107 Y80.574 E0.0238
G1 X66.728 Y80.219 E0.04759
G1 X67.384 Y79.935 E0.07136
G1 X67.947 Y79.758 E0.09099
G1 X68.519 Y79.606 E0.11068
G1 X69.22 Y79.461 E0.13449
G1 X70.162 Y79.391 E0.1659
G1 X93.168 Y79.389 E0.93109
G1 X93.926 Y79.434 E0.95634
G1 X100.906 Y80.265 E1.19014
G1 X106.188 Y80.562 E1.36609
G1 X129.186 Y80.626 E2.13101
G1 X129.9 Y80.668 E2.1548
G1 X130.605 Y80.789 E2.17859
G1 X131.292 Y80.989 E2.20239
G1 X131.715 Y81.155 E2.21751
G1 X132.146 Y81.342 E2.23313
G1 X132.786 Y81.663 E2.25695
G1 X133.385 Y82.053 E2.28072
G1 X133.937 Y82.508 E2.30451
G1 X134.435 Y83.021 E2.32829
G1 X134.795 Y83.476 E2.34759
G1 X135.133 Y83.946 E2.36684
G1 X135.517 Y84.549 E2.39062
G1 X135.832 Y85.192 E2.41444
G1 X136.073 Y85.865 E2.43821
G1 X136.238 Y86.561 E2.462
G1 X136.296 Y86.959 E2.47538
G1 X136.356 Y87.486 E2.49302
G1 X136.397 Y88.215 E2.51731
G1 X136.351 Y147.281 E4.48185
G1 X136.31 Y147.995 E4.50564
G1 X136.191 Y148.7 E4.52942
G1 X135.993 Y149.388 E4.55323
G1 X135.719 Y150.049 E4.57703
G1 X135.527 Y150.417 E4.59083
G1 X135.318 Y150.788 E4.605
G1 X134.933 Y151.391 E4.62879
G1 X134.483 Y151.947 E4.65258
G1 X133.973 Y152.449 E4.67638
G1 X133.634 Y152.728 E4.69099
G1 X133.305 Y152.98 E4.70477
G1 X132.713 Y153.382 E4.72857
G1 X132.081 Y153.716 E4.75235
G1 X131.415 Y153.978 E4.77615
G1 X130.409 Y154.221 E4.81057
G1 X129.787 Y154.319 E4.83151
G1 X128.785 Y154.397 E4.86494
G1 X105.883 Y154.374 E5.62667
G1 X105.011 Y154.314 E5.65574
G1 X102.337 Y153.944 E5.74552
G1 X96.963 Y153.409 E5.92515
G1 X94.398 Y153.264 E6.01059
G1 X90.332 Y153.176 E6.14586
G1 X69.925 Y153.148 E6.8246
G1 X69.211 Y153.107 E6.84839
G1 X68.506 Y152.987 E6.87217
G1 X67.819 Y152.788 E6.89596
G1 X67.459 Y152.65 E6.90879
G1 X67.087 Y152.494 E6.9222
G1 X66.444 Y152.181 E6.94599
G1 X65.84 Y151.798 E6.96978
G1 X65.282 Y151.35 E6.99358
G1 X64.778 Y150.843 E7.01735
G1 X64.301 Y150.236 E7.04303
G1 X63.902 Y149.66 E7.06634
G1 X63.528 Y149.051 E7.09011
G1 X63.225 Y148.403 E7.1139
G1 X62.995 Y147.725 E7.13771
G1 X62.843 Y147.026 E7.1615
G1 X62.763 Y146.019 E7.1951
G1 X62.734 Y87.318 E9.1475
G1 X62.748 Y86.897 E9.16151
G1 X62.804 Y86.042 E9.19001
G1 X62.89 Y85.332 E9.2138
G1 X63.055 Y84.636 E9.23759
G1 X63.297 Y83.963 E9.26138
G1 X63.613 Y83.321 E9.28518
G1 X64.133 Y82.538 E9.31644
G1 X64.534 Y82.021 E9.3382
G1 X65.003 Y81.481 E9.36199
G1 X65.53 Y80.997 E9.38579
M204 S5000
M205 X30 Y30
G0 F3600 X65.818 Y81.278
M204 S500
M205 X20 Y20
G1 F1800 X66.38 Y80.874 E9.40881
G1 X66.986 Y80.538 E9.43186
G1 X67.626 Y80.274 E9.45488
G1 X68.05 Y80.144 E9.46963
G1 X68.622 Y79.992 E9.48932
G1 X69.301 Y79.853 E9.51237
G1 X70.162 Y79.791 E9.54108
G1 X93.168 Y79.789 E10.30626
G1 X93.878 Y79.831 E10.32992
G1 X100.868 Y80.663 E10.56405
G1 X106.182 Y80.962 E10.74107
G1 X129.185 Y81.026 E11.50616
G1 X129.876 Y81.068 E11.52918
G1 X130.558 Y81.189 E11.55222
G1 X131.221 Y81.388 E11.57525
G1 X131.556 Y81.522 E11.58725
G1 X131.987 Y81.709 E11.60287
G1 X132.605 Y82.021 E11.6259
G1 X133.184 Y82.402 E11.64895
G1 X133.714 Y82.847 E11.67197
G1 X134.19 Y83.35 E11.695
G1 X134.47 Y83.71 E11.71017
G1 X134.808 Y84.18 E11.72943
G1 X135.179 Y84.765 E11.75247
G1 X135.481 Y85.388 E11.77549
G1 X135.708 Y86.042 E11.79852
G1 X135.898 Y87.004 E11.83113
G1 X135.958 Y87.531 E11.84877
G1 X135.997 Y88.215 E11.87156
G1 X135.951 Y147.281 E13.8361
G1 X135.91 Y147.972 E13.85913
G1 X135.791 Y148.654 E13.88215
G1 X135.593 Y149.318 E13.9052
G1 X135.179 Y150.221 E13.93824
G1 X134.97 Y150.592 E13.9524
G1 X134.595 Y151.175 E13.97546
G1 X134.157 Y151.71 E13.99845
G1 X133.39 Y152.41 E14.03299
G1 X133.061 Y152.662 E14.04678
G1 X132.488 Y153.051 E14.06981
G1 X131.874 Y153.371 E14.09284
G1 X131.227 Y153.618 E14.11587
G1 X130.347 Y153.826 E14.14595
G1 X129.725 Y153.924 E14.16689
G1 X128.785 Y153.997 E14.19825
G1 X105.883 Y153.974 E14.95997
G1 X105.066 Y153.917 E14.98721
G1 X102.405 Y153.549 E15.07656
G1 X96.978 Y153.009 E15.25796
G1 X94.43 Y152.864 E15.34284
G1 X90.34 Y152.776 E15.47891
G1 X69.926 Y152.748 E16.15788
G1 X69.234 Y152.707 E16.18093
G1 X68.552 Y152.587 E16.20397
G1 X67.614 Y152.281 E16.23678
G1 X67.242 Y152.125 E16.2502
G1 X66.62 Y151.821 E16.27323
G1 X66.037 Y151.447 E16.29626
G1 X65.501 Y151.008 E16.31931
G1 X65.019 Y150.511 E16.34233
G1 X64.63 Y150.009 E16.36346
G1 X64.231 Y149.433 E16.38676
G1 X63.87 Y148.841 E16.40982
G1 X63.58 Y148.213 E16.43283
G1 X63.364 Y147.555 E16.45587
G1 X63.225 Y146.876 E16.47892
G1 X63.163 Y146.019 E16.5075
G1 X63.134 Y87.318 E18.4599
G1 X63.147 Y86.923 E18.47304
G1 X63.203 Y86.068 E18.50154
G1 X63.288 Y85.381 E18.52457
G1 X63.452 Y84.708 E18.54761
G1 X63.692 Y84.058 E18.57065
G1 X64.005 Y83.441 E18.59366
G1 X64.449 Y82.783 E18.62006
G1 X64.85 Y82.266 E18.64183
G1 X65.305 Y81.744 E18.66486
G1 X65.818 Y81.278 E18.68791
M204 S5000
M205 X30 Y30
G0 F3600 X66.105 Y81.561
M204 S500
M205 X20 Y20
G1 F1800 X66.652 Y81.176 E18.71016
G1 X67.242 Y80.86 E18.73242
G1 X68.153 Y80.531 E18.76463
G1 X68.725 Y80.379 E18.78432
G1 X69.38 Y80.246 E18.80655
G1 X70.163 Y80.191 E18.83265
G1 X93.169 Y80.189 E19.59784
G1 X93.831 Y80.228 E19.61989
G1 X100.846 Y81.063 E19.85486
G1 X106.159 Y81.362 E20.03185
G1 X129.183 Y81.426 E20.79764
G1 X129.851 Y81.468 E20.8199
G1 X130.509 Y81.589 E20.84215
G1 X131.397 Y81.889 E20.87332
G1 X131.828 Y82.076 E20.88895
G1 X132.425 Y82.378 E20.9112
G1 X132.981 Y82.75 E20.93345
G1 X133.489 Y83.185 E20.9557
G1 X133.942 Y83.678 E20.97797
G1 X134.145 Y83.943 E20.98907
G1 X134.483 Y84.413 E21.00832
G1 X134.841 Y84.979 E21.0306
G1 X135.128 Y85.583 E21.05284
G1 X135.342 Y86.217 E21.0751
G1 X135.501 Y87.05 E21.1033
G1 X135.561 Y87.577 E21.12094
G1 X135.597 Y88.214 E21.14216
G1 X135.551 Y147.28 E23.10671
G1 X135.511 Y147.948 E23.12896
G1 X135.391 Y148.606 E23.15121
G1 X135.193 Y149.246 E23.17349
G1 X134.83 Y150.025 E23.20208
G1 X134.621 Y150.396 E23.21624
G1 X134.258 Y150.958 E23.23849
G1 X133.831 Y151.473 E23.26074
G1 X133.147 Y152.093 E23.29145
G1 X132.818 Y152.345 E23.30523
G1 X132.264 Y152.719 E23.32746
G1 X131.669 Y153.025 E23.34972
G1 X131.041 Y153.257 E23.37198
G1 X130.285 Y153.431 E23.39779
G1 X129.663 Y153.529 E23.41873
G1 X128.785 Y153.597 E23.44802
G1 X105.883 Y153.574 E24.20974
G1 X105.121 Y153.521 E24.23515
G1 X102.421 Y153.147 E24.32581
G1 X97.042 Y152.612 E24.5056
G1 X94.431 Y152.464 E24.59258
G1 X90.35 Y152.376 E24.72835
G1 X69.926 Y152.348 E25.40765
G1 X69.259 Y152.307 E25.42988
G1 X68.6 Y152.187 E25.45216
G1 X67.768 Y151.912 E25.4813
G1 X67.396 Y151.756 E25.49472
G1 X66.796 Y151.461 E25.51696
G1 X66.235 Y151.097 E25.5392
G1 X65.722 Y150.668 E25.56144
G1 X65.263 Y150.181 E25.5837
G1 X64.959 Y149.781 E25.60041
G1 X64.56 Y149.205 E25.62371
G1 X64.212 Y148.633 E25.64598
G1 X63.935 Y148.024 E25.66824
G1 X63.733 Y147.386 E25.69049
G1 X63.609 Y146.729 E25.71273
G1 X63.563 Y146.019 E25.7364
G1 X63.534 Y87.318 E27.6888
G1 X63.546 Y86.949 E27.70108
G1 X63.602 Y86.094 E27.72958
G1 X63.685 Y85.43 E27.75183
G1 X63.848 Y84.781 E27.77409
G1 X64.086 Y84.156 E27.79633
G1 X64.397 Y83.564 E27.81857
G1 X64.765 Y83.028 E27.8402
G1 X65.166 Y82.511 E27.86196
G1 X65.607 Y82.008 E27.88421
G1 X66.105 Y81.561 E27.90647
M204 S5000
M205 X30 Y30
G0 F3600 X66.391 Y81.845
M204 S500
M205 X20 Y20
G1 F1800 X66.922 Y81.48 E27.9279
G1 X67.495 Y81.184 E27.94935
G1 X68.256 Y80.917 E27.97617
G1 X68.828 Y80.765 E27.99586
G1 X69.46 Y80.639 E28.01729
G1 X70.163 Y80.591 E28.04073
G1 X93.169 Y80.589 E28.80591
G1 X93.784 Y80.625 E28.8264
G1 X100.81 Y81.461 E29.06174
G1 X106.154 Y81.762 E29.23976
G1 X129.182 Y81.826 E30.00568
G1 X129.826 Y81.868 E30.02714
G1 X130.459 Y81.989 E30.04858
G1 X131.238 Y82.256 E30.07597
G1 X131.669 Y82.443 E30.09159
G1 X132.243 Y82.735 E30.11301
G1 X132.777 Y83.097 E30.13447
G1 X133.262 Y83.522 E30.15592
G1 X133.821 Y84.177 E30.18456
G1 X134.159 Y84.647 E30.20381
G1 X134.502 Y85.193 E30.22526
G1 X134.775 Y85.777 E30.2467
G1 X134.974 Y86.39 E30.26814
G1 X135.104 Y87.095 E30.29198
G1 X135.164 Y87.622 E30.30962
G1 X135.197 Y88.214 E30.32934
G1 X135.151 Y147.28 E32.29389
G1 X135.111 Y147.923 E32.31531
G1 X134.991 Y148.557 E32.33677
G1 X134.794 Y149.171 E32.35822
G1 X134.482 Y149.828 E32.38241
G1 X134.273 Y150.199 E32.39658
G1 X133.922 Y150.74 E32.41802
G1 X133.507 Y151.234 E32.43948
G1 X132.904 Y151.775 E32.46643
G1 X132.575 Y152.027 E32.48021
G1 X132.04 Y152.387 E32.50166
G1 X131.464 Y152.677 E32.52311
G1 X130.857 Y152.894 E32.54455
G1 X130.222 Y153.036 E32.56619
G1 X129.6 Y153.134 E32.58713
G1 X128.786 Y153.197 E32.61429
G1 X105.884 Y153.174 E33.37601
G1 X105.176 Y153.125 E33.39962
G1 X102.466 Y152.75 E33.49061
G1 X97.079 Y152.214 E33.67067
G1 X94.435 Y152.064 E33.75875
G1 X90.359 Y151.976 E33.89435
G1 X69.927 Y151.948 E34.57392
G1 X69.284 Y151.907 E34.59535
G1 X68.65 Y151.787 E34.61681
G1 X67.923 Y151.543 E34.64232
G1 X67.551 Y151.387 E34.65573
G1 X66.973 Y151.102 E34.67717
G1 X66.435 Y150.747 E34.69861
G1 X65.945 Y150.328 E34.72005
G1 X65.51 Y149.852 E34.7415
G1 X65.287 Y149.553 E34.7539
G1 X64.888 Y148.977 E34.77721
G1 X64.555 Y148.425 E34.79865
G1 X64.292 Y147.837 E34.82007
G1 X64.104 Y147.22 E34.84153
G1 X63.994 Y146.585 E34.86296
G1 X63.963 Y146.019 E34.88181
G1 X63.934 Y87.318 E36.83422
G1 X63.945 Y86.975 E36.84563
G1 X64.001 Y86.12 E36.87413
G1 X64.083 Y85.481 E36.89556
G1 X64.243 Y84.856 E36.91702
G1 X64.48 Y84.257 E36.93844
G1 X64.789 Y83.691 E36.95989
G1 X65.081 Y83.273 E36.97685
G1 X65.482 Y82.756 E36.99861
G1 X65.908 Y82.272 E37.02006
G1 X66.391 Y81.845 E37.0415
M204 S5000
M205 X30 Y30
G1 F2400 E32.0415
;MESH:cover-modded.stl
G0 F3600 X69.532 Y85.229
G0 X70.067 Y86.402
G0 X86.794 Y90.607
G0 X86.724 Y90.677
M204 S500
M205 X20 Y20
;TYPE:WALL-INNER
G1 F2400 E37.0415
G1 F1800 X76.524 Y90.677 E37.38075
G1 X76.524 Y141.877 E39.08367
G1 X86.724 Y141.877 E39.42292
G1 X86.724 Y90.677 E41.12584
M204 S5000
M205 X30 Y30
G0 F3600 X86.794 Y90.607
G0 X93.154 Y86.479
G0 X93.181 Y86.383
M204 S500
M205 X20 Y20
G1 F1800 X93.279 Y86.41 E41.12922
G1 X93.344 Y86.445 E41.13168
G1 X93.426 Y86.518 E41.13533
G1 X93.455 Y86.556 E41.13692
G1 X93.505 Y86.662 E41.14082
G1 X93.523 Y86.785 E41.14495
G1 X93.524 Y145.759 E43.10644
G1 X93.506 Y145.89 E43.11083
G1 X93.459 Y145.993 E43.1146
G1 X93.382 Y146.081 E43.11849
G1 X93.281 Y146.144 E43.12245
G1 X93.188 Y146.171 E43.12567
G1 X93.098 Y146.177 E43.12867
G1 X70.149 Y146.177 E43.89196
G1 X70.059 Y146.171 E43.89496
G1 X69.964 Y146.143 E43.89825
G1 X69.86 Y146.076 E43.90236
G1 X69.788 Y145.993 E43.90602
G1 X69.76 Y145.942 E43.90795
G1 X69.731 Y145.843 E43.91139
G1 X69.724 Y145.746 E43.91462
G1 X69.724 Y86.805 E45.87501
G1 X69.73 Y86.719 E45.87787
G1 X69.758 Y86.619 E45.88133
G1 X69.823 Y86.515 E45.88541
G1 X69.901 Y86.447 E45.88885
G1 X70.007 Y86.396 E45.89276
G1 X70.065 Y86.383 E45.89474
G1 X93.098 Y86.377 E46.66082
G1 X93.181 Y86.383 E46.66359
M204 S5000
M205 X30 Y30
G0 F3600 X93.241 Y85.986
M204 S500
M205 X20 Y20
;TYPE:WALL-OUTER
G1 F1800 X93.35 Y86.01 E46.6673
G1 X93.451 Y86.048 E46.67089
G1 X93.558 Y86.106 E46.67493
G1 X93.648 Y86.173 E46.67867
G1 X93.728 Y86.254 E46.68245
G1 X93.794 Y86.343 E46.68614
G1 X93.853 Y86.451 E46.69023
G1 X93.889 Y86.546 E46.69361
G1 X93.915 Y86.67 E46.69782
G1 X93.923 Y86.763 E46.70093
G1 X93.924 Y145.777 E48.66374
G1 X93.915 Y145.892 E48.66758
G1 X93.891 Y146.001 E48.67129
G1 X93.853 Y146.105 E48.67497
G1 X93.794 Y146.212 E48.67904
G1 X93.728 Y146.3 E48.6827
G1 X93.648 Y146.381 E48.68648
G1 X93.555 Y146.45 E48.69034
G1 X93.453 Y146.506 E48.69421
G1 X93.347 Y146.545 E48.69796
G1 X93.245 Y146.568 E48.70144
G1 X93.11 Y146.577 E48.70594
G1 X70.138 Y146.577 E49.46999
G1 X70.002 Y146.568 E49.47452
G1 X69.9 Y146.545 E49.478
G1 X69.794 Y146.506 E49.48176
G1 X69.691 Y146.449 E49.48567
G1 X69.597 Y146.379 E49.48957
G1 X69.522 Y146.304 E49.4931
G1 X69.453 Y146.212 E49.49693
G1 X69.394 Y146.105 E49.50099
G1 X69.356 Y146.001 E49.50467
G1 X69.334 Y145.899 E49.50814
G1 X69.324 Y145.763 E49.51268
G1 X69.324 Y86.791 E51.47409
G1 X69.333 Y86.663 E51.47836
G1 X69.358 Y86.546 E51.48234
G1 X69.394 Y86.451 E51.48572
G1 X69.453 Y86.343 E51.48981
G1 X69.522 Y86.25 E51.49367
G1 X69.597 Y86.175 E51.49719
G1 X69.688 Y86.107 E51.50097
G1 X69.796 Y86.048 E51.50506
G1 X69.897 Y86.01 E51.50865
G1 X70.006 Y85.986 E51.51237
G1 X70.121 Y85.979 E51.5162
G1 X93.11 Y85.977 E52.28082
G1 X93.241 Y85.986 E52.28518
M204 S5000
M205 X30 Y30
G0 F3600 X93.35 Y86.01
G0 X93.434 Y86.041
G0 X93.242 Y86.502
G0 X84.911 Y90.649
G0 X84.839 Y91.077
G0 X84.924 Y91.077
M204 S500
M205 X20 Y20
G1 F1800 X84.924 Y141.477 E53.96149
G1 X86.324 Y141.477 E54.00806
G1 X86.324 Y91.077 E55.68437
G1 X84.924 Y91.077 E55.73093
M204 S5000
M205 X30 Y30
G0 F3600 X84.924 Y91.277
G0 X84.839 Y91.277
G0 X84.337 Y90.649
G0 X82.911 Y90.649
G0 X82.839 Y91.077
G0 X82.924 Y91.077
M204 S500
M205 X20 Y20
G1 F1800 X82.924 Y141.477 E57.40724
G1 X84.324 Y141.477 E57.45381
G1 X84.324 Y91.077 E59.13012
G1 X82.924 Y91.077 E59.17668
M204 S5000
M205 X30 Y30
G0 F3600 X82.924 Y91.277
G0 X82.839 Y91.277
G0 X82.337 Y90.649
G0 X80.911 Y90.649
G0 X80.839 Y91.077
G0 X80.924 Y91.077
M204 S500
M205 X20 Y20
G1 F1800 X80.924 Y141.477 E60.85299
G1 X82.324 Y141.477 E60.89956
G1 X82.324 Y91.077 E62.57587
G1 X80.924 Y91.077 E62.62243
M204 S5000
M205 X30 Y30
G0 F3600 X80.924 Y91.277
G0 X80.839 Y91.277
G0 X80.337 Y90.649
G0 X78.911 Y90.649
G0 X78.839 Y91.077
G0 X78.924 Y91.077
M204 S500
M205 X20 Y20
G1 F1800 X78.924 Y141.477 E64.29874
G1 X80.324 Y141.477 E64.34531
G1 X80.324 Y91.077 E66.02162
G1 X78.924 Y91.077 E66.06818
M204 S5000
M205 X30 Y30
G0 F3600 X78.924 Y91.277
G0 X78.839 Y91.277
G0 X78.337 Y90.649
G0 X76.924 Y90.577
G0 X76.924 Y91.077
M204 S500
M205 X20 Y20
G1 F1800 X76.924 Y141.477 E67.74449
G1 X78.324 Y141.477 E67.79106
G1 X78.324 Y91.077 E69.46737
G1 X76.924 Y91.077 E69.51393
M204 S5000
M205 X30 Y30
G0 F3600 X76.924 Y91.277
G0 X76.424 Y91.277
G0 X76.134 Y90.287
M204 S500
M205 X20 Y20
;TYPE:SKIN
G1 F1800 X76.134 Y142.267 E71.24279
G1 X87.114 Y142.267 E71.60799
G1 X87.114 Y90.287 E73.33685
G1 X76.134 Y90.287 E73.70205
M204 S5000
M205 X30 Y30
G0 F3600 X70.122 Y86.774
M204 S500
M205 X20 Y20
G1 F1800 X93.086 Y86.767 E74.46583
G1 X93.126 Y86.772 E74.46718
G1 X93.133 Y86.815 E74.46862
G1 X93.134 Y145.733 E76.42825
G1 X93.126 Y145.781 E76.42986
G1 X93.071 Y145.787 E76.4317
G1 X70.128 Y145.784 E77.19479
G1 X70.117 Y145.776 E77.19524
G1 X70.122 Y86.774 E79.15766
M204 S5000
M205 X30 Y30
G0 F3600 X92.952 Y87.295
M204 S500
M205 X20 Y20
G1 F1800 X92.604 Y86.947 E79.17403
M204 S5000
M205 X30 Y30
G0 F3600 X92.039 Y86.947
M204 S500
M205 X20 Y20
G1 F1800 X92.952 Y87.861 E79.217
M204 S5000
M205 X30 Y30
G0 F3600 X92.952 Y88.427
M204 S500
M205 X20 Y20
G1 F1800 X91.473 Y86.947 E79.28659
M204 S5000
M205 X30 Y30
G0 F3600 X90.907 Y86.947
M204 S500
M205 X20 Y20
G1 F1800 X92.952 Y88.992 E79.38278
M204 S5000
M205 X30 Y30
G0 F3600 X92.952 Y89.558
M204 S500
M205 X20 Y20
G1 F1800 X90.342 Y86.947 E79.50557
M204 S5000
M205 X30 Y30
G0 F3600 X89.777 Y86.948
M204 S500
M205 X20 Y20
G1 F1800 X92.952 Y90.124 E79.65493
M204 S5000
M205 X30 Y30
G0 F3600 X92.952 Y90.689
M204 S500
M205 X20 Y20
G1 F1800 X89.211 Y86.948 E79.8309
M204 S5000
M205 X30 Y30
G0 F3600 X88.645 Y86.948
M204 S500
M205 X20 Y20
G1 F1800 X92.952 Y91.255 E80.03349
M204 S5000
M205 X30 Y30
G0 F3600 X92.952 Y91.821
M204 S500
M205 X20 Y20
G1 F1800 X88.08 Y86.948 E80.26267
