;FLAVOR:Marlin
;TIME:619
;Filament used: 0.859722m
;Layer height: 0.3
;Generated with Cura_SteamEngine 3.6.0
M140 S60
M105
M190 S60
M104 S200
M105
M109 S200
M82 ;absolute extrusion mode
; Ender 3 Custom Start G-code
G28 ; Home all axes
G92 E0 ; Reset Extruder
G1 Z2.0 F3000 ; Move Z Axis up little to prevent scratching of Heat Bed
G1 X0.1 Y20 Z0.3 F5000.0 ; Move to start position
G1 X0.1 Y200.0 Z0.3 F1500.0 E15 ; Draw the first line
G1 X0.4 Y200.0 Z0.3 F5000.0 ; Move to side a little
G1 X0.4 Y20 Z0.3 F1500.0 E30 ; Draw the second line
G92 E0 ; Reset Extruder
G1 Z2.0 F3000 ; Move Z Axis up little to prevent scratching of Heat Bed
; End of custom start GCode
G92 E0
G1 F2400 E-5
;LAYER_COUNT:36
;LAYER:0
M107
M204 S5000
M205 X30 Y30
G0 F3600 X123.979 Y135.006 Z0.2
M204 S500
M205 X20 Y20
;TYPE:SKIRT
G1 F2400 E0
G1 F1800 X124.571 Y134.532 E0.02522
G1 X125.211 Y134.124 E0.05047
G1 X125.89 Y133.785 E0.07571
G1 X126.6 Y133.519 E0.10093
G1 X127.576 Y133.285 E0.13431
G1 X130.581 Y132.783 E0.23564
G1 X131.335 Y132.698 E0.26088
G1 X131.764 Y132.685 E0.27515
G1 X134.45 Y132.684 E0.36449
G1 X135.208 Y132.724 E0.38974
G1 X135.957 Y132.843 E0.41496
G1 X136.69 Y133.04 E0.44021
G1 X137.398 Y133.314 E0.46546
G1 X138.073 Y133.66 E0.49068
G1 X138.707 Y134.075 E0.51589
G1 X139.295 Y134.555 E0.54113
G1 X139.829 Y135.094 E0.56637
G1 X140.303 Y135.687 E0.59162
G1 X140.712 Y136.326 E0.61685
G1 X141.052 Y137.004 E0.64208
G1 X141.318 Y137.714 E0.6673
G1 X141.508 Y138.449 E0.69255
G1 X141.62 Y139.199 E0.71777
G1 X141.653 Y139.868 E0.74005
G1 X141.654 Y140.313 E0.75485
G1 X141.616 Y141.071 E0.78009
G1 X141.498 Y141.82 E0.80531
G1 X141.302 Y142.553 E0.83054
G1 X141.03 Y143.261 E0.85577
G1 X140.685 Y143.937 E0.88101
G1 X140.271 Y144.572 E0.90623
G1 X139.792 Y145.161 E0.93148
G1 X139.254 Y145.696 E0.95671
G1 X138.662 Y146.171 E0.98196
G1 X138.024 Y146.581 E1.00718
G1 X137.346 Y146.922 E1.03242
G1 X136.637 Y147.19 E1.05763
G1 X135.903 Y147.382 E1.08287
G1 X135.129 Y147.497 E1.10889
G1 X131.041 Y147.882 E1.24546
G1 X130.283 Y147.914 E1.2707
G1 X129.526 Y147.865 E1.29593
G1 X128.928 Y147.769 E1.31607
G1 X127.324 Y147.442 E1.37052
G1 X126.589 Y147.251 E1.39577
G1 X125.879 Y146.985 E1.42099
G1 X125.201 Y146.645 E1.44622
G1 X124.562 Y146.235 E1.47147
G1 X123.97 Y145.761 E1.49669
G1 X123.431 Y145.227 E1.52193
G1 X122.952 Y144.639 E1.54716
G1 X122.536 Y144.004 E1.5724
G1 X122.19 Y143.329 E1.59763
G1 X121.917 Y142.621 E1.62287
G1 X121.72 Y141.888 E1.64812
G1 X121.601 Y141.139 E1.67334
G1 X121.562 Y140.381 E1.69858
G1 X121.603 Y139.624 E1.7238
G1 X121.723 Y138.875 E1.74903
G1 X121.921 Y138.142 E1.77428
G1 X122.195 Y137.435 E1.7995
G1 X122.542 Y136.76 E1.82474
G1 X122.958 Y136.126 E1.84997
G1 X123.439 Y135.539 E1.87521
G1 X123.979 Y135.006 E1.90044
M204 S5000
M205 X30 Y30
G0 F3600 X124.024 Y135.51
M204 S500
M205 X20 Y20
G1 F1800 X124.58 Y135.025 E1.92498
G1 X125.185 Y134.604 E1.9495
G1 X125.832 Y134.251 E1.97401
G1 X126.514 Y133.969 E1.99856
G1 X127.222 Y133.764 E2.02307
G1 X127.642 Y133.68 E2.03732
G1 X130.647 Y133.178 E2.13865
G1 X131.379 Y133.096 E2.16315
G1 X131.764 Y133.085 E2.17596
G1 X134.45 Y133.084 E2.2653
G1 X135.187 Y133.124 E2.28984
G1 X135.914 Y133.243 E2.31435
G1 X136.625 Y133.44 E2.33889
G1 X137.31 Y133.713 E2.36341
G1 X137.961 Y134.059 E2.38793
G1 X138.571 Y134.473 E2.41245
G1 X139.133 Y134.95 E2.43697
G1 X139.639 Y135.486 E2.46149
G1 X140.085 Y136.073 E2.48601
G1 X140.464 Y136.705 E2.51052
G1 X140.773 Y137.375 E2.53506
G1 X141.008 Y138.074 E2.55958
G1 X141.165 Y138.794 E2.58409
G1 X141.253 Y139.869 E2.61997
G1 X141.254 Y140.314 E2.63477
G1 X141.216 Y141.05 E2.65928
G1 X141.098 Y141.778 E2.68381
G1 X140.902 Y142.489 E2.70834
G1 X140.63 Y143.174 E2.73285
G1 X140.286 Y143.826 E2.75737
G1 X139.873 Y144.437 E2.7819
G1 X139.396 Y144.999 E2.80642
G1 X138.862 Y145.507 E2.83093
G1 X138.275 Y145.954 E2.85547
G1 X137.644 Y146.334 E2.87997
G1 X136.975 Y146.644 E2.9045
G1 X136.276 Y146.88 E2.92903
G1 X135.556 Y147.039 E2.95356
G1 X135.092 Y147.099 E2.96912
G1 X131.004 Y147.484 E3.10569
G1 X130.267 Y147.513 E3.13022
G1 X129.531 Y147.463 E3.15476
G1 X129.008 Y147.377 E3.17238
G1 X127.404 Y147.05 E3.22683
G1 X126.69 Y146.864 E3.25137
G1 X126.001 Y146.601 E3.2759
G1 X125.345 Y146.266 E3.3004
G1 X124.728 Y145.861 E3.32495
G1 X124.159 Y145.392 E3.34947
G1 X123.644 Y144.865 E3.37398
G1 X123.19 Y144.284 E3.3985
G1 X122.801 Y143.658 E3.42302
G1 X122.481 Y142.994 E3.44753
G1 X122.236 Y142.298 E3.47207
G1 X122.068 Y141.58 E3.4966
G1 X121.978 Y140.849 E3.5211
G1 X121.968 Y140.111 E3.54565
G1 X122.037 Y139.377 E3.57017
G1 X122.186 Y138.655 E3.59469
G1 X122.412 Y137.954 E3.61918
G1 X122.713 Y137.28 E3.64373
G1 X123.085 Y136.644 E3.66824
G1 X123.524 Y136.051 E3.69278
G1 X124.024 Y135.51 E3.71728
M204 S5000
M205 X30 Y30
G0 F3600 X124.619 Y135.509
M204 S500
M205 X20 Y20
G1 F1800 X125.189 Y135.077 E3.74107
G1 X125.804 Y134.712 E3.76486
G1 X126.456 Y134.417 E3.78866
G1 X127.136 Y134.197 E3.81243
G1 X127.707 Y134.074 E3.83186
G1 X130.712 Y133.572 E3.93319
G1 X131.765 Y133.485 E3.96833
G1 X134.451 Y133.484 E4.05767
G1 X135.165 Y133.524 E4.08145
G1 X135.87 Y133.643 E4.10523
G1 X136.558 Y133.84 E4.12903
G1 X137.219 Y134.113 E4.15282
G1 X137.846 Y134.457 E4.17661
G1 X138.43 Y134.87 E4.2004
G1 X138.965 Y135.345 E4.22419
G1 X139.443 Y135.877 E4.24798
G1 X139.859 Y136.458 E4.27175
G1 X140.208 Y137.083 E4.29556
G1 X140.484 Y137.743 E4.31935
G1 X140.685 Y138.429 E4.34313
G1 X140.809 Y139.134 E4.36693
G1 X140.853 Y139.87 E4.39146
G1 X140.854 Y140.315 E4.40626
G1 X140.816 Y141.029 E4.43004
G1 X140.698 Y141.734 E4.45381
G1 X140.502 Y142.422 E4.47761
G1 X140.231 Y143.084 E4.5014
G1 X139.887 Y143.711 E4.52519
G1 X139.476 Y144.297 E4.54899
G1 X139.002 Y144.832 E4.57277
G1 X138.471 Y145.311 E4.59655
G1 X137.89 Y145.729 E4.62036
G1 X137.266 Y146.078 E4.64414
G1 X136.607 Y146.356 E4.66793
G1 X135.921 Y146.559 E4.69172
G1 X135.054 Y146.701 E4.72094
G1 X130.966 Y147.086 E4.85751
G1 X130.251 Y147.113 E4.88131
G1 X129.538 Y147.06 E4.90509
G1 X129.088 Y146.985 E4.92026
G1 X127.484 Y146.658 E4.97471
G1 X126.792 Y146.476 E4.99851
G1 X126.125 Y146.218 E5.02229
G1 X125.49 Y145.888 E5.04609
G1 X124.897 Y145.488 E5.06989
G1 X124.352 Y145.025 E5.09367
G1 X123.862 Y144.504 E5.11746
G1 X123.433 Y143.932 E5.14124
G1 X123.071 Y143.315 E5.16503
G1 X122.78 Y142.661 E5.18884
G1 X122.563 Y141.98 E5.21261
G1 X122.424 Y141.278 E5.23641
G1 X122.364 Y140.565 E5.26021
G1 X122.385 Y139.85 E5.284
G1 X122.484 Y139.142 E5.30778
G1 X122.662 Y138.449 E5.33158
G1 X122.917 Y137.781 E5.35536
G1 X123.244 Y137.145 E5.37915
G1 X123.64 Y136.549 E5.40295
G1 X124.1 Y136.002 E5.42672
G1 X124.619 Y135.509 E5.45053
M204 S5000
M205 X30 Y30
G0 F3600 X124.689 Y135.982
M204 S500
M205 X20 Y20
G1 F1800 X125.223 Y135.542 E5.47354
G1 X125.805 Y135.166 E5.49659
G1 X126.427 Y134.86 E5.51964
G1 X127.079 Y134.628 E5.54266
G1 X127.773 Y134.469 E5.56634
G1 X130.778 Y133.967 E5.66767
G1 X131.765 Y133.885 E5.70061
G1 X134.451 Y133.884 E5.78995
G1 X135.142 Y133.924 E5.81297
G1 X135.824 Y134.043 E5.836
G1 X136.488 Y134.24 E5.85903
G1 X137.125 Y134.512 E5.88207
G1 X137.726 Y134.856 E5.9051
G1 X138.284 Y135.266 E5.92813
G1 X138.791 Y135.738 E5.95117
G1 X139.239 Y136.266 E5.9742
G1 X139.624 Y136.842 E5.99725
G1 X139.941 Y137.458 E6.02029
G1 X140.184 Y138.106 E6.04331
G1 X140.35 Y138.778 E6.06633
G1 X140.438 Y139.465 E6.08936
G1 X140.453 Y139.871 E6.10288
G1 X140.454 Y140.316 E6.11768
G1 X140.416 Y141.007 E6.1407
G1 X140.298 Y141.689 E6.16372
G1 X140.102 Y142.354 E6.18677
G1 X139.831 Y142.991 E6.2098
G1 X139.489 Y143.593 E6.23283
G1 X139.079 Y144.151 E6.25586
G1 X138.608 Y144.659 E6.2789
G1 X138.081 Y145.109 E6.30195
G1 X137.506 Y145.495 E6.32498
G1 X136.891 Y145.812 E6.34799
G1 X136.243 Y146.056 E6.37102
G1 X135.571 Y146.224 E6.39406
G1 X135.017 Y146.303 E6.41268
G1 X130.929 Y146.688 E6.54924
G1 X130.237 Y146.713 E6.57228
G1 X129.546 Y146.658 E6.59533
G1 X129.167 Y146.593 E6.60812
G1 X127.563 Y146.266 E6.66257
G1 X126.894 Y146.089 E6.68558
G1 X126.249 Y145.836 E6.70863
G1 X125.638 Y145.51 E6.73166
G1 X125.069 Y145.116 E6.75468
G1 X124.549 Y144.659 E6.77771
G1 X124.084 Y144.145 E6.80076
G1 X123.683 Y143.581 E6.82378
G1 X123.348 Y142.974 E6.84684
G1 X123.086 Y142.333 E6.86987
G1 X122.9 Y141.666 E6.8929
G1 X122.792 Y140.982 E6.91593
G1 X122.763 Y140.29 E6.93897
G1 X122.814 Y139.599 E6.96201
G1 X122.944 Y138.919 E6.98504
G1 X123.152 Y138.259 E7.00805
G1 X123.435 Y137.626 E7.03112
G1 X123.788 Y137.031 E7.05413
G1 X124.208 Y136.48 E7.07717
G1 X124.689 Y135.982 E7.1002
M204 S5000
M205 X30 Y30
G0 F3600 X125.288 Y135.995
M204 S500
M205 X20 Y20
G1 F1800 X125.837 Y135.612 E7.12246
G1 X126.427 Y135.297 E7.14471
G1 X127.051 Y135.055 E7.16697
G1 X127.839 Y134.864 E7.19394
G1 X130.844 Y134.362 E7.29527
G1 X131.765 Y134.285 E7.32601
G1 X134.451 Y134.284 E7.41534
G1 X135.119 Y134.324 E7.4376
G1 X135.777 Y134.443 E7.45984
G1 X136.417 Y134.64 E7.48211
G1 X137.028 Y134.911 E7.50434
G1 X137.603 Y135.254 E7.52661
G1 X138.132 Y135.662 E7.54883
G1 X138.61 Y136.131 E7.57111
G1 X139.027 Y136.654 E7.59335
G1 X139.38 Y137.222 E7.6156
G1 X139.662 Y137.829 E7.63786
G1 X139.87 Y138.465 E7.66011
G1 X140.001 Y139.121 E7.68236
G1 X140.053 Y139.871 E7.70737
G1 X140.054 Y140.316 E7.72217
G1 X140.016 Y140.984 E7.74442
G1 X139.898 Y141.643 E7.76669
G1 X139.702 Y142.283 E7.78895
G1 X139.432 Y142.895 E7.8112
G1 X139.09 Y143.47 E7.83345
G1 X138.683 Y144 E7.85568
G1 X138.215 Y144.479 E7.87795
G1 X137.693 Y144.897 E7.90019
G1 X137.125 Y145.251 E7.92245
G1 X136.519 Y145.534 E7.9447
G1 X135.883 Y145.744 E7.96698
G1 X134.979 Y145.904 E7.99751
G1 X130.891 Y146.289 E8.13408
G1 X130.222 Y146.312 E8.15634
G1 X129.247 Y146.201 E8.18898
G1 X127.643 Y145.874 E8.24343
G1 X126.997 Y145.702 E8.26566
G1 X126.376 Y145.453 E8.28792
G1 X125.789 Y145.132 E8.31017
G1 X125.244 Y144.744 E8.33242
G1 X124.749 Y144.293 E8.35469
G1 X124.312 Y143.787 E8.37693
G1 X123.939 Y143.232 E8.39917
G1 X123.634 Y142.636 E8.42144
G1 X123.402 Y142.009 E8.44367
G1 X123.247 Y141.358 E8.46593
G1 X123.17 Y140.693 E8.4882
G1 X123.174 Y140.024 E8.51045
G1 X123.257 Y139.361 E8.53267
G1 X123.419 Y138.711 E8.55495
G1 X123.657 Y138.086 E8.5772
G1 X123.967 Y137.494 E8.59942
G1 X124.347 Y136.942 E8.62171
G1 X124.789 Y136.441 E8.64393
G1 X125.288 Y135.995 E8.66619
M204 S5000
M205 X30 Y30
G0 F3600 X125.382 Y136.435
M204 S500
M205 X20 Y20
G1 F1800 X125.897 Y136.047 E8.68764
G1 X126.456 Y135.726 E8.70908
G1 X127.051 Y135.477 E8.73053
G1 X127.905 Y135.258 E8.75986
G1 X130.91 Y134.756 E8.86119
G1 X131.765 Y134.685 E8.88972
G1 X134.451 Y134.684 E8.97906
G1 X135.095 Y134.724 E9.00052
G1 X135.728 Y134.843 E9.02194
G1 X136.342 Y135.039 E9.04338
G1 X136.927 Y135.31 E9.06482
G1 X137.474 Y135.652 E9.08628
G1 X137.974 Y136.058 E9.1077
G1 X138.421 Y136.523 E9.12915
G1 X138.806 Y137.04 E9.15059
G1 X139.125 Y137.6 E9.17203
G1 X139.371 Y138.196 E9.19347
G1 X139.542 Y138.817 E9.2149
G1 X139.635 Y139.455 E9.23634
G1 X139.653 Y139.872 E9.25022
G1 X139.654 Y140.317 E9.26503
G1 X139.615 Y140.961 E9.28648
G1 X139.498 Y141.595 E9.30793
G1 X139.302 Y142.209 E9.32936
G1 X139.032 Y142.794 E9.35079
G1 X138.692 Y143.342 E9.37224
G1 X138.287 Y143.843 E9.39367
G1 X137.822 Y144.291 E9.41515
G1 X137.306 Y144.677 E9.43658
G1 X136.746 Y144.996 E9.45802
G1 X136.151 Y145.244 E9.47946
G1 X135.53 Y145.416 E9.50089
G1 X134.942 Y145.506 E9.52067
G1 X130.854 Y145.891 E9.65724
G1 X130.209 Y145.912 E9.67871
G1 X129.327 Y145.809 E9.70824
G1 X127.723 Y145.482 E9.76269
G1 X127.101 Y145.315 E9.78411
G1 X126.504 Y145.071 E9.80556
G1 X125.942 Y144.756 E9.82699
G1 X125.423 Y144.373 E9.84844
G1 X124.955 Y143.929 E9.8699
G1 X124.546 Y143.431 E9.89133
G1 X124.202 Y142.886 E9.91277
G1 X123.928 Y142.302 E9.93422
G1 X123.728 Y141.69 E9.95564
G1 X123.605 Y141.057 E9.97708
G1 X123.562 Y140.413 E9.99855
G1 X123.599 Y139.77 E10.01997
G1 X123.715 Y139.136 E10.04141
G1 X123.908 Y138.521 E10.06285
G1 X124.177 Y137.935 E10.08429
G1 X124.515 Y137.386 E10.10574
G1 X124.919 Y136.884 E10.12717
G1 X125.382 Y136.435 E10.14862
M204 S5000
M205 X30 Y30
G1 F2400 E5.14862
;MESH:raspberrypi-mount.stl
G0 F3600 X129.675 Y139.55
G0 X129.819 Y140.405
G0 X130.063 Y140.446
G0 X130.14 Y140.348
M204 S500
M205 X20 Y20
;TYPE:WALL-OUTER
G1 F2400 E10.14862
G1 F1800 X130.163 Y140.344 E10.1494
G1 X130.163 Y140.405 E10.15038
G1 X130.163 Y140.479 E10.15182
G1 X130.137 Y140.474
G1 X129.801 Y140.405 E10.1601
G1 X130.14 Y140.348 E10.16206
M204 S5000
M205 X30 Y30
G0 F3600 X130.163 Y140.344
G0 X130.163 Y140.405
G0 X130.163 Y140.479
G0 X130.137 Y140.474
G0 X130.122 Y140.471
G1 F2400 E5.16206
G0 F3600 X130.063 Y140.373
G0 X130.151 Y140.358
G0 X131.409 Y140.138
G0 X131.77 Y140.126
G0 X131.769 Y140.138
M204 S500
M205 X20 Y20
G1 F2400 E10.16206
G1 F1800 X131.393 Y140.139 E10.17456
G1 X131.768 Y140.076 E10.17565
G1 X134.263 Y140.075 E10.25864
G1 X134.263 Y140.138 E10.26073
G1 X131.769 Y140.138 E10.27357
M204 S5000
M205 X30 Y30
G0 F3600 X131.569 Y140.138
G1 F2400 E5.27357
;MESH:NONMESH
G0 F3600 X131.456 Y139.252
G0 X124.879 Y139.725
;TIME_ELAPSED:20.166930
;LAYER:1
M140 S60
M106 S255
;MESH:raspberrypi-mount.stl
G0 F5400 X124.879 Y139.725 Z0.5
M204 S500
M205 X20 Y20
;TYPE:WALL-INNER
G1 F2400 E10.27357
G1 F2700 X124.879 Y149.483 E10.7604
G1 X124.879 Y150.02 E10.78719
G1 X101.137 Y150.02 E11.97169
G1 X101.137 Y149.483 E11.99848
G1 X101.137 Y142.863 E12.32875
G1 X101.433 Y142.562 E12.34981
G1 X101.433 Y142.863 E12.3543
G1 X101.433 Y149.483 E12.5987
G1 X124.513 Y149.483 E13.75017
G1 X124.513 Y139.725 E14.19562
G1 X124.513 Y124.231 E14.96862
G1 X124.513 Y86.828 E16.83466
G1 X101.433 Y86.827 E17.98613
G1 X101.433 Y92.202 E18.25429
G1 X101.433 Y92.699 E18.27908
G1 X101.137 Y92.202 E18.29163
G1 X101.137 Y86.827 E18.49007
G1 X101.137 Y84.967 E18.58286
G1 X124.679 Y84.966 E19.75738
G1 X124.879 Y84.966 E19.76736
G1 X124.879 Y85.166 E19.77382
G1 X124.879 Y86.828 E19.85674
G1 X124.879 Y124.231 E21.56417
G1 X129.763 Y123.116 E21.8141
G1 X129.763 Y124.078 E21.86209
G1 X132.212 Y124.078 E21.98427
G1 X132.332 Y124.078 E21.99026
G1 X133.863 Y124.079 E22.06664
G1 X133.863 Y124.73 E22.09912
G1 X133.211 Y125.378 E22.14498
G1 X132.296 Y124.462 E22.20958
G1 X132.212 Y124.378 E22.21481
G1 X129.763 Y124.378 E22.30645
G1 X129.431 Y124.378 E22.32301
G1 X129.163 Y124.405 E22.33645
G1 X128.882 Y124.485 E22.35103
G1 X128.616 Y124.616 E22.36582
G1 X128.379 Y124.797 E22.3807
G1 X128.197 Y124.999 E22.39426
G1 X128.098 Y125.141 E22.4029
G1 X127.97 Y125.396 E22.41713
G1 X127.894 Y125.665 E22.43108
G1 X127.871 Y125.821 E22.43895
G1 X127.863 Y125.962 E22.44599
G1 X127.863 Y138.006 E23.04687
G1 X127.886 Y138.269 E23.06004
G1 X127.968 Y138.558 E23.07503
G1 X128.101 Y138.823 E23.08982
G1 X128.279 Y139.058 E23.10453
G1 X128.497 Y139.256 E23.11922
G1 X128.735 Y139.404 E23.1332
G1 X128.897 Y139.477 E23.14207
G1 X129.156 Y139.549 E23.15548
G1 X129.328 Y139.574 E23.16415
G1 X129.763 Y139.574 E23.18585
G1 X132.211 Y139.579 E23.30798
G1 X132.414 Y139.377 E23.32227
G1 X133.215 Y138.578 E23.37872
G1 X133.863 Y139.227 E23.42447
G1 X133.863 Y139.741 E23.45011
G1 X132.499 Y139.741 E23.51816
G1 X132.212 Y139.741 E23.52855
G1 X129.763 Y139.742 E23.57896
G1 X129.763 Y140.841 E23.63379
G1 X124.879 Y139.725 E23.88374
M204 S5000
M205 X30 Y30
G0 F5400 X124.817 Y139.647
G0 X124.779 Y123.729
G0 X125.279 Y123.729
M204 S500
M205 X20 Y20
;TYPE:WALL-OUTER
G1 F1800 X125.522 Y123.674 E23.89617
G1 X129.811 Y122.694 E24.11566
G1 X129.885 Y122.678 E24.11944
G1 X130.163 Y122.679 E24.13331
G1 X130.163 Y122.755 E24.13665
G1 X130.163 Y123.678 E24.1827
G1 X134.263 Y123.679 E24.38725
G1 X134.263 Y124.896 E24.44797
G1 X133.403 Y125.756 E24.50864
G1 X133.381 Y125.778 E24.5102
G1 X133.045 Y125.778 E24.52696
G1 X133.023 Y125.756 E24.52851
G1 X132.046 Y124.778 E24.59748
G1 X129.451 Y124.778 E24.72694
G1 X129.239 Y124.799 E24.73757
G1 X129.027 Y124.86 E24.74858
G1 X128.828 Y124.958 E24.75965
G1 X128.651 Y125.093 E24.77075
G1 X128.511 Y125.248 E24.78117
G1 X128.443 Y125.346 E24.78712
G1 X128.345 Y125.541 E24.79801
G1 X128.286 Y125.75 E24.80885
G1 X128.269 Y125.862 E24.8145
G1 X128.263 Y125.973 E24.82004
